%
(clamp_plate)
(T1  D=0.125 CR=0. - ZMIN=-0.1875 - flat end mill)
(T4  D=0.0937 CR=0.0234 - ZMIN=-0.1875 - bullnose end mill)
N10 G90 G54 G64 G50 G17 G40 G80 G94 G91.1 G49
N20 G20 (Inch)
N30 G30

(2D Pocket1)
N50 G30
N60 T1 G43 H1 M6
N70 S5000 M3 M8
N80 G54
N90 G0 X1.4616 Y0.7501
N100 G0 Z0.6
N110 G0 Z0.2
N120 G1 Z0.1109 F40.
N130 G3 X1.4618 Y0.7509 Z0.1062 I-0.0577 J0.0139 F13.3
N140 G3 X1.4623 Y0.7535 Z0.1022 I-0.0579 J0.013
N150 G3 X1.4629 Y0.7574 Z0.0995 I-0.0584 J0.0105
N160 G3 X1.4632 Y0.762 Z0.0984 I-0.059 J0.0066
N170 G3 X1.3446 Y0.766 Z0.0919 I-0.0593 J0.002
N180 G3 X1.4632 Y0.762 Z0.0854 I0.0593 J-0.002
N190 G3 X1.3446 Y0.766 Z0.0789 I-0.0593 J0.002
N200 G3 X1.4632 Y0.762 Z0.0724 I0.0593 J-0.002
N210 G3 X1.3446 Y0.766 Z0.0659 I-0.0593 J0.002
N220 G3 X1.4632 Y0.762 Z0.0593 I0.0593 J-0.002
N230 G3 X1.3446 Y0.766 Z0.0528 I-0.0593 J0.002
N240 G3 X1.4632 Y0.762 Z0.0463 I0.0593 J-0.002
N250 G3 X1.3446 Y0.766 Z0.0398 I-0.0593 J0.002
N260 G3 X1.4632 Y0.762 Z0.0333 I0.0593 J-0.002
N270 G3 X1.3446 Y0.766 Z0.0268 I-0.0593 J0.002
N280 G3 X1.4632 Y0.762 Z0.0203 I0.0593 J-0.002
N290 G3 X1.3446 Y0.766 Z0.0137 I-0.0593 J0.002
N300 G3 X1.4632 Y0.762 Z0.0072 I0.0593 J-0.002
N310 G3 X1.3446 Y0.766 Z0.0007 I-0.0593 J0.002
N320 G3 X1.4632 Y0.762 Z-0.0058 I0.0593 J-0.002
N330 G3 X1.3446 Y0.766 Z-0.0123 I-0.0593 J0.002
N340 G3 X1.4632 Y0.762 Z-0.0188 I0.0593 J-0.002
N350 G3 X1.3446 Y0.766 Z-0.0253 I-0.0593 J0.002
N360 G3 X1.4632 Y0.762 Z-0.0319 I0.0593 J-0.002
N370 G3 X1.3446 Y0.766 Z-0.0384 I-0.0593 J0.002
N380 G3 X1.3505 Y0.7381 Z-0.0394 I0.0593 J-0.002
N390 G3 X1.3539 Y0.7323 I0.0362 J0.0175 F20.
N400 G3 X1.3757 Y0.7214 I0.0212 J0.0151
N410 G3 X1.4036 Y0.7507 I-0.0007 J0.0286
N420 G2 X1.4022 Y0.8751 I4.2352 J0.1093
N430 G2 X1.4036 Y0.9995 I8.1725 J-0.029
N440 G3 X1.3747 Y1.0286 I-0.0286 J0.0005
N450 G3 X1.3539 Y1.0181 I0.0002 J-0.0265
N460 G3 X1.3464 Y0.996 I0.0291 J-0.0221
N470 G1 Y0.7556
N480 G3 X1.3505 Y0.7381 I0.0402 J0.
N490 G2 X1.349 Y0.6667 I-0.0708 J-0.0343
N500 G3 X1.3886 Y0.6072 I0.0357 J-0.0191
N510 G3 X1.5184 Y0.7537 I-0.0136 J0.1428
N520 G2 X1.5183 Y0.7614 I0.294 J0.0076
N530 G3 X1.5178 Y0.8793 I-13.3882 J0.0039
N540 G2 X1.5184 Y0.9973 I4.3235 J0.0368
N550 G3 X1.3737 Y1.1434 I-0.1434 J0.0027
N560 G3 X1.2723 Y1.0989 I0.0013 J-0.1407
N570 G3 X1.2316 Y0.996 I0.1097 J-0.1029
N580 G3 X1.232 Y0.8739 I19.6178 J0.0013
N590 G2 X1.2316 Y0.7518 I-6.403 J-0.0403
N600 G3 X1.3886 Y0.6072 I0.1434 J-0.0018
N610 G2 X1.4672 Y0.5713 I0.0082 J-0.0861
N620 G3 X1.5532 Y0.5631 I0.0466 J0.0332
N630 G3 X1.6331 Y0.7567 I-0.1782 J0.1869
N640 G2 X1.6318 Y0.8759 I4.0194 J0.1038
N650 G2 X1.6332 Y0.9952 I7.9956 J-0.0308
N660 G3 X1.3726 Y1.2582 I-0.2582 J0.0048
N670 G3 X1.1908 Y1.1797 I0.0023 J-0.2555
N680 G3 X1.1168 Y0.996 I0.1912 J-0.1837
N690 G1 Y0.7556
N700 G3 X1.1936 Y0.5679 I0.2679 J0.
N710 G3 X1.3817 Y0.4919 I0.1815 J0.1783
N720 G3 X1.5532 Y0.5631 I-0.0067 J0.2581
N730 G2 X1.6443 Y0.5834 I0.0624 J-0.0654
N740 G3 X1.7283 Y0.6243 I0.0212 J0.0632
N750 G3 X1.7499 Y0.7597 I-0.3533 J0.1257
N760 G2 Y0.7613 I0.0625 J0.0016
N770 G1 Y0.9918
N780 G2 Y0.993 I0.0625 J0.
N790 G3 X1.3768 Y1.375 I-0.3749 J0.007
N800 G3 X1. Y0.9966 I-0.0018 J-0.375
N810 G2 Y0.996 I-0.0625 J-0.0006
N820 G1 Y0.7556
N830 G2 Y0.7548 I-0.0625 J0.
N840 G3 X1.7283 Y0.6243 I0.375 J-0.0048
N850 G3 X1.7251 Y0.632 I-0.0059 J0.0021
N860 G1 X1.5384 Y0.7194
N870 G3 X1.536 Y0.7203 I-0.0035 J-0.0052
N880 G1 X1.3545 Y0.7538
N890 G3 X1.3474 Y0.7457 I-0.0011 J-0.0061
N900 G3 X1.4604 Y0.7822 Z-0.0459 I0.0565 J0.0182 F13.3
N910 G3 X1.3474 Y0.7457 Z-0.0524 I-0.0565 J-0.0182
N920 G3 X1.4604 Y0.7822 Z-0.0589 I0.0565 J0.0182
N930 G3 X1.3474 Y0.7457 Z-0.0654 I-0.0565 J-0.0182
N940 G3 X1.4604 Y0.7822 Z-0.0719 I0.0565 J0.0182
N950 G3 X1.3818 Y0.8191 Z-0.0753 I-0.0565 J-0.0182
N960 G3 X1.3505 Y0.7381 Z-0.0787 I0.0221 J-0.0551
N970 G3 X1.3539 Y0.7323 I0.0362 J0.0175 F20.
N980 G3 X1.3757 Y0.7214 I0.0212 J0.0151
N990 G3 X1.4036 Y0.7507 I-0.0007 J0.0286
N1000 G2 X1.4022 Y0.8751 I4.2352 J0.1093
N1010 G2 X1.4036 Y0.9995 I8.1725 J-0.029
N1020 G3 X1.3747 Y1.0286 I-0.0286 J0.0005
N1030 G3 X1.3539 Y1.0181 I0.0002 J-0.0265
N1040 G3 X1.3464 Y0.996 I0.0291 J-0.0221
N1050 G1 Y0.7556
N1060 G3 X1.3505 Y0.7381 I0.0402 J0.
N1070 G2 X1.349 Y0.6667 I-0.0708 J-0.0343
N1080 G3 X1.3886 Y0.6072 I0.0357 J-0.0191
N1090 G3 X1.5184 Y0.7537 I-0.0136 J0.1428
N1100 G2 X1.5183 Y0.7614 I0.294 J0.0076
N1110 G3 X1.5178 Y0.8793 I-13.3882 J0.0039
N1120 G2 X1.5184 Y0.9973 I4.3235 J0.0368
N1130 G3 X1.3737 Y1.1434 I-0.1434 J0.0027
N1140 G3 X1.2723 Y1.0989 I0.0013 J-0.1407
N1150 G3 X1.2316 Y0.996 I0.1097 J-0.1029
N1160 G3 X1.232 Y0.8739 I19.6178 J0.0013
N1170 G2 X1.2316 Y0.7518 I-6.403 J-0.0403
N1180 G3 X1.3886 Y0.6072 I0.1434 J-0.0018
N1190 G2 X1.4672 Y0.5713 I0.0082 J-0.0861
N1200 G3 X1.5532 Y0.5631 I0.0466 J0.0332
N1210 G3 X1.6331 Y0.7567 I-0.1782 J0.1869
N1220 G2 X1.6318 Y0.8759 I4.0194 J0.1038
N1230 G2 X1.6332 Y0.9952 I7.9956 J-0.0308
N1240 G3 X1.3726 Y1.2582 I-0.2582 J0.0048
N1250 G3 X1.1908 Y1.1797 I0.0023 J-0.2555
N1260 G3 X1.1168 Y0.996 I0.1912 J-0.1837
N1270 G1 Y0.7556
N1280 G3 X1.1936 Y0.5679 I0.2679 J0.
N1290 G3 X1.3817 Y0.4919 I0.1815 J0.1783
N1300 G3 X1.5532 Y0.5631 I-0.0067 J0.2581
N1310 G2 X1.6443 Y0.5834 I0.0624 J-0.0654
N1320 G3 X1.7283 Y0.6243 I0.0212 J0.0632
N1330 G3 X1.7499 Y0.7597 I-0.3533 J0.1257
N1340 G2 Y0.7613 I0.0625 J0.0016
N1350 G1 Y0.9918
N1360 G2 Y0.993 I0.0625 J0.
N1370 G3 X1.3768 Y1.375 I-0.3749 J0.007
N1380 G3 X1. Y0.9966 I-0.0018 J-0.375
N1390 G2 Y0.996 I-0.0625 J-0.0006
N1400 G1 Y0.7556
N1410 G2 Y0.7548 I-0.0625 J0.
N1420 G3 X1.7283 Y0.6243 I0.375 J-0.0048
N1430 G3 X1.7251 Y0.632 I-0.0059 J0.0021
N1440 G1 X1.5384 Y0.7194
N1450 G3 X1.536 Y0.7203 I-0.0035 J-0.0052
N1460 G1 X1.3545 Y0.7538
N1470 G3 X1.3474 Y0.7457 I-0.0011 J-0.0061
N1480 G3 X1.4604 Y0.7822 Z-0.0853 I0.0565 J0.0182 F13.3
N1490 G3 X1.3474 Y0.7457 Z-0.0918 I-0.0565 J-0.0182
N1500 G3 X1.4604 Y0.7822 Z-0.0983 I0.0565 J0.0182
N1510 G3 X1.3474 Y0.7457 Z-0.1048 I-0.0565 J-0.0182
N1520 G3 X1.4604 Y0.7822 Z-0.1113 I0.0565 J0.0182
N1530 G3 X1.3818 Y0.8191 Z-0.1147 I-0.0565 J-0.0182
N1540 G3 X1.3505 Y0.7381 Z-0.1181 I0.0221 J-0.0551
N1550 G3 X1.3539 Y0.7323 I0.0362 J0.0175 F20.
N1560 G3 X1.3757 Y0.7214 I0.0212 J0.0151
N1570 G3 X1.4036 Y0.7507 I-0.0007 J0.0286
N1580 G2 X1.4022 Y0.8751 I4.2352 J0.1093
N1590 G2 X1.4036 Y0.9995 I8.1725 J-0.029
N1600 G3 X1.3747 Y1.0286 I-0.0286 J0.0005
N1610 G3 X1.3539 Y1.0181 I0.0002 J-0.0265
N1620 G3 X1.3464 Y0.996 I0.0291 J-0.0221
N1630 G1 Y0.7556
N1640 G3 X1.3505 Y0.7381 I0.0402 J0.
N1650 G2 X1.349 Y0.6667 I-0.0708 J-0.0343
N1660 G3 X1.3886 Y0.6072 I0.0357 J-0.0191
N1670 G3 X1.5184 Y0.7537 I-0.0136 J0.1428
N1680 G2 X1.5183 Y0.7614 I0.294 J0.0076
N1690 G3 X1.5178 Y0.8793 I-13.3882 J0.0039
N1700 G2 X1.5184 Y0.9973 I4.3235 J0.0368
N1710 G3 X1.3737 Y1.1434 I-0.1434 J0.0027
N1720 G3 X1.2723 Y1.0989 I0.0013 J-0.1407
N1730 G3 X1.2316 Y0.996 I0.1097 J-0.1029
N1740 G3 X1.232 Y0.8739 I19.6178 J0.0013
N1750 G2 X1.2316 Y0.7518 I-6.403 J-0.0403
N1760 G3 X1.3886 Y0.6072 I0.1434 J-0.0018
N1770 G2 X1.4672 Y0.5713 I0.0082 J-0.0861
N1780 G3 X1.5532 Y0.5631 I0.0466 J0.0332
N1790 G3 X1.6331 Y0.7567 I-0.1782 J0.1869
N1800 G2 X1.6318 Y0.8759 I4.0194 J0.1038
N1810 G2 X1.6332 Y0.9952 I7.9956 J-0.0308
N1820 G3 X1.3726 Y1.2582 I-0.2582 J0.0048
N1830 G3 X1.1908 Y1.1797 I0.0023 J-0.2555
N1840 G3 X1.1168 Y0.996 I0.1912 J-0.1837
N1850 G1 Y0.7556
N1860 G3 X1.1936 Y0.5679 I0.2679 J0.
N1870 G3 X1.3817 Y0.4919 I0.1815 J0.1783
N1880 G3 X1.5532 Y0.5631 I-0.0067 J0.2581
N1890 G2 X1.6443 Y0.5834 I0.0624 J-0.0654
N1900 G3 X1.7283 Y0.6243 I0.0212 J0.0632
N1910 G3 X1.7499 Y0.7597 I-0.3533 J0.1257
N1920 G2 Y0.7613 I0.0625 J0.0016
N1930 G1 Y0.9918
N1940 G2 Y0.993 I0.0625 J0.
N1950 G3 X1.3768 Y1.375 I-0.3749 J0.007
N1960 G3 X1. Y0.9966 I-0.0018 J-0.375
N1970 G2 Y0.996 I-0.0625 J-0.0006
N1980 G1 Y0.7556
N1990 G2 Y0.7548 I-0.0625 J0.
N2000 G3 X1.7283 Y0.6243 I0.375 J-0.0048
N2010 G3 X1.7251 Y0.632 I-0.0059 J0.0021
N2020 G1 X1.5384 Y0.7194
N2030 G3 X1.536 Y0.7203 I-0.0035 J-0.0052
N2040 G1 X1.3545 Y0.7538
N2050 G3 X1.3474 Y0.7457 I-0.0011 J-0.0061
N2060 G3 X1.4604 Y0.7822 Z-0.1246 I0.0565 J0.0182 F13.3
N2070 G3 X1.3474 Y0.7457 Z-0.1311 I-0.0565 J-0.0182
N2080 G3 X1.4604 Y0.7822 Z-0.1377 I0.0565 J0.0182
N2090 G3 X1.3474 Y0.7457 Z-0.1442 I-0.0565 J-0.0182
N2100 G3 X1.4604 Y0.7822 Z-0.1507 I0.0565 J0.0182
N2110 G3 X1.3818 Y0.8191 Z-0.1541 I-0.0565 J-0.0182
N2120 G3 X1.3505 Y0.7381 Z-0.1575 I0.0221 J-0.0551
N2130 G3 X1.3539 Y0.7323 I0.0362 J0.0175 F20.
N2140 G3 X1.3757 Y0.7214 I0.0212 J0.0151
N2150 G3 X1.4036 Y0.7507 I-0.0007 J0.0286
N2160 G2 X1.4022 Y0.8751 I4.2352 J0.1093
N2170 G2 X1.4036 Y0.9995 I8.1725 J-0.029
N2180 G3 X1.3747 Y1.0286 I-0.0286 J0.0005
N2190 G3 X1.3539 Y1.0181 I0.0002 J-0.0265
N2200 G3 X1.3464 Y0.996 I0.0291 J-0.0221
N2210 G1 Y0.7556
N2220 G3 X1.3505 Y0.7381 I0.0402 J0.
N2230 G2 X1.349 Y0.6667 I-0.0708 J-0.0343
N2240 G3 X1.3886 Y0.6072 I0.0357 J-0.0191
N2250 G3 X1.5184 Y0.7537 I-0.0136 J0.1428
N2260 G2 X1.5183 Y0.7614 I0.294 J0.0076
N2270 G3 X1.5178 Y0.8793 I-13.3882 J0.0039
N2280 G2 X1.5184 Y0.9973 I4.3235 J0.0368
N2290 G3 X1.3737 Y1.1434 I-0.1434 J0.0027
N2300 G3 X1.2723 Y1.0989 I0.0013 J-0.1407
N2310 G3 X1.2316 Y0.996 I0.1097 J-0.1029
N2320 G3 X1.232 Y0.8739 I19.6178 J0.0013
N2330 G2 X1.2316 Y0.7518 I-6.403 J-0.0403
N2340 G3 X1.3886 Y0.6072 I0.1434 J-0.0018
N2350 G2 X1.4672 Y0.5713 I0.0082 J-0.0861
N2360 G3 X1.5532 Y0.5631 I0.0466 J0.0332
N2370 G3 X1.6331 Y0.7567 I-0.1782 J0.1869
N2380 G2 X1.6318 Y0.8759 I4.0194 J0.1038
N2390 G2 X1.6332 Y0.9952 I7.9956 J-0.0308
N2400 G3 X1.3726 Y1.2582 I-0.2582 J0.0048
N2410 G3 X1.1908 Y1.1797 I0.0023 J-0.2555
N2420 G3 X1.1168 Y0.996 I0.1912 J-0.1837
N2430 G1 Y0.7556
N2440 G3 X1.1936 Y0.5679 I0.2679 J0.
N2450 G3 X1.3817 Y0.4919 I0.1815 J0.1783
N2460 G3 X1.5532 Y0.5631 I-0.0067 J0.2581
N2470 G2 X1.6443 Y0.5834 I0.0624 J-0.0654
N2480 G3 X1.7283 Y0.6243 I0.0212 J0.0632
N2490 G3 X1.7499 Y0.7597 I-0.3533 J0.1257
N2500 G2 Y0.7613 I0.0625 J0.0016
N2510 G1 Y0.9918
N2520 G2 Y0.993 I0.0625 J0.
N2530 G3 X1.3768 Y1.375 I-0.3749 J0.007
N2540 G3 X1. Y0.9966 I-0.0018 J-0.375
N2550 G2 Y0.996 I-0.0625 J-0.0006
N2560 G1 Y0.7556
N2570 G2 Y0.7548 I-0.0625 J0.
N2580 G3 X1.7283 Y0.6243 I0.375 J-0.0048
N2590 G3 X1.724 Y0.6324 I-0.0059 J0.0021
N2600 G1 X1.5169 Y0.6873
N2610 G2 X1.5135 Y0.6893 I0.0015 J0.0061
N2620 G1 X1.4029 Y0.8208
N2630 G3 X1.3974 Y0.823 I-0.0048 J-0.004
N2640 G3 X1.4104 Y0.705 Z-0.164 I0.0065 J-0.059 F13.3
N2650 G3 X1.3974 Y0.823 Z-0.1705 I-0.0065 J0.059
N2660 G3 X1.4104 Y0.705 Z-0.177 I0.0065 J-0.059
N2670 G3 X1.3974 Y0.823 Z-0.1835 I-0.0065 J0.059
N2680 G3 X1.3505 Y0.7381 Z-0.1875 I0.0065 J-0.059
N2690 G3 X1.3539 Y0.7323 I0.0362 J0.0175 F20.
N2700 G3 X1.3757 Y0.7214 I0.0212 J0.0151
N2710 G3 X1.4036 Y0.7507 I-0.0007 J0.0286
N2720 G2 X1.4022 Y0.8751 I4.2352 J0.1093
N2730 G2 X1.4036 Y0.9995 I8.1725 J-0.029
N2740 G3 X1.3747 Y1.0286 I-0.0286 J0.0005
N2750 G3 X1.3539 Y1.0181 I0.0002 J-0.0265
N2760 G3 X1.3464 Y0.996 I0.0291 J-0.0221
N2770 G1 Y0.7556
N2780 G3 X1.3505 Y0.7381 I0.0402 J0.
N2790 G2 X1.349 Y0.6667 I-0.0708 J-0.0343
N2800 G3 X1.3886 Y0.6072 I0.0357 J-0.0191
N2810 G3 X1.5184 Y0.7537 I-0.0136 J0.1428
N2820 G2 X1.5183 Y0.7614 I0.294 J0.0076
N2830 G3 X1.5178 Y0.8793 I-13.3882 J0.0039
N2840 G2 X1.5184 Y0.9973 I4.3235 J0.0368
N2850 G3 X1.3737 Y1.1434 I-0.1434 J0.0027
N2860 G3 X1.2723 Y1.0989 I0.0013 J-0.1407
N2870 G3 X1.2316 Y0.996 I0.1097 J-0.1029
N2880 G3 X1.232 Y0.8739 I19.6178 J0.0013
N2890 G2 X1.2316 Y0.7518 I-6.403 J-0.0403
N2900 G3 X1.3886 Y0.6072 I0.1434 J-0.0018
N2910 G2 X1.4672 Y0.5713 I0.0082 J-0.0861
N2920 G3 X1.5532 Y0.5631 I0.0466 J0.0332
N2930 G3 X1.6331 Y0.7567 I-0.1782 J0.1869
N2940 G2 X1.6318 Y0.8759 I4.0194 J0.1038
N2950 G2 X1.6332 Y0.9952 I7.9956 J-0.0308
N2960 G3 X1.3726 Y1.2582 I-0.2582 J0.0048
N2970 G3 X1.1908 Y1.1797 I0.0023 J-0.2555
N2980 G3 X1.1168 Y0.996 I0.1912 J-0.1837
N2990 G1 Y0.7556
N3000 G3 X1.1936 Y0.5679 I0.2679 J0.
N3010 G3 X1.3817 Y0.4919 I0.1815 J0.1783
N3020 G3 X1.5532 Y0.5631 I-0.0067 J0.2581
N3030 G2 X1.6443 Y0.5834 I0.0624 J-0.0654
N3040 G3 X1.7283 Y0.6243 I0.0212 J0.0632
N3050 G3 X1.7499 Y0.7597 I-0.3533 J0.1257
N3060 G2 Y0.7613 I0.0625 J0.0016
N3070 G1 Y0.9918
N3080 G2 Y0.993 I0.0625 J0.
N3090 G3 X1.3768 Y1.375 I-0.3749 J0.007
N3100 G3 X1. Y0.9966 I-0.0018 J-0.375
N3110 G2 Y0.996 I-0.0625 J-0.0006
N3120 G1 Y0.7556
N3130 G2 Y0.7548 I-0.0625 J0.
N3140 G3 X1.7283 Y0.6243 I0.375 J-0.0048
N3150 G3 X1.729 Y0.629 Z-0.1865 I-0.0118 J0.0042 F40.
N3160 G3 X1.7282 Y0.6329 Z-0.1838 I-0.0125 J-0.0005
N3170 G3 X1.727 Y0.6353 Z-0.1798 I-0.0117 J-0.0045
N3180 G3 X1.7264 Y0.6361 Z-0.175 I-0.0104 J-0.0069
N3190 G0 Z0.6
N3210 M5 M9
N3220 G30

(2D Pocket4)
N3240 M1
N3250 G30
N3260 T4 G43 H4 M6
N3270 S5000 M3 M8
N3280 G0 X0.6391 Y1.0219
N3290 G0 Z0.6
N3300 G0 Z0.2
N3310 G1 Z0.1094 F20.
N3320 G3 X0.638 Y1.0217 Z0.1048 I0.004 J-0.0219 F13.3
N3330 G3 X0.6348 Y1.0207 Z0.1014 I0.0051 J-0.0217
N3340 G3 X0.6308 Y1.0186 Z0.1 I0.0083 J-0.0207
N3350 G3 X0.6554 Y0.9814 Z0.0976 I0.0123 J-0.0186
N3360 G3 X0.6308 Y1.0186 Z0.0951 I-0.0123 J0.0186
N3370 G3 X0.6554 Y0.9814 Z0.0927 I0.0123 J-0.0186
N3380 G3 X0.6308 Y1.0186 Z0.0902 I-0.0123 J0.0186
N3390 G3 X0.6554 Y0.9814 Z0.0878 I0.0123 J-0.0186
N3400 G3 X0.6308 Y1.0186 Z0.0853 I-0.0123 J0.0186
N3410 G3 X0.6554 Y0.9814 Z0.0829 I0.0123 J-0.0186
N3420 G3 X0.6308 Y1.0186 Z0.0805 I-0.0123 J0.0186
N3430 G3 X0.6554 Y0.9814 Z0.078 I0.0123 J-0.0186
N3440 G3 X0.6308 Y1.0186 Z0.0756 I-0.0123 J0.0186
N3450 G3 X0.6554 Y0.9814 Z0.0731 I0.0123 J-0.0186
N3460 G3 X0.6308 Y1.0186 Z0.0707 I-0.0123 J0.0186
N3470 G3 X0.6554 Y0.9814 Z0.0682 I0.0123 J-0.0186
N3480 G3 X0.6308 Y1.0186 Z0.0658 I-0.0123 J0.0186
N3490 G3 X0.6554 Y0.9814 Z0.0634 I0.0123 J-0.0186
N3500 G3 X0.6308 Y1.0186 Z0.0609 I-0.0123 J0.0186
N3510 G3 X0.6554 Y0.9814 Z0.0585 I0.0123 J-0.0186
N3520 G3 X0.6308 Y1.0186 Z0.056 I-0.0123 J0.0186
N3530 G3 X0.6554 Y0.9814 Z0.0536 I0.0123 J-0.0186
N3540 G3 X0.6308 Y1.0186 Z0.0511 I-0.0123 J0.0186
N3550 G3 X0.6554 Y0.9814 Z0.0487 I0.0123 J-0.0186
N3560 G3 X0.6308 Y1.0186 Z0.0463 I-0.0123 J0.0186
N3570 G3 X0.6554 Y0.9814 Z0.0438 I0.0123 J-0.0186
N3580 G3 X0.6308 Y1.0186 Z0.0414 I-0.0123 J0.0186
N3590 G3 X0.6554 Y0.9814 Z0.0389 I0.0123 J-0.0186
N3600 G3 X0.6308 Y1.0186 Z0.0365 I-0.0123 J0.0186
N3610 G3 X0.6554 Y0.9814 Z0.034 I0.0123 J-0.0186
N3620 G3 X0.6308 Y1.0186 Z0.0316 I-0.0123 J0.0186
N3630 G3 X0.6554 Y0.9814 Z0.0292 I0.0123 J-0.0186
N3640 G3 X0.6308 Y1.0186 Z0.0267 I-0.0123 J0.0186
N3650 G3 X0.6554 Y0.9814 Z0.0243 I0.0123 J-0.0186
N3660 G3 X0.6308 Y1.0186 Z0.0218 I-0.0123 J0.0186
N3670 G3 X0.6554 Y0.9814 Z0.0194 I0.0123 J-0.0186
N3680 G3 X0.6308 Y1.0186 Z0.0169 I-0.0123 J0.0186
N3690 G3 X0.6554 Y0.9814 Z0.0145 I0.0123 J-0.0186
N3700 G3 X0.6308 Y1.0186 Z0.0121 I-0.0123 J0.0186
N3710 G3 X0.6554 Y0.9814 Z0.0096 I0.0123 J-0.0186
N3720 G3 X0.6308 Y1.0186 Z0.0072 I-0.0123 J0.0186
N3730 G3 X0.6554 Y0.9814 Z0.0047 I0.0123 J-0.0186
N3740 G3 X0.6308 Y1.0186 Z0.0023 I-0.0123 J0.0186
N3750 G3 X0.6554 Y0.9814 Z-0.0002 I0.0123 J-0.0186
N3760 G3 X0.6308 Y1.0186 Z-0.0026 I-0.0123 J0.0186
N3770 G3 X0.6554 Y0.9814 Z-0.005 I0.0123 J-0.0186
N3780 G3 X0.6308 Y1.0186 Z-0.0075 I-0.0123 J0.0186
N3790 G3 X0.6554 Y0.9814 Z-0.0099 I0.0123 J-0.0186
N3800 G3 X0.6308 Y1.0186 Z-0.0124 I-0.0123 J0.0186
N3810 G3 X0.6554 Y0.9814 Z-0.0148 I0.0123 J-0.0186
N3820 G3 X0.6308 Y1.0186 Z-0.0172 I-0.0123 J0.0186
N3830 G3 X0.6554 Y0.9814 Z-0.0197 I0.0123 J-0.0186
N3840 G3 X0.6308 Y1.0186 Z-0.0221 I-0.0123 J0.0186
N3850 G3 X0.6554 Y0.9814 Z-0.0246 I0.0123 J-0.0186
N3860 G3 X0.6308 Y1.0186 Z-0.027 I-0.0123 J0.0186
N3870 G3 X0.6554 Y0.9814 Z-0.0295 I0.0123 J-0.0186
N3880 G3 X0.6308 Y1.0186 Z-0.0319 I-0.0123 J0.0186
N3890 G3 X0.6554 Y0.9814 Z-0.0343 I0.0123 J-0.0186
N3900 G3 X0.6308 Y1.0186 Z-0.0368 I-0.0123 J0.0186
N3910 G3 X0.6554 Y0.9814 Z-0.0392 I0.0123 J-0.0186
N3920 G3 X0.6653 Y1. Z-0.04 I-0.0123 J0.0186
N3930 G3 X0.6472 I-0.0091 J0. F40.
N3940 G3 X0.7099 I0.0314 J0.
N3950 G3 X0.6026 I-0.0536 J0.
N3960 G3 X0.7099 I0.0536 J0.
N3970 G3 X0.7046 Y1.0047 I-0.0047 J0.
N3980 G1 X0.6653 Y1.
N3990 G3 X0.6625 Y0.9991 I0. J-0.0047
N4000 G1 X0.647 Y0.9875
N4010 G3 X0.6516 Y0.9794 I0.0028 J-0.0038
N4020 G3 X0.6346 Y1.0206 Z-0.0424 I-0.0085 J0.0206 F13.3
N4030 G3 X0.6516 Y0.9794 Z-0.0449 I0.0085 J-0.0206
N4040 G3 X0.6346 Y1.0206 Z-0.0473 I-0.0085 J0.0206
N4050 G3 X0.6516 Y0.9794 Z-0.0498 I0.0085 J-0.0206
N4060 G3 X0.6346 Y1.0206 Z-0.0522 I-0.0085 J0.0206
N4070 G3 X0.6516 Y0.9794 Z-0.0547 I0.0085 J-0.0206
N4080 G3 X0.6346 Y1.0206 Z-0.0571 I-0.0085 J0.0206
N4090 G3 X0.6516 Y0.9794 Z-0.0595 I0.0085 J-0.0206
N4100 G3 X0.6346 Y1.0206 Z-0.062 I-0.0085 J0.0206
N4110 G3 X0.6516 Y0.9794 Z-0.0644 I0.0085 J-0.0206
N4120 G3 X0.6346 Y1.0206 Z-0.0669 I-0.0085 J0.0206
N4130 G3 X0.6516 Y0.9794 Z-0.0693 I0.0085 J-0.0206
N4140 G3 X0.6346 Y1.0206 Z-0.0718 I-0.0085 J0.0206
N4150 G3 X0.6516 Y0.9794 Z-0.0742 I0.0085 J-0.0206
N4160 G3 X0.6346 Y1.0206 Z-0.0766 I-0.0085 J0.0206
N4170 G3 X0.6516 Y0.9794 Z-0.0791 I0.0085 J-0.0206
N4180 G3 X0.6653 Y1. Z-0.08 I-0.0085 J0.0206
N4190 G3 X0.6472 I-0.0091 J0. F40.
N4200 G3 X0.7099 I0.0314 J0.
N4210 G3 X0.6026 I-0.0536 J0.
N4220 G3 X0.7099 I0.0536 J0.
N4230 G3 X0.7046 Y1.0047 I-0.0047 J0.
N4240 G1 X0.6653 Y1.
N4250 G3 X0.6625 Y0.9991 I0. J-0.0047
N4260 G1 X0.647 Y0.9875
N4270 G3 X0.6516 Y0.9794 I0.0028 J-0.0038
N4280 G3 X0.6346 Y1.0206 Z-0.0824 I-0.0085 J0.0206 F13.3
N4290 G3 X0.6516 Y0.9794 Z-0.0849 I0.0085 J-0.0206
N4300 G3 X0.6346 Y1.0206 Z-0.0873 I-0.0085 J0.0206
N4310 G3 X0.6516 Y0.9794 Z-0.0898 I0.0085 J-0.0206
N4320 G3 X0.6346 Y1.0206 Z-0.0922 I-0.0085 J0.0206
N4330 G3 X0.6516 Y0.9794 Z-0.0947 I0.0085 J-0.0206
N4340 G3 X0.6346 Y1.0206 Z-0.0971 I-0.0085 J0.0206
N4350 G3 X0.6516 Y0.9794 Z-0.0995 I0.0085 J-0.0206
N4360 G3 X0.6346 Y1.0206 Z-0.102 I-0.0085 J0.0206
N4370 G3 X0.6516 Y0.9794 Z-0.1044 I0.0085 J-0.0206
N4380 G3 X0.6346 Y1.0206 Z-0.1069 I-0.0085 J0.0206
N4390 G3 X0.6516 Y0.9794 Z-0.1093 I0.0085 J-0.0206
N4400 G3 X0.6346 Y1.0206 Z-0.1118 I-0.0085 J0.0206
N4410 G3 X0.6516 Y0.9794 Z-0.1142 I0.0085 J-0.0206
N4420 G3 X0.6346 Y1.0206 Z-0.1166 I-0.0085 J0.0206
N4430 G3 X0.6516 Y0.9794 Z-0.1191 I0.0085 J-0.0206
N4440 G3 X0.6653 Y1. Z-0.12 I-0.0085 J0.0206
N4450 G3 X0.6472 I-0.0091 J0. F40.
N4460 G3 X0.7099 I0.0314 J0.
N4470 G3 X0.6026 I-0.0536 J0.
N4480 G3 X0.7099 I0.0536 J0.
N4490 G3 X0.7046 Y1.0047 I-0.0047 J0.
N4500 G1 X0.6653 Y1.
N4510 G3 X0.6625 Y0.9991 I0. J-0.0047
N4520 G1 X0.647 Y0.9875
N4530 G3 X0.6516 Y0.9794 I0.0028 J-0.0038
N4540 G3 X0.6346 Y1.0206 Z-0.1224 I-0.0085 J0.0206 F13.3
N4550 G3 X0.6516 Y0.9794 Z-0.1249 I0.0085 J-0.0206
N4560 G3 X0.6346 Y1.0206 Z-0.1273 I-0.0085 J0.0206
N4570 G3 X0.6516 Y0.9794 Z-0.1298 I0.0085 J-0.0206
N4580 G3 X0.6346 Y1.0206 Z-0.1322 I-0.0085 J0.0206
N4590 G3 X0.6516 Y0.9794 Z-0.1347 I0.0085 J-0.0206
N4600 G3 X0.6346 Y1.0206 Z-0.1371 I-0.0085 J0.0206
N4610 G3 X0.6516 Y0.9794 Z-0.1395 I0.0085 J-0.0206
N4620 G3 X0.6346 Y1.0206 Z-0.142 I-0.0085 J0.0206
N4630 G3 X0.6516 Y0.9794 Z-0.1444 I0.0085 J-0.0206
N4640 G3 X0.6346 Y1.0206 Z-0.1469 I-0.0085 J0.0206
N4650 G3 X0.6516 Y0.9794 Z-0.1493 I0.0085 J-0.0206
N4660 G3 X0.6346 Y1.0206 Z-0.1518 I-0.0085 J0.0206
N4670 G3 X0.6516 Y0.9794 Z-0.1542 I0.0085 J-0.0206
N4680 G3 X0.6346 Y1.0206 Z-0.1566 I-0.0085 J0.0206
N4690 G3 X0.6516 Y0.9794 Z-0.1591 I0.0085 J-0.0206
N4700 G3 X0.6653 Y1. Z-0.16 I-0.0085 J0.0206
N4710 G3 X0.6472 I-0.0091 J0. F40.
N4720 G3 X0.7099 I0.0314 J0.
N4730 G3 X0.6026 I-0.0536 J0.
N4740 G3 X0.7099 I0.0536 J0.
N4750 G3 X0.7031 Y1.0079 I-0.008 J0.
N4760 G1 X0.6344 Y1.0183
N4770 G3 X0.6277 Y1.0161 I-0.0012 J-0.0079
N4780 G3 X0.6584 Y0.9839 Z-0.1624 I0.0153 J-0.0161 F13.3
N4790 G3 X0.6277 Y1.0161 Z-0.1649 I-0.0153 J0.0161
N4800 G3 X0.6584 Y0.9839 Z-0.1673 I0.0153 J-0.0161
N4810 G3 X0.6277 Y1.0161 Z-0.1698 I-0.0153 J0.0161
N4820 G3 X0.6584 Y0.9839 Z-0.1722 I0.0153 J-0.0161
N4830 G3 X0.6277 Y1.0161 Z-0.1747 I-0.0153 J0.0161
N4840 G3 X0.6584 Y0.9839 Z-0.1771 I0.0153 J-0.0161
N4850 G3 X0.6277 Y1.0161 Z-0.1795 I-0.0153 J0.0161
N4860 G3 X0.6584 Y0.9839 Z-0.182 I0.0153 J-0.0161
N4870 G3 X0.6277 Y1.0161 Z-0.1844 I-0.0153 J0.0161
N4880 G3 X0.6584 Y0.9839 Z-0.1869 I0.0153 J-0.0161
N4890 G3 X0.6653 Y1. Z-0.1875 I-0.0153 J0.0161
N4900 G3 X0.6472 I-0.0091 J0. F40.
N4910 G3 X0.7099 I0.0314 J0.
N4920 G3 X0.6026 I-0.0536 J0.
N4930 G3 X0.7099 I0.0536 J0.
N4940 G3 X0.7087 Y1.0045 Z-0.1862 I-0.0094 J0.
N4950 G3 X0.7066 Y1.0071 Z-0.1828 I-0.0082 J-0.0045
N4960 G3 X0.7056 Y1.0079 Z-0.1781 I-0.0061 J-0.0071
N4970 G0 Z0.2
N4980 G0 X2.0766 Y1.0219
N4990 G1 Z0.1094 F20.
N5000 G3 X2.0755 Y1.0217 Z0.1048 I0.004 J-0.0219 F13.3
N5010 G3 X2.0723 Y1.0207 Z0.1014 I0.0051 J-0.0217
N5020 G3 X2.0683 Y1.0186 Z0.1 I0.0083 J-0.0207
N5030 G3 X2.0929 Y0.9814 Z0.0976 I0.0123 J-0.0186
N5040 G3 X2.0683 Y1.0186 Z0.0951 I-0.0123 J0.0186
N5050 G3 X2.0929 Y0.9814 Z0.0927 I0.0123 J-0.0186
N5060 G3 X2.0683 Y1.0186 Z0.0902 I-0.0123 J0.0186
N5070 G3 X2.0929 Y0.9814 Z0.0878 I0.0123 J-0.0186
N5080 G3 X2.0683 Y1.0186 Z0.0853 I-0.0123 J0.0186
N5090 G3 X2.0929 Y0.9814 Z0.0829 I0.0123 J-0.0186
N5100 G3 X2.0683 Y1.0186 Z0.0805 I-0.0123 J0.0186
N5110 G3 X2.0929 Y0.9814 Z0.078 I0.0123 J-0.0186
N5120 G3 X2.0683 Y1.0186 Z0.0756 I-0.0123 J0.0186
N5130 G3 X2.0929 Y0.9814 Z0.0731 I0.0123 J-0.0186
N5140 G3 X2.0683 Y1.0186 Z0.0707 I-0.0123 J0.0186
N5150 G3 X2.0929 Y0.9814 Z0.0682 I0.0123 J-0.0186
N5160 G3 X2.0683 Y1.0186 Z0.0658 I-0.0123 J0.0186
N5170 G3 X2.0929 Y0.9814 Z0.0634 I0.0123 J-0.0186
N5180 G3 X2.0683 Y1.0186 Z0.0609 I-0.0123 J0.0186
N5190 G3 X2.0929 Y0.9814 Z0.0585 I0.0123 J-0.0186
N5200 G3 X2.0683 Y1.0186 Z0.056 I-0.0123 J0.0186
N5210 G3 X2.0929 Y0.9814 Z0.0536 I0.0123 J-0.0186
N5220 G3 X2.0683 Y1.0186 Z0.0511 I-0.0123 J0.0186
N5230 G3 X2.0929 Y0.9814 Z0.0487 I0.0123 J-0.0186
N5240 G3 X2.0683 Y1.0186 Z0.0463 I-0.0123 J0.0186
N5250 G3 X2.0929 Y0.9814 Z0.0438 I0.0123 J-0.0186
N5260 G3 X2.0683 Y1.0186 Z0.0414 I-0.0123 J0.0186
N5270 G3 X2.0929 Y0.9814 Z0.0389 I0.0123 J-0.0186
N5280 G3 X2.0683 Y1.0186 Z0.0365 I-0.0123 J0.0186
N5290 G3 X2.0929 Y0.9814 Z0.034 I0.0123 J-0.0186
N5300 G3 X2.0683 Y1.0186 Z0.0316 I-0.0123 J0.0186
N5310 G3 X2.0929 Y0.9814 Z0.0292 I0.0123 J-0.0186
N5320 G3 X2.0683 Y1.0186 Z0.0267 I-0.0123 J0.0186
N5330 G3 X2.0929 Y0.9814 Z0.0243 I0.0123 J-0.0186
N5340 G3 X2.0683 Y1.0186 Z0.0218 I-0.0123 J0.0186
N5350 G3 X2.0929 Y0.9814 Z0.0194 I0.0123 J-0.0186
N5360 G3 X2.0683 Y1.0186 Z0.0169 I-0.0123 J0.0186
N5370 G3 X2.0929 Y0.9814 Z0.0145 I0.0123 J-0.0186
N5380 G3 X2.0683 Y1.0186 Z0.0121 I-0.0123 J0.0186
N5390 G3 X2.0929 Y0.9814 Z0.0096 I0.0123 J-0.0186
N5400 G3 X2.0683 Y1.0186 Z0.0072 I-0.0123 J0.0186
N5410 G3 X2.0929 Y0.9814 Z0.0047 I0.0123 J-0.0186
N5420 G3 X2.0683 Y1.0186 Z0.0023 I-0.0123 J0.0186
N5430 G3 X2.0929 Y0.9814 Z-0.0002 I0.0123 J-0.0186
N5440 G3 X2.0683 Y1.0186 Z-0.0026 I-0.0123 J0.0186
N5450 G3 X2.0929 Y0.9814 Z-0.005 I0.0123 J-0.0186
N5460 G3 X2.0683 Y1.0186 Z-0.0075 I-0.0123 J0.0186
N5470 G3 X2.0929 Y0.9814 Z-0.0099 I0.0123 J-0.0186
N5480 G3 X2.0683 Y1.0186 Z-0.0124 I-0.0123 J0.0186
N5490 G3 X2.0929 Y0.9814 Z-0.0148 I0.0123 J-0.0186
N5500 G3 X2.0683 Y1.0186 Z-0.0172 I-0.0123 J0.0186
N5510 G3 X2.0929 Y0.9814 Z-0.0197 I0.0123 J-0.0186
N5520 G3 X2.0683 Y1.0186 Z-0.0221 I-0.0123 J0.0186
N5530 G3 X2.0929 Y0.9814 Z-0.0246 I0.0123 J-0.0186
N5540 G3 X2.0683 Y1.0186 Z-0.027 I-0.0123 J0.0186
N5550 G3 X2.0929 Y0.9814 Z-0.0295 I0.0123 J-0.0186
N5560 G3 X2.0683 Y1.0186 Z-0.0319 I-0.0123 J0.0186
N5570 G3 X2.0929 Y0.9814 Z-0.0343 I0.0123 J-0.0186
N5580 G3 X2.0683 Y1.0186 Z-0.0368 I-0.0123 J0.0186
N5590 G3 X2.0929 Y0.9814 Z-0.0392 I0.0123 J-0.0186
N5600 G3 X2.1028 Y1. Z-0.04 I-0.0123 J0.0186
N5610 G3 X2.0847 I-0.0091 J0. F40.
N5620 G3 X2.1474 I0.0314 J0.
N5630 G3 X2.0401 I-0.0536 J0.
N5640 G3 X2.1474 I0.0536 J0.
N5650 G3 X2.1421 Y1.0047 I-0.0047 J0.
N5660 G1 X2.1028 Y1.
N5670 G3 X2.1001 Y0.9991 I0. J-0.0047
N5680 G1 X2.0845 Y0.9875
N5690 G3 X2.0891 Y0.9794 I0.0028 J-0.0038
N5700 G3 X2.0721 Y1.0206 Z-0.0424 I-0.0085 J0.0206 F13.3
N5710 G3 X2.0891 Y0.9794 Z-0.0449 I0.0085 J-0.0206
N5720 G3 X2.0721 Y1.0206 Z-0.0473 I-0.0085 J0.0206
N5730 G3 X2.0891 Y0.9794 Z-0.0498 I0.0085 J-0.0206
N5740 G3 X2.0721 Y1.0206 Z-0.0522 I-0.0085 J0.0206
N5750 G3 X2.0891 Y0.9794 Z-0.0547 I0.0085 J-0.0206
N5760 G3 X2.0721 Y1.0206 Z-0.0571 I-0.0085 J0.0206
N5770 G3 X2.0891 Y0.9794 Z-0.0595 I0.0085 J-0.0206
N5780 G3 X2.0721 Y1.0206 Z-0.062 I-0.0085 J0.0206
N5790 G3 X2.0891 Y0.9794 Z-0.0644 I0.0085 J-0.0206
N5800 G3 X2.0721 Y1.0206 Z-0.0669 I-0.0085 J0.0206
N5810 G3 X2.0891 Y0.9794 Z-0.0693 I0.0085 J-0.0206
N5820 G3 X2.0721 Y1.0206 Z-0.0718 I-0.0085 J0.0206
N5830 G3 X2.0891 Y0.9794 Z-0.0742 I0.0085 J-0.0206
N5840 G3 X2.0721 Y1.0206 Z-0.0766 I-0.0085 J0.0206
N5850 G3 X2.0891 Y0.9794 Z-0.0791 I0.0085 J-0.0206
N5860 G3 X2.1028 Y1. Z-0.08 I-0.0085 J0.0206
N5870 G3 X2.0847 I-0.0091 J0. F40.
N5880 G3 X2.1474 I0.0314 J0.
N5890 G3 X2.0401 I-0.0536 J0.
N5900 G3 X2.1474 I0.0536 J0.
N5910 G3 X2.1421 Y1.0047 I-0.0047 J0.
N5920 G1 X2.1028 Y1.
N5930 G3 X2.1001 Y0.9991 I0. J-0.0047
N5940 G1 X2.0845 Y0.9875
N5950 G3 X2.0891 Y0.9794 I0.0028 J-0.0038
N5960 G3 X2.0721 Y1.0206 Z-0.0824 I-0.0085 J0.0206 F13.3
N5970 G3 X2.0891 Y0.9794 Z-0.0849 I0.0085 J-0.0206
N5980 G3 X2.0721 Y1.0206 Z-0.0873 I-0.0085 J0.0206
N5990 G3 X2.0891 Y0.9794 Z-0.0898 I0.0085 J-0.0206
N6000 G3 X2.0721 Y1.0206 Z-0.0922 I-0.0085 J0.0206
N6010 G3 X2.0891 Y0.9794 Z-0.0947 I0.0085 J-0.0206
N6020 G3 X2.0721 Y1.0206 Z-0.0971 I-0.0085 J0.0206
N6030 G3 X2.0891 Y0.9794 Z-0.0995 I0.0085 J-0.0206
N6040 G3 X2.0721 Y1.0206 Z-0.102 I-0.0085 J0.0206
N6050 G3 X2.0891 Y0.9794 Z-0.1044 I0.0085 J-0.0206
N6060 G3 X2.0721 Y1.0206 Z-0.1069 I-0.0085 J0.0206
N6070 G3 X2.0891 Y0.9794 Z-0.1093 I0.0085 J-0.0206
N6080 G3 X2.0721 Y1.0206 Z-0.1118 I-0.0085 J0.0206
N6090 G3 X2.0891 Y0.9794 Z-0.1142 I0.0085 J-0.0206
N6100 G3 X2.0721 Y1.0206 Z-0.1166 I-0.0085 J0.0206
N6110 G3 X2.0891 Y0.9794 Z-0.1191 I0.0085 J-0.0206
N6120 G3 X2.1028 Y1. Z-0.12 I-0.0085 J0.0206
N6130 G3 X2.0847 I-0.0091 J0. F40.
N6140 G3 X2.1474 I0.0314 J0.
N6150 G3 X2.0401 I-0.0536 J0.
N6160 G3 X2.1474 I0.0536 J0.
N6170 G3 X2.1421 Y1.0047 I-0.0047 J0.
N6180 G1 X2.1028 Y1.
N6190 G3 X2.1001 Y0.9991 I0. J-0.0047
N6200 G1 X2.0845 Y0.9875
N6210 G3 X2.0891 Y0.9794 I0.0028 J-0.0038
N6220 G3 X2.0721 Y1.0206 Z-0.1224 I-0.0085 J0.0206 F13.3
N6230 G3 X2.0891 Y0.9794 Z-0.1249 I0.0085 J-0.0206
N6240 G3 X2.0721 Y1.0206 Z-0.1273 I-0.0085 J0.0206
N6250 G3 X2.0891 Y0.9794 Z-0.1298 I0.0085 J-0.0206
N6260 G3 X2.0721 Y1.0206 Z-0.1322 I-0.0085 J0.0206
N6270 G3 X2.0891 Y0.9794 Z-0.1347 I0.0085 J-0.0206
N6280 G3 X2.0721 Y1.0206 Z-0.1371 I-0.0085 J0.0206
N6290 G3 X2.0891 Y0.9794 Z-0.1395 I0.0085 J-0.0206
N6300 G3 X2.0721 Y1.0206 Z-0.142 I-0.0085 J0.0206
N6310 G3 X2.0891 Y0.9794 Z-0.1444 I0.0085 J-0.0206
N6320 G3 X2.0721 Y1.0206 Z-0.1469 I-0.0085 J0.0206
N6330 G3 X2.0891 Y0.9794 Z-0.1493 I0.0085 J-0.0206
N6340 G3 X2.0721 Y1.0206 Z-0.1518 I-0.0085 J0.0206
N6350 G3 X2.0891 Y0.9794 Z-0.1542 I0.0085 J-0.0206
N6360 G3 X2.0721 Y1.0206 Z-0.1566 I-0.0085 J0.0206
N6370 G3 X2.0891 Y0.9794 Z-0.1591 I0.0085 J-0.0206
N6380 G3 X2.1028 Y1. Z-0.16 I-0.0085 J0.0206
N6390 G3 X2.0847 I-0.0091 J0. F40.
N6400 G3 X2.1474 I0.0314 J0.
N6410 G3 X2.0401 I-0.0536 J0.
N6420 G3 X2.1474 I0.0536 J0.
N6430 G3 X2.1406 Y1.0079 I-0.008 J0.
N6440 G1 X2.0719 Y1.0183
N6450 G3 X2.0652 Y1.0161 I-0.0012 J-0.0079
N6460 G3 X2.0959 Y0.9839 Z-0.1624 I0.0153 J-0.0161 F13.3
N6470 G3 X2.0652 Y1.0161 Z-0.1649 I-0.0153 J0.0161
N6480 G3 X2.0959 Y0.9839 Z-0.1673 I0.0153 J-0.0161
N6490 G3 X2.0652 Y1.0161 Z-0.1698 I-0.0153 J0.0161
N6500 G3 X2.0959 Y0.9839 Z-0.1722 I0.0153 J-0.0161
N6510 G3 X2.0652 Y1.0161 Z-0.1747 I-0.0153 J0.0161
N6520 G3 X2.0959 Y0.9839 Z-0.1771 I0.0153 J-0.0161
N6530 G3 X2.0652 Y1.0161 Z-0.1795 I-0.0153 J0.0161
N6540 G3 X2.0959 Y0.9839 Z-0.182 I0.0153 J-0.0161
N6550 G3 X2.0652 Y1.0161 Z-0.1844 I-0.0153 J0.0161
N6560 G3 X2.0959 Y0.9839 Z-0.1869 I0.0153 J-0.0161
N6570 G3 X2.1028 Y1. Z-0.1875 I-0.0153 J0.0161
N6580 G3 X2.0847 I-0.0091 J0. F40.
N6590 G3 X2.1474 I0.0314 J0.
N6600 G3 X2.0401 I-0.0536 J0.
N6610 G3 X2.1474 I0.0536 J0.
N6620 G3 X2.1462 Y1.0045 Z-0.1862 I-0.0094 J0.
N6630 G3 X2.1441 Y1.0071 Z-0.1828 I-0.0082 J-0.0045
N6640 G3 X2.1431 Y1.0079 Z-0.1781 I-0.0061 J-0.0071
N6650 G0 Z0.6
N6670 M5 M9

N6680 G30
N6690 M30
%
