%
(side_bar)
(T3  D=0.0937 CR=0.0234 - ZMIN=-1.25 - bullnose end mill)
N10 G90 G54 G64 G50 G17 G40 G80 G94 G91.1 G49
N20 G20 (Inch)
N30 G30

(2D Pocket1)
N50 G30
N60 T3 G43 H3 M6
N70 S10000 M3 M8
N80 G54
N90 G0 X13.5272 Y1.08
N100 G0 Z0.6
N110 G0 Z0.2
N120 G1 Z0.1094 F40.
N130 G3 X13.5263 Y1.0792 Z0.1048 I0.0138 J-0.0175 F13.3
N140 G3 X13.524 Y1.0769 Z0.1014 I0.0147 J-0.0167
N150 G3 X13.5215 Y1.0731 Z0.1 I0.017 J-0.0144
N160 G3 X13.5188 Y1.0625 Z0.0996 I0.0196 J-0.0106
N170 G3 X13.5633 Z0.0972 I0.0223 J0.
N180 G3 X13.5188 Z0.0947 I-0.0223 J0.
N190 G3 X13.5633 Z0.0923 I0.0223 J0.
N200 G3 X13.5188 Z0.0898 I-0.0223 J0.
N210 G3 X13.5633 Z0.0874 I0.0223 J0.
N220 G3 X13.5188 Z0.085 I-0.0223 J0.
N230 G3 X13.5633 Z0.0825 I0.0223 J0.
N240 G3 X13.5188 Z0.0801 I-0.0223 J0.
N250 G3 X13.5633 Z0.0776 I0.0223 J0.
N260 G3 X13.5188 Z0.0752 I-0.0223 J0.
N270 G3 X13.5633 Z0.0727 I0.0223 J0.
N280 G3 X13.5188 Z0.0703 I-0.0223 J0.
N290 G3 X13.5633 Z0.0679 I0.0223 J0.
N300 G3 X13.5188 Z0.0654 I-0.0223 J0.
N310 G3 X13.5633 Z0.063 I0.0223 J0.
N320 G3 X13.5188 Z0.0605 I-0.0223 J0.
N330 G3 X13.5633 Z0.0581 I0.0223 J0.
N340 G3 X13.5188 Z0.0556 I-0.0223 J0.
N350 G3 X13.5633 Z0.0532 I0.0223 J0.
N360 G3 X13.5188 Z0.0508 I-0.0223 J0.
N370 G3 X13.5633 Z0.0483 I0.0223 J0.
N380 G3 X13.5188 Z0.0459 I-0.0223 J0.
N390 G3 X13.5633 Z0.0434 I0.0223 J0.
N400 G3 X13.5188 Z0.041 I-0.0223 J0.
N410 G3 X13.5633 Z0.0385 I0.0223 J0.
N420 G3 X13.5188 Z0.0361 I-0.0223 J0.
N430 G3 X13.5633 Z0.0337 I0.0223 J0.
N440 G3 X13.5188 Z0.0312 I-0.0223 J0.
N450 G3 X13.5633 Z0.0288 I0.0223 J0.
N460 G3 X13.5188 Z0.0263 I-0.0223 J0.
N470 G3 X13.5633 Z0.0239 I0.0223 J0.
N480 G3 X13.5188 Z0.0214 I-0.0223 J0.
N490 G3 X13.5633 Z0.019 I0.0223 J0.
N500 G3 X13.5188 Z0.0166 I-0.0223 J0.
N510 G3 X13.5633 Z0.0141 I0.0223 J0.
N520 G3 X13.5188 Z0.0117 I-0.0223 J0.
N530 G3 X13.5633 Z0.0092 I0.0223 J0.
N540 G3 X13.5188 Z0.0068 I-0.0223 J0.
N550 G3 X13.5633 Z0.0043 I0.0223 J0.
N560 G3 X13.5188 Z0.0019 I-0.0223 J0.
N570 G3 X13.5633 Z-0.0005 I0.0223 J0.
N580 G3 X13.5188 Z-0.003 I-0.0223 J0.
N590 G3 X13.5633 Z-0.0054 I0.0223 J0.
N600 G3 X13.5188 Z-0.0079 I-0.0223 J0.
N610 G3 X13.5633 Z-0.0103 I0.0223 J0.
N620 G3 X13.5188 Z-0.0128 I-0.0223 J0.
N630 G3 X13.5633 Z-0.0152 I0.0223 J0.
N640 G3 X13.5188 Z-0.0176 I-0.0223 J0.
N650 G3 X13.5633 Z-0.0201 I0.0223 J0.
N660 G3 X13.5188 Z-0.0225 I-0.0223 J0.
N670 G3 X13.5633 Z-0.025 I0.0223 J0.
N680 G3 X13.5188 Z-0.0274 I-0.0223 J0.
N690 G3 X13.5633 Z-0.0298 I0.0223 J0.
N700 G3 X13.5188 Z-0.0323 I-0.0223 J0.
N710 G3 X13.5633 Z-0.0347 I0.0223 J0.
N720 G3 X13.5188 Z-0.0372 I-0.0223 J0.
N730 G3 X13.5633 Z-0.0396 I0.0223 J0.
N740 G3 X13.5188 Z-0.0421 I-0.0223 J0.
N750 G3 X13.5633 Z-0.0445 I0.0223 J0.
N760 G3 X13.5188 Z-0.0469 I-0.0223 J0.
N770 G3 X13.5633 Z-0.0494 I0.0223 J0.
N780 G3 X13.5188 Z-0.0518 I-0.0223 J0.
N790 G3 X13.5633 Z-0.0543 I0.0223 J0.
N800 G3 X13.5188 Z-0.0567 I-0.0223 J0.
N810 G3 X13.5633 Z-0.0592 I0.0223 J0.
N820 G3 X13.5188 Z-0.0616 I-0.0223 J0.
N830 G3 X13.5633 Z-0.064 I0.0223 J0.
N840 G3 X13.5188 Z-0.0665 I-0.0223 J0.
N850 G3 X13.5633 Z-0.0689 I0.0223 J0.
N860 G3 X13.5188 Z-0.0714 I-0.0223 J0.
N870 G3 X13.5633 Z-0.0738 I0.0223 J0.
N880 G3 X13.5188 Z-0.0763 I-0.0223 J0.
N890 G3 X13.5633 Z-0.0787 I0.0223 J0.
N900 G3 X13.5188 Z-0.0811 I-0.0223 J0.
N910 G3 X13.5633 Z-0.0836 I0.0223 J0.
N920 G3 X13.5188 Z-0.086 I-0.0223 J0.
N930 G3 X13.5633 Z-0.0885 I0.0223 J0.
N940 G3 X13.5188 Z-0.0909 I-0.0223 J0.
N950 G3 X13.5633 Z-0.0934 I0.0223 J0.
N960 G3 X13.5188 Z-0.0958 I-0.0223 J0.
N970 G3 X13.5633 Z-0.0982 I0.0223 J0.
N980 G3 X13.5188 Z-0.1007 I-0.0223 J0.
N990 G3 X13.5633 Z-0.1031 I0.0223 J0.
N1000 G3 X13.5188 Z-0.1056 I-0.0223 J0.
N1010 G3 X13.5633 Z-0.108 I0.0223 J0.
N1020 G3 X13.5188 Z-0.1105 I-0.0223 J0.
N1030 G3 X13.5633 Z-0.1129 I0.0223 J0.
N1040 G3 X13.5188 Z-0.1153 I-0.0223 J0.
N1050 G3 X13.5633 Z-0.1178 I0.0223 J0.
N1060 G3 X13.5188 Z-0.1202 I-0.0223 J0.
N1070 G3 X13.5633 Z-0.1227 I0.0223 J0.
N1080 G3 X13.5188 Z-0.1251 I-0.0223 J0.
N1090 G3 X13.5633 Z-0.1276 I0.0223 J0.
N1100 G3 X13.5188 Z-0.13 I-0.0223 J0.
N1110 G3 X13.5258 I0.0035 J0. F40.
N1120 G3 X13.4742 I-0.0258 J0.
N1130 G3 X13.5703 I0.048 J0.
N1140 G3 X13.4297 I-0.0703 J0.
N1150 G3 X13.6148 I0.0926 J0.
N1160 G3 X13.3852 I-0.1148 J0.
N1170 G3 X13.6594 I0.1371 J0.
N1180 G3 X13.3406 I-0.1594 J0.
N1190 G3 X13.7039 I0.1816 J0.
N1200 G3 X13.2961 I-0.2039 J0.
N1210 G3 X13.7484 I0.2262 J0.
N1220 G3 X13.2516 I-0.2484 J0.
N1230 G3 X13.793 I0.2707 J0.
N1240 G3 X13.207 I-0.293 J0.
N1250 G3 X13.8375 I0.3152 J0.
N1260 G3 X13.1625 I-0.3375 J0.
N1270 G3 X13.882 I0.3598 J0.
N1280 G3 X13.118 I-0.382 J0.
N1290 G3 X13.9266 I0.4043 J0.
N1300 G3 X13.0734 I-0.4266 J0.
N1310 G3 X13.9711 I0.4488 J0.
N1320 G3 X13.0289 I-0.4711 J0.
N1330 G3 X14.0156 I0.4934 J0.
N1340 G3 X12.9844 I-0.5156 J0.
N1350 G3 X13.1906 Y0.65 I0.5156 J0.
N1360 G3 X14.0156 Y1.0625 I0.3094 J0.4125
N1370 G3 X14.0145 Y1.067 Z-0.1287 I-0.0094 J0.
N1380 G3 X14.0123 Y1.0696 Z-0.1253 I-0.0082 J-0.0045
N1390 G3 X14.0113 Y1.0704 Z-0.1206 I-0.0061 J-0.0071
N1400 G0 Z0.2
N1410 G0 X14.4951 Y0.2025
N1420 G1 Z0.1094 F40.
N1430 G3 X14.496 Y0.2033 Z0.1048 I-0.0138 J0.0175 F13.3
N1440 G3 X14.4983 Y0.2056 Z0.1014 I-0.0147 J0.0167
N1450 G3 X14.5009 Y0.2094 Z0.1 I-0.017 J0.0144
N1460 G3 X14.5036 Y0.22 Z0.0996 I-0.0196 J0.0106
N1470 G3 X14.4591 Z0.0972 I-0.0223 J0.
N1480 G3 X14.5036 Z0.0947 I0.0223 J0.
N1490 G3 X14.4591 Z0.0923 I-0.0223 J0.
N1500 G3 X14.5036 Z0.0898 I0.0223 J0.
N1510 G3 X14.4591 Z0.0874 I-0.0223 J0.
N1520 G3 X14.5036 Z0.085 I0.0223 J0.
N1530 G3 X14.4591 Z0.0825 I-0.0223 J0.
N1540 G3 X14.5036 Z0.0801 I0.0223 J0.
N1550 G3 X14.4591 Z0.0776 I-0.0223 J0.
N1560 G3 X14.5036 Z0.0752 I0.0223 J0.
N1570 G3 X14.4591 Z0.0727 I-0.0223 J0.
N1580 G3 X14.5036 Z0.0703 I0.0223 J0.
N1590 G3 X14.4591 Z0.0679 I-0.0223 J0.
N1600 G3 X14.5036 Z0.0654 I0.0223 J0.
N1610 G3 X14.4591 Z0.063 I-0.0223 J0.
N1620 G3 X14.5036 Z0.0605 I0.0223 J0.
N1630 G3 X14.4591 Z0.0581 I-0.0223 J0.
N1640 G3 X14.5036 Z0.0556 I0.0223 J0.
N1650 G3 X14.4591 Z0.0532 I-0.0223 J0.
N1660 G3 X14.5036 Z0.0508 I0.0223 J0.
N1670 G3 X14.4591 Z0.0483 I-0.0223 J0.
N1680 G3 X14.5036 Z0.0459 I0.0223 J0.
N1690 G3 X14.4591 Z0.0434 I-0.0223 J0.
N1700 G3 X14.5036 Z0.041 I0.0223 J0.
N1710 G3 X14.4591 Z0.0385 I-0.0223 J0.
N1720 G3 X14.5036 Z0.0361 I0.0223 J0.
N1730 G3 X14.4591 Z0.0337 I-0.0223 J0.
N1740 G3 X14.5036 Z0.0312 I0.0223 J0.
N1750 G3 X14.4591 Z0.0288 I-0.0223 J0.
N1760 G3 X14.5036 Z0.0263 I0.0223 J0.
N1770 G3 X14.4591 Z0.0239 I-0.0223 J0.
N1780 G3 X14.5036 Z0.0214 I0.0223 J0.
N1790 G3 X14.4591 Z0.019 I-0.0223 J0.
N1800 G3 X14.5036 Z0.0166 I0.0223 J0.
N1810 G3 X14.4591 Z0.0141 I-0.0223 J0.
N1820 G3 X14.5036 Z0.0117 I0.0223 J0.
N1830 G3 X14.4591 Z0.0092 I-0.0223 J0.
N1840 G3 X14.5036 Z0.0068 I0.0223 J0.
N1850 G3 X14.4591 Z0.0043 I-0.0223 J0.
N1860 G3 X14.5036 Z0.0019 I0.0223 J0.
N1870 G3 X14.4591 Z-0.0005 I-0.0223 J0.
N1880 G3 X14.5036 Z-0.003 I0.0223 J0.
N1890 G3 X14.4591 Z-0.0054 I-0.0223 J0.
N1900 G3 X14.5036 Z-0.0079 I0.0223 J0.
N1910 G3 X14.4591 Z-0.0103 I-0.0223 J0.
N1920 G3 X14.5036 Z-0.0128 I0.0223 J0.
N1930 G3 X14.4591 Z-0.0152 I-0.0223 J0.
N1940 G3 X14.5036 Z-0.0176 I0.0223 J0.
N1950 G3 X14.4591 Z-0.0201 I-0.0223 J0.
N1960 G3 X14.5036 Z-0.0225 I0.0223 J0.
N1970 G3 X14.4591 Z-0.025 I-0.0223 J0.
N1980 G3 X14.5036 Z-0.0274 I0.0223 J0.
N1990 G3 X14.4591 Z-0.0298 I-0.0223 J0.
N2000 G3 X14.5036 Z-0.0323 I0.0223 J0.
N2010 G3 X14.4591 Z-0.0347 I-0.0223 J0.
N2020 G3 X14.5036 Z-0.0372 I0.0223 J0.
N2030 G3 X14.4591 Z-0.0396 I-0.0223 J0.
N2040 G3 X14.5036 Z-0.0421 I0.0223 J0.
N2050 G3 X14.4591 Z-0.0445 I-0.0223 J0.
N2060 G3 X14.5036 Z-0.0469 I0.0223 J0.
N2070 G3 X14.4591 Z-0.0494 I-0.0223 J0.
N2080 G3 X14.5036 Z-0.0518 I0.0223 J0.
N2090 G3 X14.4591 Z-0.0543 I-0.0223 J0.
N2100 G3 X14.5036 Z-0.0567 I0.0223 J0.
N2110 G3 X14.4591 Z-0.0592 I-0.0223 J0.
N2120 G3 X14.5036 Z-0.0616 I0.0223 J0.
N2130 G3 X14.4591 Z-0.064 I-0.0223 J0.
N2140 G3 X14.5036 Z-0.0665 I0.0223 J0.
N2150 G3 X14.4591 Z-0.0689 I-0.0223 J0.
N2160 G3 X14.5036 Z-0.0714 I0.0223 J0.
N2170 G3 X14.4591 Z-0.0738 I-0.0223 J0.
N2180 G3 X14.5036 Z-0.0763 I0.0223 J0.
N2190 G3 X14.4591 Z-0.0787 I-0.0223 J0.
N2200 G3 X14.5036 Z-0.0811 I0.0223 J0.
N2210 G3 X14.4591 Z-0.0836 I-0.0223 J0.
N2220 G3 X14.5036 Z-0.086 I0.0223 J0.
N2230 G3 X14.4591 Z-0.0885 I-0.0223 J0.
N2240 G3 X14.5036 Z-0.0909 I0.0223 J0.
N2250 G3 X14.4591 Z-0.0934 I-0.0223 J0.
N2260 G3 X14.5036 Z-0.0958 I0.0223 J0.
N2270 G3 X14.4591 Z-0.0982 I-0.0223 J0.
N2280 G3 X14.5036 Z-0.1007 I0.0223 J0.
N2290 G3 X14.4591 Z-0.1031 I-0.0223 J0.
N2300 G3 X14.5036 Z-0.1056 I0.0223 J0.
N2310 G3 X14.4591 Z-0.108 I-0.0223 J0.
N2320 G3 X14.5036 Z-0.1105 I0.0223 J0.
N2330 G3 X14.4591 Z-0.1129 I-0.0223 J0.
N2340 G3 X14.5036 Z-0.1153 I0.0223 J0.
N2350 G3 X14.4591 Z-0.1178 I-0.0223 J0.
N2360 G3 X14.5036 Z-0.1202 I0.0223 J0.
N2370 G3 X14.4591 Z-0.1227 I-0.0223 J0.
N2380 G3 X14.5036 Z-0.1251 I0.0223 J0.
N2390 G3 X14.4591 Z-0.1276 I-0.0223 J0.
N2400 G3 X14.5036 Z-0.13 I0.0223 J0.
N2410 G3 X14.4964 I-0.0036 J0. F40.
N2420 G3 X14.5481 I0.0259 J0.
N2430 G3 X14.4711 Y0.2585 I-0.0481 J0.
N2440 G3 Y0.1815 I0.0289 J-0.0385
N2450 G3 X14.5481 Y0.22 I0.0289 J0.0385
N2460 G3 X14.547 Y0.2245 Z-0.1287 I-0.0094 J0.
N2470 G3 X14.5448 Y0.2271 Z-0.1253 I-0.0082 J-0.0045
N2480 G3 X14.5438 Y0.2279 Z-0.1206 I-0.0061 J-0.0071
N2490 G0 Z0.2
N2500 G0 X17.1159 Y2.0675
N2510 G1 Z0.1094 F40.
N2520 G3 X17.115 Y2.0667 Z0.1048 I0.0138 J-0.0175 F13.3
N2530 G3 X17.1127 Y2.0644 Z0.1014 I0.0147 J-0.0167
N2540 G3 X17.1101 Y2.0606 Z0.1 I0.017 J-0.0144
N2550 G3 X17.1074 Y2.05 Z0.0996 I0.0196 J-0.0106
N2560 G3 X17.152 Z0.0972 I0.0223 J0.
N2570 G3 X17.1074 Z0.0947 I-0.0223 J0.
N2580 G3 X17.152 Z0.0923 I0.0223 J0.
N2590 G3 X17.1074 Z0.0898 I-0.0223 J0.
N2600 G3 X17.152 Z0.0874 I0.0223 J0.
N2610 G3 X17.1074 Z0.085 I-0.0223 J0.
N2620 G3 X17.152 Z0.0825 I0.0223 J0.
N2630 G3 X17.1074 Z0.0801 I-0.0223 J0.
N2640 G3 X17.152 Z0.0776 I0.0223 J0.
N2650 G3 X17.1074 Z0.0752 I-0.0223 J0.
N2660 G3 X17.152 Z0.0727 I0.0223 J0.
N2670 G3 X17.1074 Z0.0703 I-0.0223 J0.
N2680 G3 X17.152 Z0.0679 I0.0223 J0.
N2690 G3 X17.1074 Z0.0654 I-0.0223 J0.
N2700 G3 X17.152 Z0.063 I0.0223 J0.
N2710 G3 X17.1074 Z0.0605 I-0.0223 J0.
N2720 G3 X17.152 Z0.0581 I0.0223 J0.
N2730 G3 X17.1074 Z0.0556 I-0.0223 J0.
N2740 G3 X17.152 Z0.0532 I0.0223 J0.
N2750 G3 X17.1074 Z0.0508 I-0.0223 J0.
N2760 G3 X17.152 Z0.0483 I0.0223 J0.
N2770 G3 X17.1074 Z0.0459 I-0.0223 J0.
N2780 G3 X17.152 Z0.0434 I0.0223 J0.
N2790 G3 X17.1074 Z0.041 I-0.0223 J0.
N2800 G3 X17.152 Z0.0385 I0.0223 J0.
N2810 G3 X17.1074 Z0.0361 I-0.0223 J0.
N2820 G3 X17.152 Z0.0337 I0.0223 J0.
N2830 G3 X17.1074 Z0.0312 I-0.0223 J0.
N2840 G3 X17.152 Z0.0288 I0.0223 J0.
N2850 G3 X17.1074 Z0.0263 I-0.0223 J0.
N2860 G3 X17.152 Z0.0239 I0.0223 J0.
N2870 G3 X17.1074 Z0.0214 I-0.0223 J0.
N2880 G3 X17.152 Z0.019 I0.0223 J0.
N2890 G3 X17.1074 Z0.0166 I-0.0223 J0.
N2900 G3 X17.152 Z0.0141 I0.0223 J0.
N2910 G3 X17.1074 Z0.0117 I-0.0223 J0.
N2920 G3 X17.152 Z0.0092 I0.0223 J0.
N2930 G3 X17.1074 Z0.0068 I-0.0223 J0.
N2940 G3 X17.152 Z0.0043 I0.0223 J0.
N2950 G3 X17.1074 Z0.0019 I-0.0223 J0.
N2960 G3 X17.152 Z-0.0005 I0.0223 J0.
N2970 G3 X17.1074 Z-0.003 I-0.0223 J0.
N2980 G3 X17.152 Z-0.0054 I0.0223 J0.
N2990 G3 X17.1074 Z-0.0079 I-0.0223 J0.
N3000 G3 X17.152 Z-0.0103 I0.0223 J0.
N3010 G3 X17.1074 Z-0.0128 I-0.0223 J0.
N3020 G3 X17.152 Z-0.0152 I0.0223 J0.
N3030 G3 X17.1074 Z-0.0176 I-0.0223 J0.
N3040 G3 X17.152 Z-0.0201 I0.0223 J0.
N3050 G3 X17.1074 Z-0.0225 I-0.0223 J0.
N3060 G3 X17.152 Z-0.025 I0.0223 J0.
N3070 G3 X17.1074 Z-0.0274 I-0.0223 J0.
N3080 G3 X17.152 Z-0.0298 I0.0223 J0.
N3090 G3 X17.1074 Z-0.0323 I-0.0223 J0.
N3100 G3 X17.152 Z-0.0347 I0.0223 J0.
N3110 G3 X17.1074 Z-0.0372 I-0.0223 J0.
N3120 G3 X17.152 Z-0.0396 I0.0223 J0.
N3130 G3 X17.1074 Z-0.0421 I-0.0223 J0.
N3140 G3 X17.152 Z-0.0445 I0.0223 J0.
N3150 G3 X17.1074 Z-0.0469 I-0.0223 J0.
N3160 G3 X17.152 Z-0.0494 I0.0223 J0.
N3170 G3 X17.1074 Z-0.0518 I-0.0223 J0.
N3180 G3 X17.152 Z-0.0543 I0.0223 J0.
N3190 G3 X17.1074 Z-0.0567 I-0.0223 J0.
N3200 G3 X17.152 Z-0.0592 I0.0223 J0.
N3210 G3 X17.1074 Z-0.0616 I-0.0223 J0.
N3220 G3 X17.152 Z-0.064 I0.0223 J0.
N3230 G3 X17.1074 Z-0.0665 I-0.0223 J0.
N3240 G3 X17.152 Z-0.0689 I0.0223 J0.
N3250 G3 X17.1074 Z-0.0714 I-0.0223 J0.
N3260 G3 X17.152 Z-0.0738 I0.0223 J0.
N3270 G3 X17.1074 Z-0.0763 I-0.0223 J0.
N3280 G3 X17.152 Z-0.0787 I0.0223 J0.
N3290 G3 X17.1074 Z-0.0811 I-0.0223 J0.
N3300 G3 X17.152 Z-0.0836 I0.0223 J0.
N3310 G3 X17.1074 Z-0.086 I-0.0223 J0.
N3320 G3 X17.152 Z-0.0885 I0.0223 J0.
N3330 G3 X17.1074 Z-0.0909 I-0.0223 J0.
N3340 G3 X17.152 Z-0.0934 I0.0223 J0.
N3350 G3 X17.1074 Z-0.0958 I-0.0223 J0.
N3360 G3 X17.152 Z-0.0982 I0.0223 J0.
N3370 G3 X17.1074 Z-0.1007 I-0.0223 J0.
N3380 G3 X17.152 Z-0.1031 I0.0223 J0.
N3390 G3 X17.1074 Z-0.1056 I-0.0223 J0.
N3400 G3 X17.152 Z-0.108 I0.0223 J0.
N3410 G3 X17.1074 Z-0.1105 I-0.0223 J0.
N3420 G3 X17.152 Z-0.1129 I0.0223 J0.
N3430 G3 X17.1074 Z-0.1153 I-0.0223 J0.
N3440 G3 X17.152 Z-0.1178 I0.0223 J0.
N3450 G3 X17.1074 Z-0.1202 I-0.0223 J0.
N3460 G3 X17.152 Z-0.1227 I0.0223 J0.
N3470 G3 X17.1074 Z-0.1251 I-0.0223 J0.
N3480 G3 X17.152 Z-0.1276 I0.0223 J0.
N3490 G3 X17.1074 Z-0.13 I-0.0223 J0.
N3500 G3 X17.1371 I0.0148 J0. F40.
N3510 G3 X17.0629 I-0.0371 J0.
N3520 G3 X17.1816 I0.0594 J0.
N3530 G3 X17.0184 I-0.0816 J0.
N3540 G3 X17.1816 I0.0816 J0.
N3550 G3 X17.1805 Y2.0545 Z-0.1287 I-0.0094 J0.
N3560 G3 X17.1783 Y2.0571 Z-0.1253 I-0.0082 J-0.0045
N3570 G3 X17.1773 Y2.0579 Z-0.1206 I-0.0061 J-0.0071
N3580 G0 Z0.2
N3590 G0 X11.9159 Y2.0675
N3600 G1 Z0.1094 F40.
N3610 G3 X11.915 Y2.0667 Z0.1048 I0.0138 J-0.0175 F13.3
N3620 G3 X11.9127 Y2.0644 Z0.1014 I0.0147 J-0.0167
N3630 G3 X11.9101 Y2.0606 Z0.1 I0.017 J-0.0144
N3640 G3 X11.9074 Y2.05 Z0.0996 I0.0196 J-0.0106
N3650 G3 X11.952 Z0.0972 I0.0223 J0.
N3660 G3 X11.9074 Z0.0947 I-0.0223 J0.
N3670 G3 X11.952 Z0.0923 I0.0223 J0.
N3680 G3 X11.9074 Z0.0898 I-0.0223 J0.
N3690 G3 X11.952 Z0.0874 I0.0223 J0.
N3700 G3 X11.9074 Z0.085 I-0.0223 J0.
N3710 G3 X11.952 Z0.0825 I0.0223 J0.
N3720 G3 X11.9074 Z0.0801 I-0.0223 J0.
N3730 G3 X11.952 Z0.0776 I0.0223 J0.
N3740 G3 X11.9074 Z0.0752 I-0.0223 J0.
N3750 G3 X11.952 Z0.0727 I0.0223 J0.
N3760 G3 X11.9074 Z0.0703 I-0.0223 J0.
N3770 G3 X11.952 Z0.0679 I0.0223 J0.
N3780 G3 X11.9074 Z0.0654 I-0.0223 J0.
N3790 G3 X11.952 Z0.063 I0.0223 J0.
N3800 G3 X11.9074 Z0.0605 I-0.0223 J0.
N3810 G3 X11.952 Z0.0581 I0.0223 J0.
N3820 G3 X11.9074 Z0.0556 I-0.0223 J0.
N3830 G3 X11.952 Z0.0532 I0.0223 J0.
N3840 G3 X11.9074 Z0.0508 I-0.0223 J0.
N3850 G3 X11.952 Z0.0483 I0.0223 J0.
N3860 G3 X11.9074 Z0.0459 I-0.0223 J0.
N3870 G3 X11.952 Z0.0434 I0.0223 J0.
N3880 G3 X11.9074 Z0.041 I-0.0223 J0.
N3890 G3 X11.952 Z0.0385 I0.0223 J0.
N3900 G3 X11.9074 Z0.0361 I-0.0223 J0.
N3910 G3 X11.952 Z0.0337 I0.0223 J0.
N3920 G3 X11.9074 Z0.0312 I-0.0223 J0.
N3930 G3 X11.952 Z0.0288 I0.0223 J0.
N3940 G3 X11.9074 Z0.0263 I-0.0223 J0.
N3950 G3 X11.952 Z0.0239 I0.0223 J0.
N3960 G3 X11.9074 Z0.0214 I-0.0223 J0.
N3970 G3 X11.952 Z0.019 I0.0223 J0.
N3980 G3 X11.9074 Z0.0166 I-0.0223 J0.
N3990 G3 X11.952 Z0.0141 I0.0223 J0.
N4000 G3 X11.9074 Z0.0117 I-0.0223 J0.
N4010 G3 X11.952 Z0.0092 I0.0223 J0.
N4020 G3 X11.9074 Z0.0068 I-0.0223 J0.
N4030 G3 X11.952 Z0.0043 I0.0223 J0.
N4040 G3 X11.9074 Z0.0019 I-0.0223 J0.
N4050 G3 X11.952 Z-0.0005 I0.0223 J0.
N4060 G3 X11.9074 Z-0.003 I-0.0223 J0.
N4070 G3 X11.952 Z-0.0054 I0.0223 J0.
N4080 G3 X11.9074 Z-0.0079 I-0.0223 J0.
N4090 G3 X11.952 Z-0.0103 I0.0223 J0.
N4100 G3 X11.9074 Z-0.0128 I-0.0223 J0.
N4110 G3 X11.952 Z-0.0152 I0.0223 J0.
N4120 G3 X11.9074 Z-0.0176 I-0.0223 J0.
N4130 G3 X11.952 Z-0.0201 I0.0223 J0.
N4140 G3 X11.9074 Z-0.0225 I-0.0223 J0.
N4150 G3 X11.952 Z-0.025 I0.0223 J0.
N4160 G3 X11.9074 Z-0.0274 I-0.0223 J0.
N4170 G3 X11.952 Z-0.0298 I0.0223 J0.
N4180 G3 X11.9074 Z-0.0323 I-0.0223 J0.
N4190 G3 X11.952 Z-0.0347 I0.0223 J0.
N4200 G3 X11.9074 Z-0.0372 I-0.0223 J0.
N4210 G3 X11.952 Z-0.0396 I0.0223 J0.
N4220 G3 X11.9074 Z-0.0421 I-0.0223 J0.
N4230 G3 X11.952 Z-0.0445 I0.0223 J0.
N4240 G3 X11.9074 Z-0.0469 I-0.0223 J0.
N4250 G3 X11.952 Z-0.0494 I0.0223 J0.
N4260 G3 X11.9074 Z-0.0518 I-0.0223 J0.
N4270 G3 X11.952 Z-0.0543 I0.0223 J0.
N4280 G3 X11.9074 Z-0.0567 I-0.0223 J0.
N4290 G3 X11.952 Z-0.0592 I0.0223 J0.
N4300 G3 X11.9074 Z-0.0616 I-0.0223 J0.
N4310 G3 X11.952 Z-0.064 I0.0223 J0.
N4320 G3 X11.9074 Z-0.0665 I-0.0223 J0.
N4330 G3 X11.952 Z-0.0689 I0.0223 J0.
N4340 G3 X11.9074 Z-0.0714 I-0.0223 J0.
N4350 G3 X11.952 Z-0.0738 I0.0223 J0.
N4360 G3 X11.9074 Z-0.0763 I-0.0223 J0.
N4370 G3 X11.952 Z-0.0787 I0.0223 J0.
N4380 G3 X11.9074 Z-0.0811 I-0.0223 J0.
N4390 G3 X11.952 Z-0.0836 I0.0223 J0.
N4400 G3 X11.9074 Z-0.086 I-0.0223 J0.
N4410 G3 X11.952 Z-0.0885 I0.0223 J0.
N4420 G3 X11.9074 Z-0.0909 I-0.0223 J0.
N4430 G3 X11.952 Z-0.0934 I0.0223 J0.
N4440 G3 X11.9074 Z-0.0958 I-0.0223 J0.
N4450 G3 X11.952 Z-0.0982 I0.0223 J0.
N4460 G3 X11.9074 Z-0.1007 I-0.0223 J0.
N4470 G3 X11.952 Z-0.1031 I0.0223 J0.
N4480 G3 X11.9074 Z-0.1056 I-0.0223 J0.
N4490 G3 X11.952 Z-0.108 I0.0223 J0.
N4500 G3 X11.9074 Z-0.1105 I-0.0223 J0.
N4510 G3 X11.952 Z-0.1129 I0.0223 J0.
N4520 G3 X11.9074 Z-0.1153 I-0.0223 J0.
N4530 G3 X11.952 Z-0.1178 I0.0223 J0.
N4540 G3 X11.9074 Z-0.1202 I-0.0223 J0.
N4550 G3 X11.952 Z-0.1227 I0.0223 J0.
N4560 G3 X11.9074 Z-0.1251 I-0.0223 J0.
N4570 G3 X11.952 Z-0.1276 I0.0223 J0.
N4580 G3 X11.9074 Z-0.13 I-0.0223 J0.
N4590 G3 X11.9371 I0.0148 J0. F40.
N4600 G3 X11.8629 I-0.0371 J0.
N4610 G3 X11.9816 I0.0594 J0.
N4620 G3 X11.8184 I-0.0816 J0.
N4630 G3 X11.851 Y1.9847 I0.0816 J0.
N4640 G3 X11.9816 Y2.05 I0.049 J0.0653
N4650 G3 X11.9805 Y2.0545 Z-0.1287 I-0.0094 J0.
N4660 G3 X11.9783 Y2.0571 Z-0.1253 I-0.0082 J-0.0045
N4670 G3 X11.9773 Y2.0579 Z-0.1206 I-0.0061 J-0.0071
N4680 G0 Z0.2
N4690 G0 X1.7685 Y1.251
N4700 G1 Z0.1094 F40.
N4710 G3 X1.7677 Y1.2519 Z0.1048 I-0.0175 J-0.0138 F13.3
N4720 G3 X1.7654 Y1.2542 Z0.1014 I-0.0167 J-0.0147
N4730 G3 X1.7616 Y1.2568 Z0.1 I-0.0144 J-0.017
N4740 G3 X1.7404 Y1.2176 Z0.0976 I-0.0106 J-0.0196
N4750 G3 X1.7616 Y1.2568 Z0.0951 I0.0106 J0.0196
N4760 G3 X1.7404 Y1.2176 Z0.0927 I-0.0106 J-0.0196
N4770 G3 X1.7616 Y1.2568 Z0.0902 I0.0106 J0.0196
N4780 G3 X1.7404 Y1.2176 Z0.0878 I-0.0106 J-0.0196
N4790 G3 X1.7616 Y1.2568 Z0.0853 I0.0106 J0.0196
N4800 G3 X1.7404 Y1.2176 Z0.0829 I-0.0106 J-0.0196
N4810 G3 X1.7616 Y1.2568 Z0.0805 I0.0106 J0.0196
N4820 G3 X1.7404 Y1.2176 Z0.078 I-0.0106 J-0.0196
N4830 G3 X1.7616 Y1.2568 Z0.0756 I0.0106 J0.0196
N4840 G3 X1.7404 Y1.2176 Z0.0731 I-0.0106 J-0.0196
N4850 G3 X1.7616 Y1.2568 Z0.0707 I0.0106 J0.0196
N4860 G3 X1.7404 Y1.2176 Z0.0682 I-0.0106 J-0.0196
N4870 G3 X1.7616 Y1.2568 Z0.0658 I0.0106 J0.0196
N4880 G3 X1.7404 Y1.2176 Z0.0634 I-0.0106 J-0.0196
N4890 G3 X1.7616 Y1.2568 Z0.0609 I0.0106 J0.0196
N4900 G3 X1.7404 Y1.2176 Z0.0585 I-0.0106 J-0.0196
N4910 G3 X1.7616 Y1.2568 Z0.056 I0.0106 J0.0196
N4920 G3 X1.7404 Y1.2176 Z0.0536 I-0.0106 J-0.0196
N4930 G3 X1.7616 Y1.2568 Z0.0511 I0.0106 J0.0196
N4940 G3 X1.7404 Y1.2176 Z0.0487 I-0.0106 J-0.0196
N4950 G3 X1.7616 Y1.2568 Z0.0463 I0.0106 J0.0196
N4960 G3 X1.7404 Y1.2176 Z0.0438 I-0.0106 J-0.0196
N4970 G3 X1.7616 Y1.2568 Z0.0414 I0.0106 J0.0196
N4980 G3 X1.7404 Y1.2176 Z0.0389 I-0.0106 J-0.0196
N4990 G3 X1.7616 Y1.2568 Z0.0365 I0.0106 J0.0196
N5000 G3 X1.7404 Y1.2176 Z0.034 I-0.0106 J-0.0196
N5010 G3 X1.7616 Y1.2568 Z0.0316 I0.0106 J0.0196
N5020 G3 X1.7404 Y1.2176 Z0.0292 I-0.0106 J-0.0196
N5030 G3 X1.7616 Y1.2568 Z0.0267 I0.0106 J0.0196
N5040 G3 X1.7404 Y1.2176 Z0.0243 I-0.0106 J-0.0196
N5050 G3 X1.7616 Y1.2568 Z0.0218 I0.0106 J0.0196
N5060 G3 X1.7404 Y1.2176 Z0.0194 I-0.0106 J-0.0196
N5070 G3 X1.7616 Y1.2568 Z0.0169 I0.0106 J0.0196
N5080 G3 X1.7404 Y1.2176 Z0.0145 I-0.0106 J-0.0196
N5090 G3 X1.7616 Y1.2568 Z0.0121 I0.0106 J0.0196
N5100 G3 X1.7404 Y1.2176 Z0.0096 I-0.0106 J-0.0196
N5110 G3 X1.7616 Y1.2568 Z0.0072 I0.0106 J0.0196
N5120 G3 X1.7404 Y1.2176 Z0.0047 I-0.0106 J-0.0196
N5130 G3 X1.7616 Y1.2568 Z0.0023 I0.0106 J0.0196
N5140 G3 X1.7404 Y1.2176 Z-0.0002 I-0.0106 J-0.0196
N5150 G3 X1.7616 Y1.2568 Z-0.0026 I0.0106 J0.0196
N5160 G3 X1.7404 Y1.2176 Z-0.005 I-0.0106 J-0.0196
N5170 G3 X1.7616 Y1.2568 Z-0.0075 I0.0106 J0.0196
N5180 G3 X1.7404 Y1.2176 Z-0.0099 I-0.0106 J-0.0196
N5190 G3 X1.7616 Y1.2568 Z-0.0124 I0.0106 J0.0196
N5200 G3 X1.7404 Y1.2176 Z-0.0148 I-0.0106 J-0.0196
N5210 G3 X1.7616 Y1.2568 Z-0.0172 I0.0106 J0.0196
N5220 G3 X1.7404 Y1.2176 Z-0.0197 I-0.0106 J-0.0196
N5230 G3 X1.7616 Y1.2568 Z-0.0221 I0.0106 J0.0196
N5240 G3 X1.7404 Y1.2176 Z-0.0246 I-0.0106 J-0.0196
N5250 G3 X1.7616 Y1.2568 Z-0.027 I0.0106 J0.0196
N5260 G3 X1.7404 Y1.2176 Z-0.0295 I-0.0106 J-0.0196
N5270 G3 X1.7616 Y1.2568 Z-0.0319 I0.0106 J0.0196
N5280 G3 X1.7404 Y1.2176 Z-0.0343 I-0.0106 J-0.0196
N5290 G3 X1.7616 Y1.2568 Z-0.0368 I0.0106 J0.0196
N5300 G3 X1.7404 Y1.2176 Z-0.0392 I-0.0106 J-0.0196
N5310 G3 X1.7616 Y1.2568 Z-0.0417 I0.0106 J0.0196
N5320 G3 X1.7404 Y1.2176 Z-0.0441 I-0.0106 J-0.0196
N5330 G3 X1.7616 Y1.2568 Z-0.0466 I0.0106 J0.0196
N5340 G3 X1.7404 Y1.2176 Z-0.049 I-0.0106 J-0.0196
N5350 G3 X1.7616 Y1.2568 Z-0.0514 I0.0106 J0.0196
N5360 G3 X1.7404 Y1.2176 Z-0.0539 I-0.0106 J-0.0196
N5370 G3 X1.7616 Y1.2568 Z-0.0563 I0.0106 J0.0196
N5380 G3 X1.7404 Y1.2176 Z-0.0588 I-0.0106 J-0.0196
N5390 G3 X1.7616 Y1.2568 Z-0.0612 I0.0106 J0.0196
N5400 G3 X1.7404 Y1.2176 Z-0.0637 I-0.0106 J-0.0196
N5410 G3 X1.7616 Y1.2568 Z-0.0661 I0.0106 J0.0196
N5420 G3 X1.7404 Y1.2176 Z-0.0685 I-0.0106 J-0.0196
N5430 G3 X1.7616 Y1.2568 Z-0.071 I0.0106 J0.0196
N5440 G3 X1.7404 Y1.2176 Z-0.0734 I-0.0106 J-0.0196
N5450 G3 X1.7616 Y1.2568 Z-0.0759 I0.0106 J0.0196
N5460 G3 X1.7404 Y1.2176 Z-0.0783 I-0.0106 J-0.0196
N5470 G3 X1.7616 Y1.2568 Z-0.0808 I0.0106 J0.0196
N5480 G3 X1.7404 Y1.2176 Z-0.0832 I-0.0106 J-0.0196
N5490 G3 X1.7616 Y1.2568 Z-0.0856 I0.0106 J0.0196
N5500 G3 X1.7404 Y1.2176 Z-0.0881 I-0.0106 J-0.0196
N5510 G3 X1.7616 Y1.2568 Z-0.0905 I0.0106 J0.0196
N5520 G3 X1.7404 Y1.2176 Z-0.093 I-0.0106 J-0.0196
N5530 G3 X1.7616 Y1.2568 Z-0.0954 I0.0106 J0.0196
N5540 G3 X1.7404 Y1.2176 Z-0.0979 I-0.0106 J-0.0196
N5550 G3 X1.7616 Y1.2568 Z-0.1003 I0.0106 J0.0196
N5560 G3 X1.7404 Y1.2176 Z-0.1027 I-0.0106 J-0.0196
N5570 G3 X1.7616 Y1.2568 Z-0.1052 I0.0106 J0.0196
N5580 G3 X1.7404 Y1.2176 Z-0.1076 I-0.0106 J-0.0196
N5590 G3 X1.7616 Y1.2568 Z-0.1101 I0.0106 J0.0196
N5600 G3 X1.7404 Y1.2176 Z-0.1125 I-0.0106 J-0.0196
N5610 G3 X1.7616 Y1.2568 Z-0.115 I0.0106 J0.0196
N5620 G3 X1.7404 Y1.2176 Z-0.1174 I-0.0106 J-0.0196
N5630 G3 X1.7616 Y1.2568 Z-0.1198 I0.0106 J0.0196
N5640 G3 X1.7404 Y1.2176 Z-0.1223 I-0.0106 J-0.0196
N5650 G3 X1.7616 Y1.2568 Z-0.1247 I0.0106 J0.0196
N5660 G3 X1.7404 Y1.2176 Z-0.1272 I-0.0106 J-0.0196
N5670 G3 X1.7616 Y1.2568 Z-0.1296 I0.0106 J0.0196
N5680 G3 X1.751 Y1.2595 Z-0.13 I-0.0106 J-0.0196
N5690 G1 X1.7509 F40.
N5700 G3 X1.7415 Y1.2501 I0. J-0.0094
N5710 G3 X1.7509 Y1.2405 I0.0094 J-0.0001
N5720 G1 X4.251
N5730 G3 X4.2605 Y1.2499 I0. J0.0094
N5740 G3 X4.251 Y1.2595 I-0.0094 J0.0001
N5750 G1 X1.751
N5760 G2 X1.7391 Y1.2698 I0. J0.012
N5770 G3 X1.7237 Y1.2729 I-0.0083 J-0.0012
N5780 G3 X1.7219 Y1.2663 I0.0109 J-0.0066
N5790 G1 Y1.2337
N5800 G3 X1.7347 Y1.2209 I0.0128 J0.
N5810 G1 X4.2673
N5820 G3 X4.2801 Y1.2337 I0. J0.0128
N5830 G1 Y1.2663
N5840 G3 X4.2673 Y1.2791 I-0.0128 J0.
N5850 G1 X1.7347
N5860 G3 X1.7237 Y1.2729 I0. J-0.0128
N5870 G2 X1.7018 Y1.2538 I-0.041 J0.0248
N5880 G3 X1.6859 Y1.2295 I0.0106 J-0.0243
N5890 G1 Y1.1977
N5900 G3 X1.6987 Y1.1849 I0.0128 J0.
N5910 G1 X4.3033
N5920 G3 X4.3161 Y1.1977 I0. J0.0128
N5930 G1 Y1.3023
N5940 G3 X4.3033 Y1.3151 I-0.0128 J0.
N5950 G1 X1.6987
N5960 G3 X1.6859 Y1.3023 I0. J-0.0128
N5970 G1 Y1.2295
N5980 G2 X1.6679 Y1.2025 I-0.0293 J0.
N5990 G3 X1.6499 Y1.1755 I0.0113 J-0.027
N6000 G1 Y1.1617
N6010 G3 X1.6627 Y1.1489 I0.0128 J0.
N6020 G1 X4.3393
N6030 G3 X4.3521 Y1.1617 I0. J0.0128
N6040 G1 Y1.3383
N6050 G3 X4.3393 Y1.3511 I-0.0128 J0.
N6060 G1 X1.6627
N6070 G3 X1.6499 Y1.3383 I0. J-0.0128
N6080 G1 Y1.1755
N6090 G2 X1.6309 Y1.1467 I-0.0313 J0.
N6100 G3 X1.6378 Y1.1129 I0.0069 J-0.0162
N6110 G1 X4.3753
N6120 G3 X4.3881 Y1.1256 I0. J0.0128
N6130 G1 Y1.3744
N6140 G3 X4.3753 Y1.3871 I-0.0128 J0.
N6150 G1 X1.6266
N6160 G3 X1.6139 Y1.3744 I0. J-0.0128
N6170 G1 Y1.1256
N6180 G3 X1.6266 Y1.1129 I0.0128 J0.
N6190 G1 X1.6378
N6200 G2 X1.6648 Y1.0949 I0. J-0.0293
N6210 G3 X1.6918 Y1.0769 I0.027 J0.0113
N6220 G1 X4.4114
N6230 G3 X4.4241 Y1.0896 I0. J0.0128
N6240 G1 Y1.4104
N6250 G3 X4.4114 Y1.4231 I-0.0128 J0.
N6260 G1 X1.5906
N6270 G3 X1.5779 Y1.4104 I0. J-0.0128
N6280 G1 Y1.0896
N6290 G3 X1.5906 Y1.0769 I0.0128 J0.
N6300 G1 X1.6918
N6310 G2 X1.7188 Y1.0589 I0. J-0.0293
N6320 G3 X1.7458 Y1.0408 I0.027 J0.0113
N6330 G1 X4.4474
N6340 G3 X4.4601 Y1.0536 I0. J0.0128
N6350 G1 Y1.4464
N6360 G3 X4.4474 Y1.4592 I-0.0128 J0.
N6370 G1 X1.5546
N6380 G3 X1.5418 Y1.4464 I0. J-0.0128
N6390 G1 Y1.0536
N6400 G3 X1.5546 Y1.0408 I0.0128 J0.
N6410 G1 X1.7458
N6420 G2 X1.7728 Y1.0228 I0. J-0.0293
N6430 G3 X1.7998 Y1.0048 I0.027 J0.0113
N6440 G1 X4.4834
N6450 G3 X4.4961 Y1.0176 I0. J0.0128
N6460 G1 Y1.4824
N6470 G3 X4.4834 Y1.4952 I-0.0128 J0.
N6480 G1 X1.5186
N6490 G3 X1.5058 Y1.4824 I0. J-0.0128
N6500 G1 Y1.0176
N6510 G3 X1.5186 Y1.0048 I0.0128 J0.
N6520 G1 X1.7998
N6530 G2 X1.8268 Y0.9868 I0. J-0.0293
N6540 G3 X1.8538 Y0.9688 I0.027 J0.0113
N6550 G1 X4.5194
N6560 G3 X4.5322 Y0.9816 I0. J0.0128
N6570 G1 Y1.5184
N6580 G3 X4.5194 Y1.5312 I-0.0128 J0.
N6590 G1 X1.4826
N6600 G3 X1.4698 Y1.5184 I0. J-0.0128
N6610 G1 Y0.9816
N6620 G3 X1.4826 Y0.9688 I0.0128 J0.
N6630 G1 X1.8538
N6640 G2 X1.8809 Y0.9508 I0. J-0.0293
N6650 G3 X1.9079 Y0.9328 I0.027 J0.0113
N6660 G1 X4.5554
N6670 G3 X4.5682 Y0.9456 I0. J0.0128
N6680 G1 Y1.5544
N6690 G3 X4.5554 Y1.5672 I-0.0128 J0.
N6700 G1 X1.4466
N6710 G3 X1.4338 Y1.5544 I0. J-0.0128
N6720 G1 Y0.9456
N6730 G3 X1.4466 Y0.9328 I0.0128 J0.
N6740 G1 X1.9079
N6750 G2 X1.9349 Y0.9148 I0. J-0.0293
N6760 G3 X1.9619 Y0.8968 I0.027 J0.0113
N6770 G1 X4.5914
N6780 G3 X4.6042 Y0.9096 I0. J0.0128
N6790 G1 Y1.5904
N6800 G3 X4.5914 Y1.6032 I-0.0128 J0.
N6810 G1 X1.4106
N6820 G3 X1.3978 Y1.5904 I0. J-0.0128
N6830 G1 Y0.9096
N6840 G3 X1.4106 Y0.8968 I0.0128 J0.
N6850 G1 X1.9619
N6860 G2 X1.9889 Y0.8788 I0. J-0.0293
N6870 G3 X2.0159 Y0.8608 I0.027 J0.0113
N6880 G1 X4.6274
N6890 G3 X4.6402 Y0.8736 I0. J0.0128
N6900 G1 Y1.6264
N6910 G3 X4.6274 Y1.6392 I-0.0128 J0.
N6920 G1 X1.3746
N6930 G3 X1.3618 Y1.6264 I0. J-0.0128
N6940 G1 Y0.8736
N6950 G3 X1.3746 Y0.8608 I0.0128 J0.
N6960 G1 X2.0159
N6970 G2 X2.0429 Y0.8428 I0. J-0.0293
N6980 G3 X2.0699 Y0.8248 I0.027 J0.0113
N6990 G1 X4.6634
N7000 G3 X4.6762 Y0.8376 I0. J0.0128
N7010 G1 Y1.6624
N7020 G3 X4.6634 Y1.6752 I-0.0128 J0.
N7030 G1 X1.3386
N7040 G3 X1.3258 Y1.6624 I0. J-0.0128
N7050 G1 Y0.8376
N7060 G3 X1.3386 Y0.8248 I0.0128 J0.
N7070 G1 X2.0699
N7080 G2 X2.0969 Y0.8068 I0. J-0.0293
N7090 G3 X2.1239 Y0.7888 I0.027 J0.0113
N7100 G1 X4.6994
N7110 G3 X4.7122 Y0.8015 I0. J0.0128
N7120 G1 Y1.6985
N7130 G3 X4.6994 Y1.7112 I-0.0128 J0.
N7140 G1 X1.3025
N7150 G3 X1.2898 Y1.6985 I0. J-0.0128
N7160 G1 Y0.8015
N7170 G3 X1.3025 Y0.7888 I0.0128 J0.
N7180 G1 X2.1239
N7190 G2 X2.1509 Y0.7708 I0. J-0.0293
N7200 G3 X2.1779 Y0.7528 I0.027 J0.0113
N7210 G1 X4.7354
N7220 G3 X4.7482 Y0.7655 I0. J0.0128
N7230 G1 Y1.7345
N7240 G3 X4.7354 Y1.7472 I-0.0128 J0.
N7250 G1 X1.2665
N7260 G3 X1.2538 Y1.7345 I0. J-0.0128
N7270 G1 Y0.7655
N7280 G3 X1.2665 Y0.7528 I0.0128 J0.
N7290 G1 X2.1779
N7300 G2 X2.2067 Y0.7336 I0. J-0.0312
N7310 G3 X2.2355 Y0.7144 I0.0288 J0.012
N7320 G1 X4.751
N7330 G3 X4.7866 Y0.75 I0. J0.0356
N7340 G1 Y1.75
N7350 G3 X4.751 Y1.7856 I-0.0356 J0.
N7360 G1 X1.251
N7370 G3 X1.2154 Y1.75 I0. J-0.0356
N7380 G1 Y0.75
N7390 G3 X1.251 Y0.7144 I0.0356 J0.
N7400 G1 X2.2355
N7410 G2 X2.2674 Y0.6931 I0. J-0.0346
N7420 G3 X2.2993 Y0.6719 I0.0319 J0.0133
N7430 G1 X4.751
N7440 G3 X4.8291 Y0.75 I0. J0.0781
N7450 G1 Y1.75
N7460 G3 X4.751 Y1.8281 I-0.0781 J0.
N7470 G1 X1.251
N7480 G3 X1.1729 Y1.75 I0. J-0.0781
N7490 G1 Y0.75
N7500 G3 X1.251 Y0.6719 I0.0781 J0.
N7510 G1 X2.2993
N7520 G3 X2.3038 Y0.673 Z-0.1287 I0. J0.0094
N7530 G3 X2.3064 Y0.6752 Z-0.1253 I-0.0045 J0.0082
N7540 G3 X2.3072 Y0.6762 Z-0.1206 I-0.0071 J0.0061
N7550 G0 Z0.2
N7560 G0 X25.2315 Y1.249
N7570 G1 Z0.1094 F40.
N7580 G3 X25.2323 Y1.2481 Z0.1048 I0.0175 J0.0138 F13.3
N7590 G3 X25.2346 Y1.2458 Z0.1014 I0.0167 J0.0147
N7600 G3 X25.2384 Y1.2432 Z0.1 I0.0144 J0.017
N7610 G3 X25.2596 Y1.2824 Z0.0976 I0.0106 J0.0196
N7620 G3 X25.2384 Y1.2432 Z0.0951 I-0.0106 J-0.0196
N7630 G3 X25.2596 Y1.2824 Z0.0927 I0.0106 J0.0196
N7640 G3 X25.2384 Y1.2432 Z0.0902 I-0.0106 J-0.0196
N7650 G3 X25.2596 Y1.2824 Z0.0878 I0.0106 J0.0196
N7660 G3 X25.2384 Y1.2432 Z0.0853 I-0.0106 J-0.0196
N7670 G3 X25.2596 Y1.2824 Z0.0829 I0.0106 J0.0196
N7680 G3 X25.2384 Y1.2432 Z0.0805 I-0.0106 J-0.0196
N7690 G3 X25.2596 Y1.2824 Z0.078 I0.0106 J0.0196
N7700 G3 X25.2384 Y1.2432 Z0.0756 I-0.0106 J-0.0196
N7710 G3 X25.2596 Y1.2824 Z0.0731 I0.0106 J0.0196
N7720 G3 X25.2384 Y1.2432 Z0.0707 I-0.0106 J-0.0196
N7730 G3 X25.2596 Y1.2824 Z0.0682 I0.0106 J0.0196
N7740 G3 X25.2384 Y1.2432 Z0.0658 I-0.0106 J-0.0196
N7750 G3 X25.2596 Y1.2824 Z0.0634 I0.0106 J0.0196
N7760 G3 X25.2384 Y1.2432 Z0.0609 I-0.0106 J-0.0196
N7770 G3 X25.2596 Y1.2824 Z0.0585 I0.0106 J0.0196
N7780 G3 X25.2384 Y1.2432 Z0.056 I-0.0106 J-0.0196
N7790 G3 X25.2596 Y1.2824 Z0.0536 I0.0106 J0.0196
N7800 G3 X25.2384 Y1.2432 Z0.0511 I-0.0106 J-0.0196
N7810 G3 X25.2596 Y1.2824 Z0.0487 I0.0106 J0.0196
N7820 G3 X25.2384 Y1.2432 Z0.0463 I-0.0106 J-0.0196
N7830 G3 X25.2596 Y1.2824 Z0.0438 I0.0106 J0.0196
N7840 G3 X25.2384 Y1.2432 Z0.0414 I-0.0106 J-0.0196
N7850 G3 X25.2596 Y1.2824 Z0.0389 I0.0106 J0.0196
N7860 G3 X25.2384 Y1.2432 Z0.0365 I-0.0106 J-0.0196
N7870 G3 X25.2596 Y1.2824 Z0.034 I0.0106 J0.0196
N7880 G3 X25.2384 Y1.2432 Z0.0316 I-0.0106 J-0.0196
N7890 G3 X25.2596 Y1.2824 Z0.0292 I0.0106 J0.0196
N7900 G3 X25.2384 Y1.2432 Z0.0267 I-0.0106 J-0.0196
N7910 G3 X25.2596 Y1.2824 Z0.0243 I0.0106 J0.0196
N7920 G3 X25.2384 Y1.2432 Z0.0218 I-0.0106 J-0.0196
N7930 G3 X25.2596 Y1.2824 Z0.0194 I0.0106 J0.0196
N7940 G3 X25.2384 Y1.2432 Z0.0169 I-0.0106 J-0.0196
N7950 G3 X25.2596 Y1.2824 Z0.0145 I0.0106 J0.0196
N7960 G3 X25.2384 Y1.2432 Z0.0121 I-0.0106 J-0.0196
N7970 G3 X25.2596 Y1.2824 Z0.0096 I0.0106 J0.0196
N7980 G3 X25.2384 Y1.2432 Z0.0072 I-0.0106 J-0.0196
N7990 G3 X25.2596 Y1.2824 Z0.0047 I0.0106 J0.0196
N8000 G3 X25.2384 Y1.2432 Z0.0023 I-0.0106 J-0.0196
N8010 G3 X25.2596 Y1.2824 Z-0.0002 I0.0106 J0.0196
N8020 G3 X25.2384 Y1.2432 Z-0.0026 I-0.0106 J-0.0196
N8030 G3 X25.2596 Y1.2824 Z-0.005 I0.0106 J0.0196
N8040 G3 X25.2384 Y1.2432 Z-0.0075 I-0.0106 J-0.0196
N8050 G3 X25.2596 Y1.2824 Z-0.0099 I0.0106 J0.0196
N8060 G3 X25.2384 Y1.2432 Z-0.0124 I-0.0106 J-0.0196
N8070 G3 X25.2596 Y1.2824 Z-0.0148 I0.0106 J0.0196
N8080 G3 X25.2384 Y1.2432 Z-0.0172 I-0.0106 J-0.0196
N8090 G3 X25.2596 Y1.2824 Z-0.0197 I0.0106 J0.0196
N8100 G3 X25.2384 Y1.2432 Z-0.0221 I-0.0106 J-0.0196
N8110 G3 X25.2596 Y1.2824 Z-0.0246 I0.0106 J0.0196
N8120 G3 X25.2384 Y1.2432 Z-0.027 I-0.0106 J-0.0196
N8130 G3 X25.2596 Y1.2824 Z-0.0295 I0.0106 J0.0196
N8140 G3 X25.2384 Y1.2432 Z-0.0319 I-0.0106 J-0.0196
N8150 G3 X25.2596 Y1.2824 Z-0.0343 I0.0106 J0.0196
N8160 G3 X25.2384 Y1.2432 Z-0.0368 I-0.0106 J-0.0196
N8170 G3 X25.2596 Y1.2824 Z-0.0392 I0.0106 J0.0196
N8180 G3 X25.2384 Y1.2432 Z-0.0417 I-0.0106 J-0.0196
N8190 G3 X25.2596 Y1.2824 Z-0.0441 I0.0106 J0.0196
N8200 G3 X25.2384 Y1.2432 Z-0.0466 I-0.0106 J-0.0196
N8210 G3 X25.2596 Y1.2824 Z-0.049 I0.0106 J0.0196
N8220 G3 X25.2384 Y1.2432 Z-0.0514 I-0.0106 J-0.0196
N8230 G3 X25.2596 Y1.2824 Z-0.0539 I0.0106 J0.0196
N8240 G3 X25.2384 Y1.2432 Z-0.0563 I-0.0106 J-0.0196
N8250 G3 X25.2596 Y1.2824 Z-0.0588 I0.0106 J0.0196
N8260 G3 X25.2384 Y1.2432 Z-0.0612 I-0.0106 J-0.0196
N8270 G3 X25.2596 Y1.2824 Z-0.0637 I0.0106 J0.0196
N8280 G3 X25.2384 Y1.2432 Z-0.0661 I-0.0106 J-0.0196
N8290 G3 X25.2596 Y1.2824 Z-0.0685 I0.0106 J0.0196
N8300 G3 X25.2384 Y1.2432 Z-0.071 I-0.0106 J-0.0196
N8310 G3 X25.2596 Y1.2824 Z-0.0734 I0.0106 J0.0196
N8320 G3 X25.2384 Y1.2432 Z-0.0759 I-0.0106 J-0.0196
N8330 G3 X25.2596 Y1.2824 Z-0.0783 I0.0106 J0.0196
N8340 G3 X25.2384 Y1.2432 Z-0.0808 I-0.0106 J-0.0196
N8350 G3 X25.2596 Y1.2824 Z-0.0832 I0.0106 J0.0196
N8360 G3 X25.2384 Y1.2432 Z-0.0856 I-0.0106 J-0.0196
N8370 G3 X25.2596 Y1.2824 Z-0.0881 I0.0106 J0.0196
N8380 G3 X25.2384 Y1.2432 Z-0.0905 I-0.0106 J-0.0196
N8390 G3 X25.2596 Y1.2824 Z-0.093 I0.0106 J0.0196
N8400 G3 X25.2384 Y1.2432 Z-0.0954 I-0.0106 J-0.0196
N8410 G3 X25.2596 Y1.2824 Z-0.0979 I0.0106 J0.0196
N8420 G3 X25.2384 Y1.2432 Z-0.1003 I-0.0106 J-0.0196
N8430 G3 X25.2596 Y1.2824 Z-0.1027 I0.0106 J0.0196
N8440 G3 X25.2384 Y1.2432 Z-0.1052 I-0.0106 J-0.0196
N8450 G3 X25.2596 Y1.2824 Z-0.1076 I0.0106 J0.0196
N8460 G3 X25.2384 Y1.2432 Z-0.1101 I-0.0106 J-0.0196
N8470 G3 X25.2596 Y1.2824 Z-0.1125 I0.0106 J0.0196
N8480 G3 X25.2384 Y1.2432 Z-0.115 I-0.0106 J-0.0196
N8490 G3 X25.2596 Y1.2824 Z-0.1174 I0.0106 J0.0196
N8500 G3 X25.2384 Y1.2432 Z-0.1198 I-0.0106 J-0.0196
N8510 G3 X25.2596 Y1.2824 Z-0.1223 I0.0106 J0.0196
N8520 G3 X25.2384 Y1.2432 Z-0.1247 I-0.0106 J-0.0196
N8530 G3 X25.2596 Y1.2824 Z-0.1272 I0.0106 J0.0196
N8540 G3 X25.2384 Y1.2432 Z-0.1296 I-0.0106 J-0.0196
N8550 G3 X25.249 Y1.2405 Z-0.13 I0.0106 J0.0196
N8560 G1 X25.2491 F40.
N8570 G3 X25.2585 Y1.2499 I0. J0.0094
N8580 G3 X25.2491 Y1.2595 I-0.0094 J0.0001
N8590 G1 X22.749
N8600 G3 X22.7395 Y1.2501 I0. J-0.0094
N8610 G3 X22.749 Y1.2405 I0.0094 J-0.0001
N8620 G1 X25.249
N8630 G2 X25.2609 Y1.2302 I0. J-0.012
N8640 G3 X25.2763 Y1.2271 I0.0083 J0.0012
N8650 G3 X25.2781 Y1.2337 I-0.0109 J0.0066
N8660 G1 Y1.2663
N8670 G3 X25.2653 Y1.2791 I-0.0128 J0.
N8680 G1 X22.7325
N8690 G3 X22.7199 Y1.2665 I0. J-0.0126
N8700 G1 Y1.2337
N8710 G3 X22.7327 Y1.2209 I0.0128 J0.
N8720 G1 X25.2653
N8730 G3 X25.2763 Y1.2271 I0. J0.0128
N8740 G2 X25.2982 Y1.2462 I0.041 J-0.0248
N8750 G3 X25.3141 Y1.2705 I-0.0106 J0.0243
N8760 G1 Y1.3023
N8770 G3 X25.3014 Y1.3151 I-0.0128 J0.
N8780 G1 X22.6965
N8790 G3 X22.6839 Y1.3025 I0. J-0.0126
N8800 G1 Y1.1977
N8810 G3 X22.6967 Y1.1849 I0.0128 J0.
N8820 G1 X25.3014
N8830 G3 X25.3141 Y1.1977 I0. J0.0128
N8840 G1 Y1.2705
N8850 G2 X25.3321 Y1.2975 I0.0293 J0.
N8860 G3 X25.3501 Y1.3245 I-0.0113 J0.027
N8870 G1 Y1.3383
N8880 G3 X25.3374 Y1.3511 I-0.0128 J0.
N8890 G1 X22.6605
N8900 G3 X22.6479 Y1.3385 I0. J-0.0126
N8910 G1 Y1.1617
N8920 G3 X22.6607 Y1.1489 I0.0128 J0.
N8930 G1 X25.3374
N8940 G3 X25.3501 Y1.1617 I0. J0.0128
N8950 G1 Y1.3245
N8960 G2 X25.3691 Y1.3533 I0.0313 J0.
N8970 G3 X25.3622 Y1.3871 I-0.0069 J0.0162
N8980 G1 X22.6245
N8990 G3 X22.6119 Y1.3745 I0. J-0.0126
N9000 G1 Y1.1256
N9010 G3 X22.6247 Y1.1129 I0.0128 J0.
N9020 G1 X25.3734
N9030 G3 X25.3862 Y1.1256 I0. J0.0128
N9040 G1 Y1.3744
N9050 G3 X25.3734 Y1.3871 I-0.0128 J0.
N9060 G1 X25.3622
N9070 G2 X25.3352 Y1.4051 I0. J0.0293
N9080 G3 X25.3082 Y1.4231 I-0.027 J-0.0113
N9090 G1 X22.5885
N9100 G3 X22.5759 Y1.4105 I0. J-0.0126
N9110 G1 Y1.0896
N9120 G3 X22.5886 Y1.0769 I0.0128 J0.
N9130 G1 X25.4094
N9140 G3 X25.4222 Y1.0896 I0. J0.0128
N9150 G1 Y1.4104
N9160 G3 X25.4094 Y1.4231 I-0.0128 J0.
N9170 G1 X25.3082
N9180 G2 X25.2812 Y1.4411 I0. J0.0293
N9190 G3 X25.2542 Y1.4592 I-0.027 J-0.0113
N9200 G1 X22.5525
N9210 G3 X22.5399 Y1.4465 I0. J-0.0126
N9220 G1 Y1.0536
N9230 G3 X22.5526 Y1.0408 I0.0128 J0.
N9240 G1 X25.4454
N9250 G3 X25.4582 Y1.0536 I0. J0.0128
N9260 G1 Y1.4464
N9270 G3 X25.4454 Y1.4592 I-0.0128 J0.
N9280 G1 X25.2542
N9290 G2 X25.2272 Y1.4772 I0. J0.0293
N9300 G3 X25.2002 Y1.4952 I-0.027 J-0.0113
N9310 G1 X22.5165
N9320 G3 X22.5039 Y1.4826 I0. J-0.0126
N9330 G1 Y1.0176
N9340 G3 X22.5166 Y1.0048 I0.0128 J0.
N9350 G1 X25.4814
N9360 G3 X25.4942 Y1.0176 I0. J0.0128
N9370 G1 Y1.4824
N9380 G3 X25.4814 Y1.4952 I-0.0128 J0.
N9390 G1 X25.2002
N9400 G2 X25.1732 Y1.5132 I0. J0.0293
N9410 G3 X25.1462 Y1.5312 I-0.027 J-0.0113
N9420 G1 X22.4805
N9430 G3 X22.4678 Y1.5186 I0. J-0.0126
N9440 G1 Y0.9816
N9450 G3 X22.4806 Y0.9688 I0.0128 J0.
N9460 G1 X25.5174
N9470 G3 X25.5302 Y0.9816 I0. J0.0128
N9480 G1 Y1.5184
N9490 G3 X25.5174 Y1.5312 I-0.0128 J0.
N9500 G1 X25.1462
N9510 G2 X25.1192 Y1.5492 I0. J0.0293
N9520 G3 X25.0922 Y1.5672 I-0.027 J-0.0113
N9530 G1 X22.4444
N9540 G3 X22.4318 Y1.5546 I0. J-0.0126
N9550 G1 Y0.9456
N9560 G3 X22.4446 Y0.9328 I0.0128 J0.
N9570 G1 X25.5534
N9580 G3 X25.5662 Y0.9456 I0. J0.0128
N9590 G1 Y1.5544
N9600 G3 X25.5534 Y1.5672 I-0.0128 J0.
N9610 G1 X25.0922
N9620 G2 X25.0651 Y1.5852 I0. J0.0293
N9630 G3 X25.0381 Y1.6032 I-0.027 J-0.0113
N9640 G1 X22.4084
N9650 G3 X22.3958 Y1.5906 I0. J-0.0126
N9660 G1 Y0.9096
N9670 G3 X22.4086 Y0.8968 I0.0128 J0.
N9680 G1 X25.5894
N9690 G3 X25.6022 Y0.9096 I0. J0.0128
N9700 G1 Y1.5904
N9710 G3 X25.5894 Y1.6032 I-0.0128 J0.
N9720 G1 X25.0381
N9730 G2 X25.0111 Y1.6212 I0. J0.0293
N9740 G3 X24.9841 Y1.6392 I-0.027 J-0.0113
N9750 G1 X22.3724
N9760 G3 X22.3598 Y1.6266 I0. J-0.0126
N9770 G1 Y0.8736
N9780 G3 X22.3726 Y0.8608 I0.0128 J0.
N9790 G1 X25.6254
N9800 G3 X25.6382 Y0.8736 I0. J0.0128
N9810 G1 Y1.6264
N9820 G3 X25.6254 Y1.6392 I-0.0128 J0.
N9830 G1 X24.9841
N9840 G2 X24.9571 Y1.6572 I0. J0.0293
N9850 G3 X24.9301 Y1.6752 I-0.027 J-0.0113
N9860 G1 X22.3364
N9870 G3 X22.3238 Y1.6626 I0. J-0.0126
N9880 G1 Y0.8376
N9890 G3 X22.3366 Y0.8248 I0.0128 J0.
N9900 G1 X25.6615
N9910 G3 X25.6742 Y0.8376 I0. J0.0128
N9920 G1 Y1.6624
N9930 G3 X25.6615 Y1.6752 I-0.0128 J0.
N9940 G1 X24.9301
N9950 G2 X24.9031 Y1.6932 I0. J0.0293
N9960 G3 X24.8761 Y1.7112 I-0.027 J-0.0113
N9970 G1 X22.3004
N9980 G3 X22.2878 Y1.6986 I0. J-0.0126
N9990 G1 Y0.8015
N10000 G3 X22.3006 Y0.7888 I0.0128 J0.
N10010 G1 X25.6975
N10020 G3 X25.7102 Y0.8015 I0. J0.0128
N10030 G1 Y1.6985
N10040 G3 X25.6975 Y1.7112 I-0.0128 J0.
N10050 G1 X24.8761
N10060 G2 X24.8491 Y1.7292 I0. J0.0293
N10070 G3 X24.8221 Y1.7472 I-0.027 J-0.0113
N10080 G1 X22.2644
N10090 G3 X22.2518 Y1.7346 I0. J-0.0126
N10100 G1 Y0.7655
N10110 G3 X22.2646 Y0.7528 I0.0128 J0.
N10120 G1 X25.7335
N10130 G3 X25.7463 Y0.7655 I0. J0.0128
N10140 G1 Y1.7345
N10150 G3 X25.7335 Y1.7472 I-0.0128 J0.
N10160 G1 X24.8221
N10170 G2 X24.7933 Y1.7664 I0. J0.0312
N10180 G3 X24.7645 Y1.7856 I-0.0288 J-0.012
N10190 G1 X22.249
N10200 G3 X22.2134 Y1.75 I0. J-0.0356
N10210 G1 Y0.75
N10220 G3 X22.249 Y0.7144 I0.0356 J0.
N10230 G1 X25.749
N10240 G3 X25.7846 Y0.75 I0. J0.0356
N10250 G1 Y1.75
N10260 G3 X25.749 Y1.7856 I-0.0356 J0.
N10270 G1 X24.7645
N10280 G2 X24.7326 Y1.8069 I0. J0.0346
N10290 G3 X24.7007 Y1.8281 I-0.0319 J-0.0133
N10300 G1 X22.249
N10310 G3 X22.1709 Y1.75 I0. J-0.0781
N10320 G1 Y0.75
N10330 G3 X22.249 Y0.6719 I0.0781 J0.
N10340 G1 X25.749
N10350 G3 X25.8271 Y0.75 I0. J0.0781
N10360 G1 Y1.75
N10370 G3 X25.749 Y1.8281 I-0.0781 J0.
N10380 G1 X24.7007
N10390 G3 X24.6963 Y1.827 Z-0.1287 I0. J-0.0094
N10400 G3 X24.6936 Y1.8248 Z-0.1253 I0.0045 J-0.0082
N10410 G3 X24.6929 Y1.8238 Z-0.1206 I0.0071 J-0.0061
N10420 G0 Z0.6

(2D Pocket2)
N10440 S10000 M3 M8
N10450 G0 X13.5248 Y1.0778
N10460 G0 Z0.6
N10470 G0 Z-0.925
N10480 G1 Z-1.0156 F40.
N10490 G3 X13.524 Y1.0769 Z-1.0202 I0.0162 J-0.0153 F13.3
N10500 G3 X13.5221 Y1.0742 Z-1.0236 I0.017 J-0.0144
N10510 G3 X13.5201 Y1.0701 Z-1.025 I0.0189 J-0.0117
N10520 G3 X13.5188 Y1.0625 Z-1.0253 I0.0209 J-0.0076
N10530 G3 X13.5633 Z-1.0277 I0.0223 J0.
N10540 G3 X13.5188 Z-1.0302 I-0.0223 J0.
N10550 G3 X13.5633 Z-1.0326 I0.0223 J0.
N10560 G3 X13.5188 Z-1.035 I-0.0223 J0.
N10570 G3 X13.5633 Z-1.0375 I0.0223 J0.
N10580 G3 X13.5188 Z-1.0399 I-0.0223 J0.
N10590 G3 X13.5633 Z-1.0424 I0.0223 J0.
N10600 G3 X13.5188 Z-1.0448 I-0.0223 J0.
N10610 G3 X13.5633 Z-1.0473 I0.0223 J0.
N10620 G3 X13.5188 Z-1.0497 I-0.0223 J0.
N10630 G3 X13.5633 Z-1.0521 I0.0223 J0.
N10640 G3 X13.5188 Z-1.0546 I-0.0223 J0.
N10650 G3 X13.5633 Z-1.057 I0.0223 J0.
N10660 G3 X13.5188 Z-1.0595 I-0.0223 J0.
N10670 G3 X13.5633 Z-1.0619 I0.0223 J0.
N10680 G3 X13.5188 Z-1.0644 I-0.0223 J0.
N10690 G3 X13.5633 Z-1.0668 I0.0223 J0.
N10700 G3 X13.5188 Z-1.0692 I-0.0223 J0.
N10710 G3 X13.5633 Z-1.0717 I0.0223 J0.
N10720 G3 X13.5188 Z-1.0741 I-0.0223 J0.
N10730 G3 X13.5633 Z-1.0766 I0.0223 J0.
N10740 G3 X13.5188 Z-1.079 I-0.0223 J0.
N10750 G3 X13.5633 Z-1.0815 I0.0223 J0.
N10760 G3 X13.5188 Z-1.0839 I-0.0223 J0.
N10770 G3 X13.5633 Z-1.0863 I0.0223 J0.
N10780 G3 X13.5188 Z-1.0888 I-0.0223 J0.
N10790 G3 X13.5633 Z-1.0912 I0.0223 J0.
N10800 G3 X13.5188 Z-1.0937 I-0.0223 J0.
N10810 G3 X13.5633 Z-1.0961 I0.0223 J0.
N10820 G3 X13.5188 Z-1.0986 I-0.0223 J0.
N10830 G3 X13.5633 Z-1.101 I0.0223 J0.
N10840 G3 X13.5188 Z-1.1034 I-0.0223 J0.
N10850 G3 X13.5633 Z-1.1059 I0.0223 J0.
N10860 G3 X13.5188 Z-1.1083 I-0.0223 J0.
N10870 G3 X13.5633 Z-1.1108 I0.0223 J0.
N10880 G3 X13.5188 Z-1.1132 I-0.0223 J0.
N10890 G3 X13.5633 Z-1.1157 I0.0223 J0.
N10900 G3 X13.5188 Z-1.1181 I-0.0223 J0.
N10910 G3 X13.5633 Z-1.1205 I0.0223 J0.
N10920 G3 X13.5188 Z-1.123 I-0.0223 J0.
N10930 G3 X13.5633 Z-1.1254 I0.0223 J0.
N10940 G3 X13.5188 Z-1.1279 I-0.0223 J0.
N10950 G3 X13.5633 Z-1.1303 I0.0223 J0.
N10960 G3 X13.5188 Z-1.1328 I-0.0223 J0.
N10970 G3 X13.5633 Z-1.1352 I0.0223 J0.
N10980 G3 X13.5188 Z-1.1376 I-0.0223 J0.
N10990 G3 X13.5633 Z-1.1401 I0.0223 J0.
N11000 G3 X13.5188 Z-1.1425 I-0.0223 J0.
N11010 G3 X13.5633 Z-1.145 I0.0223 J0.
N11020 G3 X13.5188 Z-1.1474 I-0.0223 J0.
N11030 G3 X13.5633 Z-1.1498 I0.0223 J0.
N11040 G3 X13.5188 Z-1.1523 I-0.0223 J0.
N11050 G3 X13.5633 Z-1.1547 I0.0223 J0.
N11060 G3 X13.5188 Z-1.1572 I-0.0223 J0.
N11070 G3 X13.5633 Z-1.1596 I0.0223 J0.
N11080 G3 X13.5188 Z-1.1621 I-0.0223 J0.
N11090 G3 X13.5633 Z-1.1645 I0.0223 J0.
N11100 G3 X13.5188 Z-1.1669 I-0.0223 J0.
N11110 G3 X13.5633 Z-1.1694 I0.0223 J0.
N11120 G3 X13.5188 Z-1.1718 I-0.0223 J0.
N11130 G3 X13.5633 Z-1.1743 I0.0223 J0.
N11140 G3 X13.5188 Z-1.1767 I-0.0223 J0.
N11150 G3 X13.5633 Z-1.1792 I0.0223 J0.
N11160 G3 X13.5188 Z-1.1816 I-0.0223 J0.
N11170 G3 X13.5633 Z-1.184 I0.0223 J0.
N11180 G3 X13.5188 Z-1.1865 I-0.0223 J0.
N11190 G3 X13.5633 Z-1.1889 I0.0223 J0.
N11200 G3 X13.5188 Z-1.1914 I-0.0223 J0.
N11210 G3 X13.5633 Z-1.1938 I0.0223 J0.
N11220 G3 X13.5188 Z-1.1963 I-0.0223 J0.
N11230 G3 X13.5633 Z-1.1987 I0.0223 J0.
N11240 G3 X13.5188 Z-1.2011 I-0.0223 J0.
N11250 G3 X13.5633 Z-1.2036 I0.0223 J0.
N11260 G3 X13.5188 Z-1.206 I-0.0223 J0.
N11270 G3 X13.5633 Z-1.2085 I0.0223 J0.
N11280 G3 X13.5188 Z-1.2109 I-0.0223 J0.
N11290 G3 X13.5633 Z-1.2134 I0.0223 J0.
N11300 G3 X13.5188 Z-1.2158 I-0.0223 J0.
N11310 G3 X13.5633 Z-1.2182 I0.0223 J0.
N11320 G3 X13.5188 Z-1.2207 I-0.0223 J0.
N11330 G3 X13.5633 Z-1.2231 I0.0223 J0.
N11340 G3 X13.5188 Z-1.2256 I-0.0223 J0.
N11350 G3 X13.5633 Z-1.228 I0.0223 J0.
N11360 G3 X13.5188 Z-1.2305 I-0.0223 J0.
N11370 G3 X13.5633 Z-1.2329 I0.0223 J0.
N11380 G3 X13.5188 Z-1.2353 I-0.0223 J0.
N11390 G3 X13.5633 Z-1.2378 I0.0223 J0.
N11400 G3 X13.5188 Z-1.2402 I-0.0223 J0.
N11410 G3 X13.5633 Z-1.2427 I0.0223 J0.
N11420 G3 X13.5188 Z-1.2451 I-0.0223 J0.
N11430 G3 X13.5633 Z-1.2476 I0.0223 J0.
N11440 G3 X13.5188 Z-1.25 I-0.0223 J0.
N11450 G3 X13.5258 I0.0035 J0. F40.
N11460 G3 X13.4742 I-0.0258 J0.
N11470 G3 X13.5703 I0.048 J0.
N11480 G3 X13.4297 I-0.0703 J0.
N11490 G3 X13.6148 I0.0926 J0.
N11500 G3 X13.3852 I-0.1148 J0.
N11510 G3 X13.6594 I0.1371 J0.
N11520 G3 X13.3406 I-0.1594 J0.
N11530 G3 X13.7039 I0.1816 J0.
N11540 G3 X13.2961 I-0.2039 J0.
N11550 G3 X13.7484 I0.2262 J0.
N11560 G3 X13.2516 I-0.2484 J0.
N11570 G3 X13.793 I0.2707 J0.
N11580 G3 X13.207 I-0.293 J0.
N11590 G3 X13.8375 I0.3152 J0.
N11600 G3 X13.1625 I-0.3375 J0.
N11610 G3 X13.882 I0.3598 J0.
N11620 G3 X13.118 I-0.382 J0.
N11630 G3 X13.9266 I0.4043 J0.
N11640 G3 X13.0734 I-0.4266 J0.
N11650 G3 X13.9711 I0.4488 J0.
N11660 G3 X13.0289 I-0.4711 J0.
N11670 G3 X14.0156 I0.4934 J0.
N11680 G3 X12.9844 I-0.5156 J0.
N11690 G3 X13.1906 Y0.65 I0.5156 J0.
N11700 G3 X14.0156 Y1.0625 I0.3094 J0.4125
N11710 G3 X14.0145 Y1.067 Z-1.2487 I-0.0094 J0.
N11720 G3 X14.0123 Y1.0696 Z-1.2453 I-0.0082 J-0.0045
N11730 G3 X14.0113 Y1.0704 Z-1.2406 I-0.0061 J-0.0071
N11740 G0 Z0.2
N11750 G0 X14.4975 Y0.2047
N11760 G0 Z-0.925
N11770 G1 Z-1.0156 F40.
N11780 G3 X14.4983 Y0.2056 Z-1.0202 I-0.0162 J0.0153 F13.3
N11790 G3 X14.5003 Y0.2083 Z-1.0236 I-0.017 J0.0144
N11800 G3 X14.5022 Y0.2124 Z-1.025 I-0.0189 J0.0117
N11810 G3 X14.5036 Y0.22 Z-1.0253 I-0.0209 J0.0076
N11820 G3 X14.4591 Z-1.0277 I-0.0223 J0.
N11830 G3 X14.5036 Z-1.0302 I0.0223 J0.
N11840 G3 X14.4591 Z-1.0326 I-0.0223 J0.
N11850 G3 X14.5036 Z-1.035 I0.0223 J0.
N11860 G3 X14.4591 Z-1.0375 I-0.0223 J0.
N11870 G3 X14.5036 Z-1.0399 I0.0223 J0.
N11880 G3 X14.4591 Z-1.0424 I-0.0223 J0.
N11890 G3 X14.5036 Z-1.0448 I0.0223 J0.
N11900 G3 X14.4591 Z-1.0473 I-0.0223 J0.
N11910 G3 X14.5036 Z-1.0497 I0.0223 J0.
N11920 G3 X14.4591 Z-1.0521 I-0.0223 J0.
N11930 G3 X14.5036 Z-1.0546 I0.0223 J0.
N11940 G3 X14.4591 Z-1.057 I-0.0223 J0.
N11950 G3 X14.5036 Z-1.0595 I0.0223 J0.
N11960 G3 X14.4591 Z-1.0619 I-0.0223 J0.
N11970 G3 X14.5036 Z-1.0644 I0.0223 J0.
N11980 G3 X14.4591 Z-1.0668 I-0.0223 J0.
N11990 G3 X14.5036 Z-1.0692 I0.0223 J0.
N12000 G3 X14.4591 Z-1.0717 I-0.0223 J0.
N12010 G3 X14.5036 Z-1.0741 I0.0223 J0.
N12020 G3 X14.4591 Z-1.0766 I-0.0223 J0.
N12030 G3 X14.5036 Z-1.079 I0.0223 J0.
N12040 G3 X14.4591 Z-1.0815 I-0.0223 J0.
N12050 G3 X14.5036 Z-1.0839 I0.0223 J0.
N12060 G3 X14.4591 Z-1.0863 I-0.0223 J0.
N12070 G3 X14.5036 Z-1.0888 I0.0223 J0.
N12080 G3 X14.4591 Z-1.0912 I-0.0223 J0.
N12090 G3 X14.5036 Z-1.0937 I0.0223 J0.
N12100 G3 X14.4591 Z-1.0961 I-0.0223 J0.
N12110 G3 X14.5036 Z-1.0986 I0.0223 J0.
N12120 G3 X14.4591 Z-1.101 I-0.0223 J0.
N12130 G3 X14.5036 Z-1.1034 I0.0223 J0.
N12140 G3 X14.4591 Z-1.1059 I-0.0223 J0.
N12150 G3 X14.5036 Z-1.1083 I0.0223 J0.
N12160 G3 X14.4591 Z-1.1108 I-0.0223 J0.
N12170 G3 X14.5036 Z-1.1132 I0.0223 J0.
N12180 G3 X14.4591 Z-1.1157 I-0.0223 J0.
N12190 G3 X14.5036 Z-1.1181 I0.0223 J0.
N12200 G3 X14.4591 Z-1.1205 I-0.0223 J0.
N12210 G3 X14.5036 Z-1.123 I0.0223 J0.
N12220 G3 X14.4591 Z-1.1254 I-0.0223 J0.
N12230 G3 X14.5036 Z-1.1279 I0.0223 J0.
N12240 G3 X14.4591 Z-1.1303 I-0.0223 J0.
N12250 G3 X14.5036 Z-1.1328 I0.0223 J0.
N12260 G3 X14.4591 Z-1.1352 I-0.0223 J0.
N12270 G3 X14.5036 Z-1.1376 I0.0223 J0.
N12280 G3 X14.4591 Z-1.1401 I-0.0223 J0.
N12290 G3 X14.5036 Z-1.1425 I0.0223 J0.
N12300 G3 X14.4591 Z-1.145 I-0.0223 J0.
N12310 G3 X14.5036 Z-1.1474 I0.0223 J0.
N12320 G3 X14.4591 Z-1.1498 I-0.0223 J0.
N12330 G3 X14.5036 Z-1.1523 I0.0223 J0.
N12340 G3 X14.4591 Z-1.1547 I-0.0223 J0.
N12350 G3 X14.5036 Z-1.1572 I0.0223 J0.
N12360 G3 X14.4591 Z-1.1596 I-0.0223 J0.
N12370 G3 X14.5036 Z-1.1621 I0.0223 J0.
N12380 G3 X14.4591 Z-1.1645 I-0.0223 J0.
N12390 G3 X14.5036 Z-1.1669 I0.0223 J0.
N12400 G3 X14.4591 Z-1.1694 I-0.0223 J0.
N12410 G3 X14.5036 Z-1.1718 I0.0223 J0.
N12420 G3 X14.4591 Z-1.1743 I-0.0223 J0.
N12430 G3 X14.5036 Z-1.1767 I0.0223 J0.
N12440 G3 X14.4591 Z-1.1792 I-0.0223 J0.
N12450 G3 X14.5036 Z-1.1816 I0.0223 J0.
N12460 G3 X14.4591 Z-1.184 I-0.0223 J0.
N12470 G3 X14.5036 Z-1.1865 I0.0223 J0.
N12480 G3 X14.4591 Z-1.1889 I-0.0223 J0.
N12490 G3 X14.5036 Z-1.1914 I0.0223 J0.
N12500 G3 X14.4591 Z-1.1938 I-0.0223 J0.
N12510 G3 X14.5036 Z-1.1963 I0.0223 J0.
N12520 G3 X14.4591 Z-1.1987 I-0.0223 J0.
N12530 G3 X14.5036 Z-1.2011 I0.0223 J0.
N12540 G3 X14.4591 Z-1.2036 I-0.0223 J0.
N12550 G3 X14.5036 Z-1.206 I0.0223 J0.
N12560 G3 X14.4591 Z-1.2085 I-0.0223 J0.
N12570 G3 X14.5036 Z-1.2109 I0.0223 J0.
N12580 G3 X14.4591 Z-1.2134 I-0.0223 J0.
N12590 G3 X14.5036 Z-1.2158 I0.0223 J0.
N12600 G3 X14.4591 Z-1.2182 I-0.0223 J0.
N12610 G3 X14.5036 Z-1.2207 I0.0223 J0.
N12620 G3 X14.4591 Z-1.2231 I-0.0223 J0.
N12630 G3 X14.5036 Z-1.2256 I0.0223 J0.
N12640 G3 X14.4591 Z-1.228 I-0.0223 J0.
N12650 G3 X14.5036 Z-1.2305 I0.0223 J0.
N12660 G3 X14.4591 Z-1.2329 I-0.0223 J0.
N12670 G3 X14.5036 Z-1.2353 I0.0223 J0.
N12680 G3 X14.4591 Z-1.2378 I-0.0223 J0.
N12690 G3 X14.5036 Z-1.2402 I0.0223 J0.
N12700 G3 X14.4591 Z-1.2427 I-0.0223 J0.
N12710 G3 X14.5036 Z-1.2451 I0.0223 J0.
N12720 G3 X14.4591 Z-1.2476 I-0.0223 J0.
N12730 G3 X14.5036 Z-1.25 I0.0223 J0.
N12740 G3 X14.4964 I-0.0036 J0. F40.
N12750 G3 X14.5481 I0.0259 J0.
N12760 G3 X14.4711 Y0.2585 I-0.0481 J0.
N12770 G3 Y0.1815 I0.0289 J-0.0385
N12780 G3 X14.5481 Y0.22 I0.0289 J0.0385
N12790 G3 X14.547 Y0.2245 Z-1.2487 I-0.0094 J0.
N12800 G3 X14.5448 Y0.2271 Z-1.2453 I-0.0082 J-0.0045
N12810 G3 X14.5438 Y0.2279 Z-1.2406 I-0.0061 J-0.0071
N12820 G0 Z0.2
N12830 G0 X17.1135 Y2.0653
N12840 G0 Z-0.925
N12850 G1 Z-1.0156 F40.
N12860 G3 X17.1127 Y2.0644 Z-1.0202 I0.0162 J-0.0153 F13.3
N12870 G3 X17.1108 Y2.0617 Z-1.0236 I0.017 J-0.0144
N12880 G3 X17.1088 Y2.0576 Z-1.025 I0.0189 J-0.0117
N12890 G3 X17.1074 Y2.05 Z-1.0253 I0.0209 J-0.0076
N12900 G3 X17.152 Z-1.0277 I0.0223 J0.
N12910 G3 X17.1074 Z-1.0302 I-0.0223 J0.
N12920 G3 X17.152 Z-1.0326 I0.0223 J0.
N12930 G3 X17.1074 Z-1.035 I-0.0223 J0.
N12940 G3 X17.152 Z-1.0375 I0.0223 J0.
N12950 G3 X17.1074 Z-1.0399 I-0.0223 J0.
N12960 G3 X17.152 Z-1.0424 I0.0223 J0.
N12970 G3 X17.1074 Z-1.0448 I-0.0223 J0.
N12980 G3 X17.152 Z-1.0473 I0.0223 J0.
N12990 G3 X17.1074 Z-1.0497 I-0.0223 J0.
N13000 G3 X17.152 Z-1.0521 I0.0223 J0.
N13010 G3 X17.1074 Z-1.0546 I-0.0223 J0.
N13020 G3 X17.152 Z-1.057 I0.0223 J0.
N13030 G3 X17.1074 Z-1.0595 I-0.0223 J0.
N13040 G3 X17.152 Z-1.0619 I0.0223 J0.
N13050 G3 X17.1074 Z-1.0644 I-0.0223 J0.
N13060 G3 X17.152 Z-1.0668 I0.0223 J0.
N13070 G3 X17.1074 Z-1.0692 I-0.0223 J0.
N13080 G3 X17.152 Z-1.0717 I0.0223 J0.
N13090 G3 X17.1074 Z-1.0741 I-0.0223 J0.
N13100 G3 X17.152 Z-1.0766 I0.0223 J0.
N13110 G3 X17.1074 Z-1.079 I-0.0223 J0.
N13120 G3 X17.152 Z-1.0815 I0.0223 J0.
N13130 G3 X17.1074 Z-1.0839 I-0.0223 J0.
N13140 G3 X17.152 Z-1.0863 I0.0223 J0.
N13150 G3 X17.1074 Z-1.0888 I-0.0223 J0.
N13160 G3 X17.152 Z-1.0912 I0.0223 J0.
N13170 G3 X17.1074 Z-1.0937 I-0.0223 J0.
N13180 G3 X17.152 Z-1.0961 I0.0223 J0.
N13190 G3 X17.1074 Z-1.0986 I-0.0223 J0.
N13200 G3 X17.152 Z-1.101 I0.0223 J0.
N13210 G3 X17.1074 Z-1.1034 I-0.0223 J0.
N13220 G3 X17.152 Z-1.1059 I0.0223 J0.
N13230 G3 X17.1074 Z-1.1083 I-0.0223 J0.
N13240 G3 X17.152 Z-1.1108 I0.0223 J0.
N13250 G3 X17.1074 Z-1.1132 I-0.0223 J0.
N13260 G3 X17.152 Z-1.1157 I0.0223 J0.
N13270 G3 X17.1074 Z-1.1181 I-0.0223 J0.
N13280 G3 X17.152 Z-1.1205 I0.0223 J0.
N13290 G3 X17.1074 Z-1.123 I-0.0223 J0.
N13300 G3 X17.152 Z-1.1254 I0.0223 J0.
N13310 G3 X17.1074 Z-1.1279 I-0.0223 J0.
N13320 G3 X17.152 Z-1.1303 I0.0223 J0.
N13330 G3 X17.1074 Z-1.1328 I-0.0223 J0.
N13340 G3 X17.152 Z-1.1352 I0.0223 J0.
N13350 G3 X17.1074 Z-1.1376 I-0.0223 J0.
N13360 G3 X17.152 Z-1.1401 I0.0223 J0.
N13370 G3 X17.1074 Z-1.1425 I-0.0223 J0.
N13380 G3 X17.152 Z-1.145 I0.0223 J0.
N13390 G3 X17.1074 Z-1.1474 I-0.0223 J0.
N13400 G3 X17.152 Z-1.1498 I0.0223 J0.
N13410 G3 X17.1074 Z-1.1523 I-0.0223 J0.
N13420 G3 X17.152 Z-1.1547 I0.0223 J0.
N13430 G3 X17.1074 Z-1.1572 I-0.0223 J0.
N13440 G3 X17.152 Z-1.1596 I0.0223 J0.
N13450 G3 X17.1074 Z-1.1621 I-0.0223 J0.
N13460 G3 X17.152 Z-1.1645 I0.0223 J0.
N13470 G3 X17.1074 Z-1.1669 I-0.0223 J0.
N13480 G3 X17.152 Z-1.1694 I0.0223 J0.
N13490 G3 X17.1074 Z-1.1718 I-0.0223 J0.
N13500 G3 X17.152 Z-1.1743 I0.0223 J0.
N13510 G3 X17.1074 Z-1.1767 I-0.0223 J0.
N13520 G3 X17.152 Z-1.1792 I0.0223 J0.
N13530 G3 X17.1074 Z-1.1816 I-0.0223 J0.
N13540 G3 X17.152 Z-1.184 I0.0223 J0.
N13550 G3 X17.1074 Z-1.1865 I-0.0223 J0.
N13560 G3 X17.152 Z-1.1889 I0.0223 J0.
N13570 G3 X17.1074 Z-1.1914 I-0.0223 J0.
N13580 G3 X17.152 Z-1.1938 I0.0223 J0.
N13590 G3 X17.1074 Z-1.1963 I-0.0223 J0.
N13600 G3 X17.152 Z-1.1987 I0.0223 J0.
N13610 G3 X17.1074 Z-1.2011 I-0.0223 J0.
N13620 G3 X17.152 Z-1.2036 I0.0223 J0.
N13630 G3 X17.1074 Z-1.206 I-0.0223 J0.
N13640 G3 X17.152 Z-1.2085 I0.0223 J0.
N13650 G3 X17.1074 Z-1.2109 I-0.0223 J0.
N13660 G3 X17.152 Z-1.2134 I0.0223 J0.
N13670 G3 X17.1074 Z-1.2158 I-0.0223 J0.
N13680 G3 X17.152 Z-1.2182 I0.0223 J0.
N13690 G3 X17.1074 Z-1.2207 I-0.0223 J0.
N13700 G3 X17.152 Z-1.2231 I0.0223 J0.
N13710 G3 X17.1074 Z-1.2256 I-0.0223 J0.
N13720 G3 X17.152 Z-1.228 I0.0223 J0.
N13730 G3 X17.1074 Z-1.2305 I-0.0223 J0.
N13740 G3 X17.152 Z-1.2329 I0.0223 J0.
N13750 G3 X17.1074 Z-1.2353 I-0.0223 J0.
N13760 G3 X17.152 Z-1.2378 I0.0223 J0.
N13770 G3 X17.1074 Z-1.2402 I-0.0223 J0.
N13780 G3 X17.152 Z-1.2427 I0.0223 J0.
N13790 G3 X17.1074 Z-1.2451 I-0.0223 J0.
N13800 G3 X17.152 Z-1.2476 I0.0223 J0.
N13810 G3 X17.1074 Z-1.25 I-0.0223 J0.
N13820 G3 X17.1371 I0.0148 J0. F40.
N13830 G3 X17.0629 I-0.0371 J0.
N13840 G3 X17.1816 I0.0594 J0.
N13850 G3 X17.0184 I-0.0816 J0.
N13860 G3 X17.1816 I0.0816 J0.
N13870 G3 X17.1805 Y2.0545 Z-1.2487 I-0.0094 J0.
N13880 G3 X17.1783 Y2.0571 Z-1.2453 I-0.0082 J-0.0045
N13890 G3 X17.1773 Y2.0579 Z-1.2406 I-0.0061 J-0.0071
N13900 G0 Z0.2
N13910 G0 X11.9135 Y2.0653
N13920 G0 Z-0.925
N13930 G1 Z-1.0156 F40.
N13940 G3 X11.9127 Y2.0644 Z-1.0202 I0.0162 J-0.0153 F13.3
N13950 G3 X11.9108 Y2.0617 Z-1.0236 I0.017 J-0.0144
N13960 G3 X11.9088 Y2.0576 Z-1.025 I0.0189 J-0.0117
N13970 G3 X11.9074 Y2.05 Z-1.0253 I0.0209 J-0.0076
N13980 G3 X11.952 Z-1.0277 I0.0223 J0.
N13990 G3 X11.9074 Z-1.0302 I-0.0223 J0.
N14000 G3 X11.952 Z-1.0326 I0.0223 J0.
N14010 G3 X11.9074 Z-1.035 I-0.0223 J0.
N14020 G3 X11.952 Z-1.0375 I0.0223 J0.
N14030 G3 X11.9074 Z-1.0399 I-0.0223 J0.
N14040 G3 X11.952 Z-1.0424 I0.0223 J0.
N14050 G3 X11.9074 Z-1.0448 I-0.0223 J0.
N14060 G3 X11.952 Z-1.0473 I0.0223 J0.
N14070 G3 X11.9074 Z-1.0497 I-0.0223 J0.
N14080 G3 X11.952 Z-1.0521 I0.0223 J0.
N14090 G3 X11.9074 Z-1.0546 I-0.0223 J0.
N14100 G3 X11.952 Z-1.057 I0.0223 J0.
N14110 G3 X11.9074 Z-1.0595 I-0.0223 J0.
N14120 G3 X11.952 Z-1.0619 I0.0223 J0.
N14130 G3 X11.9074 Z-1.0644 I-0.0223 J0.
N14140 G3 X11.952 Z-1.0668 I0.0223 J0.
N14150 G3 X11.9074 Z-1.0692 I-0.0223 J0.
N14160 G3 X11.952 Z-1.0717 I0.0223 J0.
N14170 G3 X11.9074 Z-1.0741 I-0.0223 J0.
N14180 G3 X11.952 Z-1.0766 I0.0223 J0.
N14190 G3 X11.9074 Z-1.079 I-0.0223 J0.
N14200 G3 X11.952 Z-1.0815 I0.0223 J0.
N14210 G3 X11.9074 Z-1.0839 I-0.0223 J0.
N14220 G3 X11.952 Z-1.0863 I0.0223 J0.
N14230 G3 X11.9074 Z-1.0888 I-0.0223 J0.
N14240 G3 X11.952 Z-1.0912 I0.0223 J0.
N14250 G3 X11.9074 Z-1.0937 I-0.0223 J0.
N14260 G3 X11.952 Z-1.0961 I0.0223 J0.
N14270 G3 X11.9074 Z-1.0986 I-0.0223 J0.
N14280 G3 X11.952 Z-1.101 I0.0223 J0.
N14290 G3 X11.9074 Z-1.1034 I-0.0223 J0.
N14300 G3 X11.952 Z-1.1059 I0.0223 J0.
N14310 G3 X11.9074 Z-1.1083 I-0.0223 J0.
N14320 G3 X11.952 Z-1.1108 I0.0223 J0.
N14330 G3 X11.9074 Z-1.1132 I-0.0223 J0.
N14340 G3 X11.952 Z-1.1157 I0.0223 J0.
N14350 G3 X11.9074 Z-1.1181 I-0.0223 J0.
N14360 G3 X11.952 Z-1.1205 I0.0223 J0.
N14370 G3 X11.9074 Z-1.123 I-0.0223 J0.
N14380 G3 X11.952 Z-1.1254 I0.0223 J0.
N14390 G3 X11.9074 Z-1.1279 I-0.0223 J0.
N14400 G3 X11.952 Z-1.1303 I0.0223 J0.
N14410 G3 X11.9074 Z-1.1328 I-0.0223 J0.
N14420 G3 X11.952 Z-1.1352 I0.0223 J0.
N14430 G3 X11.9074 Z-1.1376 I-0.0223 J0.
N14440 G3 X11.952 Z-1.1401 I0.0223 J0.
N14450 G3 X11.9074 Z-1.1425 I-0.0223 J0.
N14460 G3 X11.952 Z-1.145 I0.0223 J0.
N14470 G3 X11.9074 Z-1.1474 I-0.0223 J0.
N14480 G3 X11.952 Z-1.1498 I0.0223 J0.
N14490 G3 X11.9074 Z-1.1523 I-0.0223 J0.
N14500 G3 X11.952 Z-1.1547 I0.0223 J0.
N14510 G3 X11.9074 Z-1.1572 I-0.0223 J0.
N14520 G3 X11.952 Z-1.1596 I0.0223 J0.
N14530 G3 X11.9074 Z-1.1621 I-0.0223 J0.
N14540 G3 X11.952 Z-1.1645 I0.0223 J0.
N14550 G3 X11.9074 Z-1.1669 I-0.0223 J0.
N14560 G3 X11.952 Z-1.1694 I0.0223 J0.
N14570 G3 X11.9074 Z-1.1718 I-0.0223 J0.
N14580 G3 X11.952 Z-1.1743 I0.0223 J0.
N14590 G3 X11.9074 Z-1.1767 I-0.0223 J0.
N14600 G3 X11.952 Z-1.1792 I0.0223 J0.
N14610 G3 X11.9074 Z-1.1816 I-0.0223 J0.
N14620 G3 X11.952 Z-1.184 I0.0223 J0.
N14630 G3 X11.9074 Z-1.1865 I-0.0223 J0.
N14640 G3 X11.952 Z-1.1889 I0.0223 J0.
N14650 G3 X11.9074 Z-1.1914 I-0.0223 J0.
N14660 G3 X11.952 Z-1.1938 I0.0223 J0.
N14670 G3 X11.9074 Z-1.1963 I-0.0223 J0.
N14680 G3 X11.952 Z-1.1987 I0.0223 J0.
N14690 G3 X11.9074 Z-1.2011 I-0.0223 J0.
N14700 G3 X11.952 Z-1.2036 I0.0223 J0.
N14710 G3 X11.9074 Z-1.206 I-0.0223 J0.
N14720 G3 X11.952 Z-1.2085 I0.0223 J0.
N14730 G3 X11.9074 Z-1.2109 I-0.0223 J0.
N14740 G3 X11.952 Z-1.2134 I0.0223 J0.
N14750 G3 X11.9074 Z-1.2158 I-0.0223 J0.
N14760 G3 X11.952 Z-1.2182 I0.0223 J0.
N14770 G3 X11.9074 Z-1.2207 I-0.0223 J0.
N14780 G3 X11.952 Z-1.2231 I0.0223 J0.
N14790 G3 X11.9074 Z-1.2256 I-0.0223 J0.
N14800 G3 X11.952 Z-1.228 I0.0223 J0.
N14810 G3 X11.9074 Z-1.2305 I-0.0223 J0.
N14820 G3 X11.952 Z-1.2329 I0.0223 J0.
N14830 G3 X11.9074 Z-1.2353 I-0.0223 J0.
N14840 G3 X11.952 Z-1.2378 I0.0223 J0.
N14850 G3 X11.9074 Z-1.2402 I-0.0223 J0.
N14860 G3 X11.952 Z-1.2427 I0.0223 J0.
N14870 G3 X11.9074 Z-1.2451 I-0.0223 J0.
N14880 G3 X11.952 Z-1.2476 I0.0223 J0.
N14890 G3 X11.9074 Z-1.25 I-0.0223 J0.
N14900 G3 X11.9371 I0.0148 J0. F40.
N14910 G3 X11.8629 I-0.0371 J0.
N14920 G3 X11.9816 I0.0594 J0.
N14930 G3 X11.8184 I-0.0816 J0.
N14940 G3 X11.851 Y1.9847 I0.0816 J0.
N14950 G3 X11.9816 Y2.05 I0.049 J0.0653
N14960 G3 X11.9805 Y2.0545 Z-1.2487 I-0.0094 J0.
N14970 G3 X11.9783 Y2.0571 Z-1.2453 I-0.0082 J-0.0045
N14980 G3 X11.9773 Y2.0579 Z-1.2406 I-0.0061 J-0.0071
N14990 G0 Z0.2
N15000 G0 X1.7663 Y1.2534
N15010 G0 Z-0.925
N15020 G1 Z-1.0156 F40.
N15030 G3 X1.7654 Y1.2542 Z-1.0202 I-0.0153 J-0.0162 F13.3
N15040 G3 X1.7627 Y1.2561 Z-1.0236 I-0.0144 J-0.017
N15050 G3 X1.7586 Y1.2581 Z-1.025 I-0.0117 J-0.0189
N15060 G3 X1.7434 Y1.2163 Z-1.0274 I-0.0076 J-0.0209
N15070 G3 X1.7586 Y1.2581 Z-1.0299 I0.0076 J0.0209
N15080 G3 X1.7434 Y1.2163 Z-1.0323 I-0.0076 J-0.0209
N15090 G3 X1.7586 Y1.2581 Z-1.0348 I0.0076 J0.0209
N15100 G3 X1.7434 Y1.2163 Z-1.0372 I-0.0076 J-0.0209
N15110 G3 X1.7586 Y1.2581 Z-1.0397 I0.0076 J0.0209
N15120 G3 X1.7434 Y1.2163 Z-1.0421 I-0.0076 J-0.0209
N15130 G3 X1.7586 Y1.2581 Z-1.0445 I0.0076 J0.0209
N15140 G3 X1.7434 Y1.2163 Z-1.047 I-0.0076 J-0.0209
N15150 G3 X1.7586 Y1.2581 Z-1.0494 I0.0076 J0.0209
N15160 G3 X1.7434 Y1.2163 Z-1.0519 I-0.0076 J-0.0209
N15170 G3 X1.7586 Y1.2581 Z-1.0543 I0.0076 J0.0209
N15180 G3 X1.7434 Y1.2163 Z-1.0568 I-0.0076 J-0.0209
N15190 G3 X1.7586 Y1.2581 Z-1.0592 I0.0076 J0.0209
N15200 G3 X1.7434 Y1.2163 Z-1.0616 I-0.0076 J-0.0209
N15210 G3 X1.7586 Y1.2581 Z-1.0641 I0.0076 J0.0209
N15220 G3 X1.7434 Y1.2163 Z-1.0665 I-0.0076 J-0.0209
N15230 G3 X1.7586 Y1.2581 Z-1.069 I0.0076 J0.0209
N15240 G3 X1.7434 Y1.2163 Z-1.0714 I-0.0076 J-0.0209
N15250 G3 X1.7586 Y1.2581 Z-1.0739 I0.0076 J0.0209
N15260 G3 X1.7434 Y1.2163 Z-1.0763 I-0.0076 J-0.0209
N15270 G3 X1.7586 Y1.2581 Z-1.0787 I0.0076 J0.0209
N15280 G3 X1.7434 Y1.2163 Z-1.0812 I-0.0076 J-0.0209
N15290 G3 X1.7586 Y1.2581 Z-1.0836 I0.0076 J0.0209
N15300 G3 X1.7434 Y1.2163 Z-1.0861 I-0.0076 J-0.0209
N15310 G3 X1.7586 Y1.2581 Z-1.0885 I0.0076 J0.0209
N15320 G3 X1.7434 Y1.2163 Z-1.091 I-0.0076 J-0.0209
N15330 G3 X1.7586 Y1.2581 Z-1.0934 I0.0076 J0.0209
N15340 G3 X1.7434 Y1.2163 Z-1.0958 I-0.0076 J-0.0209
N15350 G3 X1.7586 Y1.2581 Z-1.0983 I0.0076 J0.0209
N15360 G3 X1.7434 Y1.2163 Z-1.1007 I-0.0076 J-0.0209
N15370 G3 X1.7586 Y1.2581 Z-1.1032 I0.0076 J0.0209
N15380 G3 X1.7434 Y1.2163 Z-1.1056 I-0.0076 J-0.0209
N15390 G3 X1.7586 Y1.2581 Z-1.1081 I0.0076 J0.0209
N15400 G3 X1.7434 Y1.2163 Z-1.1105 I-0.0076 J-0.0209
N15410 G3 X1.7586 Y1.2581 Z-1.1129 I0.0076 J0.0209
N15420 G3 X1.7434 Y1.2163 Z-1.1154 I-0.0076 J-0.0209
N15430 G3 X1.7586 Y1.2581 Z-1.1178 I0.0076 J0.0209
N15440 G3 X1.7434 Y1.2163 Z-1.1203 I-0.0076 J-0.0209
N15450 G3 X1.7586 Y1.2581 Z-1.1227 I0.0076 J0.0209
N15460 G3 X1.7434 Y1.2163 Z-1.1252 I-0.0076 J-0.0209
N15470 G3 X1.7586 Y1.2581 Z-1.1276 I0.0076 J0.0209
N15480 G3 X1.7434 Y1.2163 Z-1.13 I-0.0076 J-0.0209
N15490 G3 X1.7586 Y1.2581 Z-1.1325 I0.0076 J0.0209
N15500 G3 X1.7434 Y1.2163 Z-1.1349 I-0.0076 J-0.0209
N15510 G3 X1.7586 Y1.2581 Z-1.1374 I0.0076 J0.0209
N15520 G3 X1.7434 Y1.2163 Z-1.1398 I-0.0076 J-0.0209
N15530 G3 X1.7586 Y1.2581 Z-1.1422 I0.0076 J0.0209
N15540 G3 X1.7434 Y1.2163 Z-1.1447 I-0.0076 J-0.0209
N15550 G3 X1.7586 Y1.2581 Z-1.1471 I0.0076 J0.0209
N15560 G3 X1.7434 Y1.2163 Z-1.1496 I-0.0076 J-0.0209
N15570 G3 X1.7586 Y1.2581 Z-1.152 I0.0076 J0.0209
N15580 G3 X1.7434 Y1.2163 Z-1.1545 I-0.0076 J-0.0209
N15590 G3 X1.7586 Y1.2581 Z-1.1569 I0.0076 J0.0209
N15600 G3 X1.7434 Y1.2163 Z-1.1593 I-0.0076 J-0.0209
N15610 G3 X1.7586 Y1.2581 Z-1.1618 I0.0076 J0.0209
N15620 G3 X1.7434 Y1.2163 Z-1.1642 I-0.0076 J-0.0209
N15630 G3 X1.7586 Y1.2581 Z-1.1667 I0.0076 J0.0209
N15640 G3 X1.7434 Y1.2163 Z-1.1691 I-0.0076 J-0.0209
N15650 G3 X1.7586 Y1.2581 Z-1.1716 I0.0076 J0.0209
N15660 G3 X1.7434 Y1.2163 Z-1.174 I-0.0076 J-0.0209
N15670 G3 X1.7586 Y1.2581 Z-1.1764 I0.0076 J0.0209
N15680 G3 X1.7434 Y1.2163 Z-1.1789 I-0.0076 J-0.0209
N15690 G3 X1.7586 Y1.2581 Z-1.1813 I0.0076 J0.0209
N15700 G3 X1.7434 Y1.2163 Z-1.1838 I-0.0076 J-0.0209
N15710 G3 X1.7586 Y1.2581 Z-1.1862 I0.0076 J0.0209
N15720 G3 X1.7434 Y1.2163 Z-1.1887 I-0.0076 J-0.0209
N15730 G3 X1.7586 Y1.2581 Z-1.1911 I0.0076 J0.0209
N15740 G3 X1.7434 Y1.2163 Z-1.1935 I-0.0076 J-0.0209
N15750 G3 X1.7586 Y1.2581 Z-1.196 I0.0076 J0.0209
N15760 G3 X1.7434 Y1.2163 Z-1.1984 I-0.0076 J-0.0209
N15770 G3 X1.7586 Y1.2581 Z-1.2009 I0.0076 J0.0209
N15780 G3 X1.7434 Y1.2163 Z-1.2033 I-0.0076 J-0.0209
N15790 G3 X1.7586 Y1.2581 Z-1.2058 I0.0076 J0.0209
N15800 G3 X1.7434 Y1.2163 Z-1.2082 I-0.0076 J-0.0209
N15810 G3 X1.7586 Y1.2581 Z-1.2106 I0.0076 J0.0209
N15820 G3 X1.7434 Y1.2163 Z-1.2131 I-0.0076 J-0.0209
N15830 G3 X1.7586 Y1.2581 Z-1.2155 I0.0076 J0.0209
N15840 G3 X1.7434 Y1.2163 Z-1.218 I-0.0076 J-0.0209
N15850 G3 X1.7586 Y1.2581 Z-1.2204 I0.0076 J0.0209
N15860 G3 X1.7434 Y1.2163 Z-1.2229 I-0.0076 J-0.0209
N15870 G3 X1.7586 Y1.2581 Z-1.2253 I0.0076 J0.0209
N15880 G3 X1.7434 Y1.2163 Z-1.2277 I-0.0076 J-0.0209
N15890 G3 X1.7586 Y1.2581 Z-1.2302 I0.0076 J0.0209
N15900 G3 X1.7434 Y1.2163 Z-1.2326 I-0.0076 J-0.0209
N15910 G3 X1.7586 Y1.2581 Z-1.2351 I0.0076 J0.0209
N15920 G3 X1.7434 Y1.2163 Z-1.2375 I-0.0076 J-0.0209
N15930 G3 X1.7586 Y1.2581 Z-1.24 I0.0076 J0.0209
N15940 G3 X1.7434 Y1.2163 Z-1.2424 I-0.0076 J-0.0209
N15950 G3 X1.7586 Y1.2581 Z-1.2448 I0.0076 J0.0209
N15960 G3 X1.7434 Y1.2163 Z-1.2473 I-0.0076 J-0.0209
N15970 G3 X1.7586 Y1.2581 Z-1.2497 I0.0076 J0.0209
N15980 G3 X1.751 Y1.2595 Z-1.25 I-0.0076 J-0.0209
N15990 G1 X1.7509 F40.
N16000 G3 X1.7415 Y1.2501 I0. J-0.0094
N16010 G3 X1.7509 Y1.2405 I0.0094 J-0.0001
N16020 G1 X4.251
N16030 G3 X4.2605 Y1.2499 I0. J0.0094
N16040 G3 X4.251 Y1.2595 I-0.0094 J0.0001
N16050 G1 X1.751
N16060 G2 X1.7391 Y1.2698 I0. J0.012
N16070 G3 X1.7237 Y1.2729 I-0.0083 J-0.0012
N16080 G3 X1.7219 Y1.2663 I0.0109 J-0.0066
N16090 G1 Y1.2337
N16100 G3 X1.7347 Y1.2209 I0.0128 J0.
N16110 G1 X4.2673
N16120 G3 X4.2801 Y1.2337 I0. J0.0128
N16130 G1 Y1.2663
N16140 G3 X4.2673 Y1.2791 I-0.0128 J0.
N16150 G1 X1.7347
N16160 G3 X1.7237 Y1.2729 I0. J-0.0128
N16170 G2 X1.7018 Y1.2538 I-0.041 J0.0248
N16180 G3 X1.6859 Y1.2295 I0.0106 J-0.0243
N16190 G1 Y1.1977
N16200 G3 X1.6987 Y1.1849 I0.0128 J0.
N16210 G1 X4.3033
N16220 G3 X4.3161 Y1.1977 I0. J0.0128
N16230 G1 Y1.3023
N16240 G3 X4.3033 Y1.3151 I-0.0128 J0.
N16250 G1 X1.6987
N16260 G3 X1.6859 Y1.3023 I0. J-0.0128
N16270 G1 Y1.2295
N16280 G2 X1.6679 Y1.2025 I-0.0293 J0.
N16290 G3 X1.6499 Y1.1755 I0.0113 J-0.027
N16300 G1 Y1.1617
N16310 G3 X1.6627 Y1.1489 I0.0128 J0.
N16320 G1 X4.3393
N16330 G3 X4.3521 Y1.1617 I0. J0.0128
N16340 G1 Y1.3383
N16350 G3 X4.3393 Y1.3511 I-0.0128 J0.
N16360 G1 X1.6627
N16370 G3 X1.6499 Y1.3383 I0. J-0.0128
N16380 G1 Y1.1755
N16390 G2 X1.6309 Y1.1467 I-0.0313 J0.
N16400 G3 X1.6378 Y1.1129 I0.0069 J-0.0162
N16410 G1 X4.3753
N16420 G3 X4.3881 Y1.1256 I0. J0.0128
N16430 G1 Y1.3744
N16440 G3 X4.3753 Y1.3871 I-0.0128 J0.
N16450 G1 X1.6266
N16460 G3 X1.6139 Y1.3744 I0. J-0.0128
N16470 G1 Y1.1256
N16480 G3 X1.6266 Y1.1129 I0.0128 J0.
N16490 G1 X1.6378
N16500 G2 X1.6648 Y1.0949 I0. J-0.0293
N16510 G3 X1.6918 Y1.0769 I0.027 J0.0113
N16520 G1 X4.4114
N16530 G3 X4.4241 Y1.0896 I0. J0.0128
N16540 G1 Y1.4104
N16550 G3 X4.4114 Y1.4231 I-0.0128 J0.
N16560 G1 X1.5906
N16570 G3 X1.5779 Y1.4104 I0. J-0.0128
N16580 G1 Y1.0896
N16590 G3 X1.5906 Y1.0769 I0.0128 J0.
N16600 G1 X1.6918
N16610 G2 X1.7188 Y1.0589 I0. J-0.0293
N16620 G3 X1.7458 Y1.0408 I0.027 J0.0113
N16630 G1 X4.4474
N16640 G3 X4.4601 Y1.0536 I0. J0.0128
N16650 G1 Y1.4464
N16660 G3 X4.4474 Y1.4592 I-0.0128 J0.
N16670 G1 X1.5546
N16680 G3 X1.5418 Y1.4464 I0. J-0.0128
N16690 G1 Y1.0536
N16700 G3 X1.5546 Y1.0408 I0.0128 J0.
N16710 G1 X1.7458
N16720 G2 X1.7728 Y1.0228 I0. J-0.0293
N16730 G3 X1.7998 Y1.0048 I0.027 J0.0113
N16740 G1 X4.4834
N16750 G3 X4.4961 Y1.0176 I0. J0.0128
N16760 G1 Y1.4824
N16770 G3 X4.4834 Y1.4952 I-0.0128 J0.
N16780 G1 X1.5186
N16790 G3 X1.5058 Y1.4824 I0. J-0.0128
N16800 G1 Y1.0176
N16810 G3 X1.5186 Y1.0048 I0.0128 J0.
N16820 G1 X1.7998
N16830 G2 X1.8268 Y0.9868 I0. J-0.0293
N16840 G3 X1.8538 Y0.9688 I0.027 J0.0113
N16850 G1 X4.5194
N16860 G3 X4.5322 Y0.9816 I0. J0.0128
N16870 G1 Y1.5184
N16880 G3 X4.5194 Y1.5312 I-0.0128 J0.
N16890 G1 X1.4826
N16900 G3 X1.4698 Y1.5184 I0. J-0.0128
N16910 G1 Y0.9816
N16920 G3 X1.4826 Y0.9688 I0.0128 J0.
N16930 G1 X1.8538
N16940 G2 X1.8809 Y0.9508 I0. J-0.0293
N16950 G3 X1.9079 Y0.9328 I0.027 J0.0113
N16960 G1 X4.5554
N16970 G3 X4.5682 Y0.9456 I0. J0.0128
N16980 G1 Y1.5544
N16990 G3 X4.5554 Y1.5672 I-0.0128 J0.
N17000 G1 X1.4466
N17010 G3 X1.4338 Y1.5544 I0. J-0.0128
N17020 G1 Y0.9456
N17030 G3 X1.4466 Y0.9328 I0.0128 J0.
N17040 G1 X1.9079
N17050 G2 X1.9349 Y0.9148 I0. J-0.0293
N17060 G3 X1.9619 Y0.8968 I0.027 J0.0113
N17070 G1 X4.5914
N17080 G3 X4.6042 Y0.9096 I0. J0.0128
N17090 G1 Y1.5904
N17100 G3 X4.5914 Y1.6032 I-0.0128 J0.
N17110 G1 X1.4106
N17120 G3 X1.3978 Y1.5904 I0. J-0.0128
N17130 G1 Y0.9096
N17140 G3 X1.4106 Y0.8968 I0.0128 J0.
N17150 G1 X1.9619
N17160 G2 X1.9889 Y0.8788 I0. J-0.0293
N17170 G3 X2.0159 Y0.8608 I0.027 J0.0113
N17180 G1 X4.6274
N17190 G3 X4.6402 Y0.8736 I0. J0.0128
N17200 G1 Y1.6264
N17210 G3 X4.6274 Y1.6392 I-0.0128 J0.
N17220 G1 X1.3746
N17230 G3 X1.3618 Y1.6264 I0. J-0.0128
N17240 G1 Y0.8736
N17250 G3 X1.3746 Y0.8608 I0.0128 J0.
N17260 G1 X2.0159
N17270 G2 X2.0429 Y0.8428 I0. J-0.0293
N17280 G3 X2.0699 Y0.8248 I0.027 J0.0113
N17290 G1 X4.6634
N17300 G3 X4.6762 Y0.8376 I0. J0.0128
N17310 G1 Y1.6624
N17320 G3 X4.6634 Y1.6752 I-0.0128 J0.
N17330 G1 X1.3386
N17340 G3 X1.3258 Y1.6624 I0. J-0.0128
N17350 G1 Y0.8376
N17360 G3 X1.3386 Y0.8248 I0.0128 J0.
N17370 G1 X2.0699
N17380 G2 X2.0969 Y0.8068 I0. J-0.0293
N17390 G3 X2.1239 Y0.7888 I0.027 J0.0113
N17400 G1 X4.6994
N17410 G3 X4.7122 Y0.8015 I0. J0.0128
N17420 G1 Y1.6985
N17430 G3 X4.6994 Y1.7112 I-0.0128 J0.
N17440 G1 X1.3025
N17450 G3 X1.2898 Y1.6985 I0. J-0.0128
N17460 G1 Y0.8015
N17470 G3 X1.3025 Y0.7888 I0.0128 J0.
N17480 G1 X2.1239
N17490 G2 X2.1509 Y0.7708 I0. J-0.0293
N17500 G3 X2.1779 Y0.7528 I0.027 J0.0113
N17510 G1 X4.7354
N17520 G3 X4.7482 Y0.7655 I0. J0.0128
N17530 G1 Y1.7345
N17540 G3 X4.7354 Y1.7472 I-0.0128 J0.
N17550 G1 X1.2665
N17560 G3 X1.2538 Y1.7345 I0. J-0.0128
N17570 G1 Y0.7655
N17580 G3 X1.2665 Y0.7528 I0.0128 J0.
N17590 G1 X2.1779
N17600 G2 X2.2067 Y0.7336 I0. J-0.0312
N17610 G3 X2.2355 Y0.7144 I0.0288 J0.012
N17620 G1 X4.751
N17630 G3 X4.7866 Y0.75 I0. J0.0356
N17640 G1 Y1.75
N17650 G3 X4.751 Y1.7856 I-0.0356 J0.
N17660 G1 X1.251
N17670 G3 X1.2154 Y1.75 I0. J-0.0356
N17680 G1 Y0.75
N17690 G3 X1.251 Y0.7144 I0.0356 J0.
N17700 G1 X2.2355
N17710 G2 X2.2674 Y0.6931 I0. J-0.0346
N17720 G3 X2.2993 Y0.6719 I0.0319 J0.0133
N17730 G1 X4.751
N17740 G3 X4.8291 Y0.75 I0. J0.0781
N17750 G1 Y1.75
N17760 G3 X4.751 Y1.8281 I-0.0781 J0.
N17770 G1 X1.251
N17780 G3 X1.1729 Y1.75 I0. J-0.0781
N17790 G1 Y0.75
N17800 G3 X1.251 Y0.6719 I0.0781 J0.
N17810 G1 X2.2993
N17820 G3 X2.3038 Y0.673 Z-1.2487 I0. J0.0094
N17830 G3 X2.3064 Y0.6752 Z-1.2453 I-0.0045 J0.0082
N17840 G3 X2.3072 Y0.6762 Z-1.2406 I-0.0071 J0.0061
N17850 G0 Z0.2
N17860 G0 X25.2337 Y1.2466
N17870 G0 Z-0.925
N17880 G1 Z-1.0156 F40.
N17890 G3 X25.2346 Y1.2458 Z-1.0202 I0.0153 J0.0162 F13.3
N17900 G3 X25.2373 Y1.2439 Z-1.0236 I0.0144 J0.017
N17910 G3 X25.2414 Y1.2419 Z-1.025 I0.0117 J0.0189
N17920 G3 X25.249 Y1.2405 Z-1.0253 I0.0076 J0.0209
N17930 G3 Y1.2851 Z-1.0277 I0. J0.0223
N17940 G3 Y1.2405 Z-1.0302 I0. J-0.0223
N17950 G3 Y1.2851 Z-1.0326 I0. J0.0223
N17960 G3 Y1.2405 Z-1.035 I0. J-0.0223
N17970 G3 Y1.2851 Z-1.0375 I0. J0.0223
N17980 G3 Y1.2405 Z-1.0399 I0. J-0.0223
N17990 G3 Y1.2851 Z-1.0424 I0. J0.0223
N18000 G3 Y1.2405 Z-1.0448 I0. J-0.0223
N18010 G3 Y1.2851 Z-1.0473 I0. J0.0223
N18020 G3 Y1.2405 Z-1.0497 I0. J-0.0223
N18030 G3 Y1.2851 Z-1.0521 I0. J0.0223
N18040 G3 Y1.2405 Z-1.0546 I0. J-0.0223
N18050 G3 Y1.2851 Z-1.057 I0. J0.0223
N18060 G3 Y1.2405 Z-1.0595 I0. J-0.0223
N18070 G3 Y1.2851 Z-1.0619 I0. J0.0223
N18080 G3 Y1.2405 Z-1.0644 I0. J-0.0223
N18090 G3 Y1.2851 Z-1.0668 I0. J0.0223
N18100 G3 Y1.2405 Z-1.0692 I0. J-0.0223
N18110 G3 Y1.2851 Z-1.0717 I0. J0.0223
N18120 G3 Y1.2405 Z-1.0741 I0. J-0.0223
N18130 G3 Y1.2851 Z-1.0766 I0. J0.0223
N18140 G3 Y1.2405 Z-1.079 I0. J-0.0223
N18150 G3 Y1.2851 Z-1.0815 I0. J0.0223
N18160 G3 Y1.2405 Z-1.0839 I0. J-0.0223
N18170 G3 Y1.2851 Z-1.0863 I0. J0.0223
N18180 G3 Y1.2405 Z-1.0888 I0. J-0.0223
N18190 G3 Y1.2851 Z-1.0912 I0. J0.0223
N18200 G3 Y1.2405 Z-1.0937 I0. J-0.0223
N18210 G3 Y1.2851 Z-1.0961 I0. J0.0223
N18220 G3 Y1.2405 Z-1.0986 I0. J-0.0223
N18230 G3 Y1.2851 Z-1.101 I0. J0.0223
N18240 G3 Y1.2405 Z-1.1034 I0. J-0.0223
N18250 G3 Y1.2851 Z-1.1059 I0. J0.0223
N18260 G3 Y1.2405 Z-1.1083 I0. J-0.0223
N18270 G3 Y1.2851 Z-1.1108 I0. J0.0223
N18280 G3 Y1.2405 Z-1.1132 I0. J-0.0223
N18290 G3 Y1.2851 Z-1.1157 I0. J0.0223
N18300 G3 Y1.2405 Z-1.1181 I0. J-0.0223
N18310 G3 Y1.2851 Z-1.1205 I0. J0.0223
N18320 G3 Y1.2405 Z-1.123 I0. J-0.0223
N18330 G3 Y1.2851 Z-1.1254 I0. J0.0223
N18340 G3 Y1.2405 Z-1.1279 I0. J-0.0223
N18350 G3 Y1.2851 Z-1.1303 I0. J0.0223
N18360 G3 Y1.2405 Z-1.1328 I0. J-0.0223
N18370 G3 Y1.2851 Z-1.1352 I0. J0.0223
N18380 G3 Y1.2405 Z-1.1376 I0. J-0.0223
N18390 G3 Y1.2851 Z-1.1401 I0. J0.0223
N18400 G3 Y1.2405 Z-1.1425 I0. J-0.0223
N18410 G3 Y1.2851 Z-1.145 I0. J0.0223
N18420 G3 Y1.2405 Z-1.1474 I0. J-0.0223
N18430 G3 Y1.2851 Z-1.1498 I0. J0.0223
N18440 G3 Y1.2405 Z-1.1523 I0. J-0.0223
N18450 G3 Y1.2851 Z-1.1547 I0. J0.0223
N18460 G3 Y1.2405 Z-1.1572 I0. J-0.0223
N18470 G3 Y1.2851 Z-1.1596 I0. J0.0223
N18480 G3 Y1.2405 Z-1.1621 I0. J-0.0223
N18490 G3 Y1.2851 Z-1.1645 I0. J0.0223
N18500 G3 Y1.2405 Z-1.1669 I0. J-0.0223
N18510 G3 Y1.2851 Z-1.1694 I0. J0.0223
N18520 G3 Y1.2405 Z-1.1718 I0. J-0.0223
N18530 G3 Y1.2851 Z-1.1743 I0. J0.0223
N18540 G3 Y1.2405 Z-1.1767 I0. J-0.0223
N18550 G3 Y1.2851 Z-1.1792 I0. J0.0223
N18560 G3 Y1.2405 Z-1.1816 I0. J-0.0223
N18570 G3 Y1.2851 Z-1.184 I0. J0.0223
N18580 G3 Y1.2405 Z-1.1865 I0. J-0.0223
N18590 G3 Y1.2851 Z-1.1889 I0. J0.0223
N18600 G3 Y1.2405 Z-1.1914 I0. J-0.0223
N18610 G3 Y1.2851 Z-1.1938 I0. J0.0223
N18620 G3 Y1.2405 Z-1.1963 I0. J-0.0223
N18630 G3 Y1.2851 Z-1.1987 I0. J0.0223
N18640 G3 Y1.2405 Z-1.2011 I0. J-0.0223
N18650 G3 Y1.2851 Z-1.2036 I0. J0.0223
N18660 G3 Y1.2405 Z-1.206 I0. J-0.0223
N18670 G3 Y1.2851 Z-1.2085 I0. J0.0223
N18680 G3 Y1.2405 Z-1.2109 I0. J-0.0223
N18690 G3 Y1.2851 Z-1.2134 I0. J0.0223
N18700 G3 Y1.2405 Z-1.2158 I0. J-0.0223
N18710 G3 Y1.2851 Z-1.2182 I0. J0.0223
N18720 G3 Y1.2405 Z-1.2207 I0. J-0.0223
N18730 G3 Y1.2851 Z-1.2231 I0. J0.0223
N18740 G3 Y1.2405 Z-1.2256 I0. J-0.0223
N18750 G3 Y1.2851 Z-1.228 I0. J0.0223
N18760 G3 Y1.2405 Z-1.2305 I0. J-0.0223
N18770 G3 Y1.2851 Z-1.2329 I0. J0.0223
N18780 G3 Y1.2405 Z-1.2353 I0. J-0.0223
N18790 G3 Y1.2851 Z-1.2378 I0. J0.0223
N18800 G3 Y1.2405 Z-1.2402 I0. J-0.0223
N18810 G3 Y1.2851 Z-1.2427 I0. J0.0223
N18820 G3 Y1.2405 Z-1.2451 I0. J-0.0223
N18830 G3 Y1.2851 Z-1.2476 I0. J0.0223
N18840 G3 Y1.2405 Z-1.25 I0. J-0.0223
N18850 G1 X25.2491 F40.
N18860 G3 X25.2585 Y1.2499 I0. J0.0094
N18870 G3 X25.2491 Y1.2595 I-0.0094 J0.0001
N18880 G1 X22.749
N18890 G3 X22.7395 Y1.2501 I0. J-0.0094
N18900 G3 X22.749 Y1.2405 I0.0094 J-0.0001
N18910 G1 X25.249
N18920 G2 X25.2609 Y1.2302 I0. J-0.012
N18930 G3 X25.2763 Y1.2271 I0.0083 J0.0012
N18940 G3 X25.2781 Y1.2337 I-0.0109 J0.0066
N18950 G1 Y1.2663
N18960 G3 X25.2653 Y1.2791 I-0.0128 J0.
N18970 G1 X22.7325
N18980 G3 X22.7199 Y1.2665 I0. J-0.0126
N18990 G1 Y1.2337
N19000 G3 X22.7327 Y1.2209 I0.0128 J0.
N19010 G1 X25.2653
N19020 G3 X25.2763 Y1.2271 I0. J0.0128
N19030 G2 X25.2982 Y1.2462 I0.041 J-0.0248
N19040 G3 X25.3141 Y1.2705 I-0.0106 J0.0243
N19050 G1 Y1.3023
N19060 G3 X25.3014 Y1.3151 I-0.0128 J0.
N19070 G1 X22.6965
N19080 G3 X22.6839 Y1.3025 I0. J-0.0126
N19090 G1 Y1.1977
N19100 G3 X22.6967 Y1.1849 I0.0128 J0.
N19110 G1 X25.3014
N19120 G3 X25.3141 Y1.1977 I0. J0.0128
N19130 G1 Y1.2705
N19140 G2 X25.3321 Y1.2975 I0.0293 J0.
N19150 G3 X25.3501 Y1.3245 I-0.0113 J0.027
N19160 G1 Y1.3383
N19170 G3 X25.3374 Y1.3511 I-0.0128 J0.
N19180 G1 X22.6605
N19190 G3 X22.6479 Y1.3385 I0. J-0.0126
N19200 G1 Y1.1617
N19210 G3 X22.6607 Y1.1489 I0.0128 J0.
N19220 G1 X25.3374
N19230 G3 X25.3501 Y1.1617 I0. J0.0128
N19240 G1 Y1.3245
N19250 G2 X25.3691 Y1.3533 I0.0313 J0.
N19260 G3 X25.3622 Y1.3871 I-0.0069 J0.0162
N19270 G1 X22.6245
N19280 G3 X22.6119 Y1.3745 I0. J-0.0126
N19290 G1 Y1.1256
N19300 G3 X22.6247 Y1.1129 I0.0128 J0.
N19310 G1 X25.3734
N19320 G3 X25.3862 Y1.1256 I0. J0.0128
N19330 G1 Y1.3744
N19340 G3 X25.3734 Y1.3871 I-0.0128 J0.
N19350 G1 X25.3622
N19360 G2 X25.3352 Y1.4051 I0. J0.0293
N19370 G3 X25.3082 Y1.4231 I-0.027 J-0.0113
N19380 G1 X22.5885
N19390 G3 X22.5759 Y1.4105 I0. J-0.0126
N19400 G1 Y1.0896
N19410 G3 X22.5886 Y1.0769 I0.0128 J0.
N19420 G1 X25.4094
N19430 G3 X25.4222 Y1.0896 I0. J0.0128
N19440 G1 Y1.4104
N19450 G3 X25.4094 Y1.4231 I-0.0128 J0.
N19460 G1 X25.3082
N19470 G2 X25.2812 Y1.4411 I0. J0.0293
N19480 G3 X25.2542 Y1.4592 I-0.027 J-0.0113
N19490 G1 X22.5525
N19500 G3 X22.5399 Y1.4465 I0. J-0.0126
N19510 G1 Y1.0536
N19520 G3 X22.5526 Y1.0408 I0.0128 J0.
N19530 G1 X25.4454
N19540 G3 X25.4582 Y1.0536 I0. J0.0128
N19550 G1 Y1.4464
N19560 G3 X25.4454 Y1.4592 I-0.0128 J0.
N19570 G1 X25.2542
N19580 G2 X25.2272 Y1.4772 I0. J0.0293
N19590 G3 X25.2002 Y1.4952 I-0.027 J-0.0113
N19600 G1 X22.5165
N19610 G3 X22.5039 Y1.4826 I0. J-0.0126
N19620 G1 Y1.0176
N19630 G3 X22.5166 Y1.0048 I0.0128 J0.
N19640 G1 X25.4814
N19650 G3 X25.4942 Y1.0176 I0. J0.0128
N19660 G1 Y1.4824
N19670 G3 X25.4814 Y1.4952 I-0.0128 J0.
N19680 G1 X25.2002
N19690 G2 X25.1732 Y1.5132 I0. J0.0293
N19700 G3 X25.1462 Y1.5312 I-0.027 J-0.0113
N19710 G1 X22.4805
N19720 G3 X22.4678 Y1.5186 I0. J-0.0126
N19730 G1 Y0.9816
N19740 G3 X22.4806 Y0.9688 I0.0128 J0.
N19750 G1 X25.5174
N19760 G3 X25.5302 Y0.9816 I0. J0.0128
N19770 G1 Y1.5184
N19780 G3 X25.5174 Y1.5312 I-0.0128 J0.
N19790 G1 X25.1462
N19800 G2 X25.1192 Y1.5492 I0. J0.0293
N19810 G3 X25.0922 Y1.5672 I-0.027 J-0.0113
N19820 G1 X22.4444
N19830 G3 X22.4318 Y1.5546 I0. J-0.0126
N19840 G1 Y0.9456
N19850 G3 X22.4446 Y0.9328 I0.0128 J0.
N19860 G1 X25.5534
N19870 G3 X25.5662 Y0.9456 I0. J0.0128
N19880 G1 Y1.5544
N19890 G3 X25.5534 Y1.5672 I-0.0128 J0.
N19900 G1 X25.0922
N19910 G2 X25.0651 Y1.5852 I0. J0.0293
N19920 G3 X25.0381 Y1.6032 I-0.027 J-0.0113
N19930 G1 X22.4084
N19940 G3 X22.3958 Y1.5906 I0. J-0.0126
N19950 G1 Y0.9096
N19960 G3 X22.4086 Y0.8968 I0.0128 J0.
N19970 G1 X25.5894
N19980 G3 X25.6022 Y0.9096 I0. J0.0128
N19990 G1 Y1.5904
N20000 G3 X25.5894 Y1.6032 I-0.0128 J0.
N20010 G1 X25.0381
N20020 G2 X25.0111 Y1.6212 I0. J0.0293
N20030 G3 X24.9841 Y1.6392 I-0.027 J-0.0113
N20040 G1 X22.3724
N20050 G3 X22.3598 Y1.6266 I0. J-0.0126
N20060 G1 Y0.8736
N20070 G3 X22.3726 Y0.8608 I0.0128 J0.
N20080 G1 X25.6254
N20090 G3 X25.6382 Y0.8736 I0. J0.0128
N20100 G1 Y1.6264
N20110 G3 X25.6254 Y1.6392 I-0.0128 J0.
N20120 G1 X24.9841
N20130 G2 X24.9571 Y1.6572 I0. J0.0293
N20140 G3 X24.9301 Y1.6752 I-0.027 J-0.0113
N20150 G1 X22.3364
N20160 G3 X22.3238 Y1.6626 I0. J-0.0126
N20170 G1 Y0.8376
N20180 G3 X22.3366 Y0.8248 I0.0128 J0.
N20190 G1 X25.6615
N20200 G3 X25.6742 Y0.8376 I0. J0.0128
N20210 G1 Y1.6624
N20220 G3 X25.6615 Y1.6752 I-0.0128 J0.
N20230 G1 X24.9301
N20240 G2 X24.9031 Y1.6932 I0. J0.0293
N20250 G3 X24.8761 Y1.7112 I-0.027 J-0.0113
N20260 G1 X22.3004
N20270 G3 X22.2878 Y1.6986 I0. J-0.0126
N20280 G1 Y0.8015
N20290 G3 X22.3006 Y0.7888 I0.0128 J0.
N20300 G1 X25.6975
N20310 G3 X25.7102 Y0.8015 I0. J0.0128
N20320 G1 Y1.6985
N20330 G3 X25.6975 Y1.7112 I-0.0128 J0.
N20340 G1 X24.8761
N20350 G2 X24.8491 Y1.7292 I0. J0.0293
N20360 G3 X24.8221 Y1.7472 I-0.027 J-0.0113
N20370 G1 X22.2644
N20380 G3 X22.2518 Y1.7346 I0. J-0.0126
N20390 G1 Y0.7655
N20400 G3 X22.2646 Y0.7528 I0.0128 J0.
N20410 G1 X25.7335
N20420 G3 X25.7463 Y0.7655 I0. J0.0128
N20430 G1 Y1.7345
N20440 G3 X25.7335 Y1.7472 I-0.0128 J0.
N20450 G1 X24.8221
N20460 G2 X24.7933 Y1.7664 I0. J0.0312
N20470 G3 X24.7645 Y1.7856 I-0.0288 J-0.012
N20480 G1 X22.249
N20490 G3 X22.2134 Y1.75 I0. J-0.0356
N20500 G1 Y0.75
N20510 G3 X22.249 Y0.7144 I0.0356 J0.
N20520 G1 X25.749
N20530 G3 X25.7846 Y0.75 I0. J0.0356
N20540 G1 Y1.75
N20550 G3 X25.749 Y1.7856 I-0.0356 J0.
N20560 G1 X24.7645
N20570 G2 X24.7326 Y1.8069 I0. J0.0346
N20580 G3 X24.7007 Y1.8281 I-0.0319 J-0.0133
N20590 G1 X22.249
N20600 G3 X22.1709 Y1.75 I0. J-0.0781
N20610 G1 Y0.75
N20620 G3 X22.249 Y0.6719 I0.0781 J0.
N20630 G1 X25.749
N20640 G3 X25.8271 Y0.75 I0. J0.0781
N20650 G1 Y1.75
N20660 G3 X25.749 Y1.8281 I-0.0781 J0.
N20670 G1 X24.7007
N20680 G3 X24.6963 Y1.827 Z-1.2487 I0. J-0.0094
N20690 G3 X24.6936 Y1.8248 Z-1.2453 I0.0045 J-0.0082
N20700 G3 X24.6929 Y1.8238 Z-1.2406 I0.0071 J-0.0061
N20710 G0 Z0.6
N20730 M5 M9

N20740 G30
N20750 M30
%
