%
(transmission-backplate)
(T3  D=0.25 CR=0.0625 - ZMIN=-0.255 - bullnose end mill)
(T4  D=0.0937 CR=0.0234 - ZMIN=-0.255 - bullnose end mill)
N10 G90 G54 G64 G50 G17 G40 G80 G94 G91.1 G49
N20 G20 (Inch)
N30 G30

(2D Pocket3)
N50 G30
N60 T3 G43 H3 M6
N70 S5000 M3 M8
N80 G54
N90 G0 X2.8717 Y1.7689
N100 G0 Z0.6
N110 G0 Z0.2
N120 G1 Z0.125 F15.
N130 G3 X2.8711 Y1.7698 Z0.1174 I-0.0487 J-0.034 F13.3
N140 G3 X2.869 Y1.7725 Z0.1106 I-0.048 J-0.0349
N150 G3 X2.8654 Y1.7765 Z0.1051 I-0.0459 J-0.0376
N160 G3 X2.8605 Y1.781 Z0.1014 I-0.0424 J-0.0416
N170 G3 X2.8543 Y1.7854 Z0.1 I-0.0374 J-0.0461
N180 G3 X2.7918 Y1.6844 Z0.0935 I-0.0313 J-0.0505
N190 G3 X2.8543 Y1.7854 Z0.087 I0.0313 J0.0505
N200 G3 X2.7918 Y1.6844 Z0.0805 I-0.0313 J-0.0505
N210 G3 X2.8543 Y1.7854 Z0.0739 I0.0313 J0.0505
N220 G3 X2.7918 Y1.6844 Z0.0674 I-0.0313 J-0.0505
N230 G3 X2.8543 Y1.7854 Z0.0609 I0.0313 J0.0505
N240 G3 X2.7918 Y1.6844 Z0.0544 I-0.0313 J-0.0505
N250 G3 X2.8543 Y1.7854 Z0.0479 I0.0313 J0.0505
N260 G3 X2.7918 Y1.6844 Z0.0414 I-0.0313 J-0.0505
N270 G3 X2.8543 Y1.7854 Z0.0349 I0.0313 J0.0505
N280 G3 X2.7918 Y1.6844 Z0.0283 I-0.0313 J-0.0505
N290 G3 X2.8543 Y1.7854 Z0.0218 I0.0313 J0.0505
N300 G3 X2.7918 Y1.6844 Z0.0153 I-0.0313 J-0.0505
N310 G3 X2.8543 Y1.7854 Z0.0088 I0.0313 J0.0505
N320 G3 X2.7918 Y1.6844 Z0.0023 I-0.0313 J-0.0505
N330 G3 X2.8543 Y1.7854 Z-0.0042 I0.0313 J0.0505
N340 G3 X2.7918 Y1.6844 Z-0.0107 I-0.0313 J-0.0505
N350 G3 X2.8543 Y1.7854 Z-0.0172 I0.0313 J0.0505
N360 G3 X2.7918 Y1.6844 Z-0.0238 I-0.0313 J-0.0505
N370 G3 X2.8543 Y1.7854 Z-0.0303 I0.0313 J0.0505
N380 G3 X2.7918 Y1.6844 Z-0.0368 I-0.0313 J-0.0505
N390 G3 X2.8728 Y1.7025 Z-0.04 I0.0313 J0.0505
N400 G2 X2.8899 Y1.728 I0.8799 J-0.5739 F15.
N410 G3 X2.8842 Y1.7385 I-0.0055 J0.0038
N420 G2 X2.8228 I-0.0307 J1.2497
N430 G3 X2.8171 Y1.728 I-0.0002 J-0.0067
N440 G2 X2.8468 Y1.6826 I-0.953 J-0.6587
N450 G3 X2.8602 I0.0067 J0.0041
N460 G2 X2.8728 Y1.7025 I0.8926 J-0.554
N470 G2 X2.9127 Y1.7193 I0.0324 J-0.0211
N480 G3 X2.953 Y1.7348 I0.0079 J0.0398
N490 G2 X2.9917 Y1.7838 I0.9097 J-0.6785
N500 G3 X2.9866 Y1.7932 I-0.0044 J0.0037
N510 G2 X2.719 Y1.7934 I-0.1331 J1.1011
N520 G3 X2.7144 Y1.7849 I-0.0006 J-0.0052
N530 G2 X2.8474 Y1.587 I-0.8633 J-0.724
N540 G3 X2.8596 I0.0061 J0.0032
N550 G2 X2.953 Y1.7348 I1.0032 J-0.5307
N560 G2 X3.028 Y1.7605 I0.0562 J-0.0419
N570 G3 X3.1044 Y1.7814 I0.0206 J0.0745
N580 G2 X3.1282 Y1.8055 I0.7491 J-0.7189
N590 G3 X3.1281 Y1.8229 I-0.0084 J0.0086
N600 G2 X3.0712 Y1.8795 I1.0257 J1.0864
N610 G3 X3.0437 Y1.8884 I-0.022 J-0.0211
N620 G2 X2.8534 Y1.8708 I-0.1925 J1.0456
N630 G2 X2.6631 Y1.8884 I0.0001 J1.0383
N640 G3 X2.6359 Y1.8796 I-0.0055 J-0.0297
N650 G2 X2.5793 Y1.8233 I-1.2012 J1.1486
N660 G3 X2.5792 Y1.8051 I0.0087 J-0.0092
N670 G2 X2.8258 Y1.4269 I-0.7236 J-0.7412
N680 G3 X2.8454 Y1.4133 I0.0196 J0.0073
N690 G1 X2.8616
N700 G3 X2.8812 Y1.4269 I0. J0.0209
N710 G2 X3.1044 Y1.7814 I0.9722 J-0.3644
N720 G2 X3.1966 Y1.8004 I0.0599 J-0.0575
N730 G3 X3.2901 Y1.8118 I0.0368 J0.0868
N740 G2 X3.2928 Y1.8138 I0.5634 J-0.7493
N750 G2 X3.0952 Y2.0033 I0.8607 J1.0953
N760 G2 X2.6118 I-0.2417 J0.9058
N770 G2 X2.4142 Y1.8138 I-1.0583 J0.9058
N780 G2 X2.7571 Y1.3125 I-0.5607 J-0.7513
N790 G1 X2.9499
N800 G2 X3.2901 Y1.8118 I0.9036 J-0.25
N810 G1 X3.2861 Y1.8132
N820 G1 X2.8546 Y1.6856
N830 G1 X2.8541 Y1.6843
N840 G3 X2.8728 Y1.7025 Z-0.0409 I-0.0311 J0.0506 F13.3
N850 G3 X2.7733 Y1.7673 Z-0.0474 I-0.0497 J0.0324
N860 G3 X2.8728 Y1.7025 Z-0.0539 I0.0497 J-0.0324
N870 G3 X2.7733 Y1.7673 Z-0.0605 I-0.0497 J0.0324
N880 G3 X2.8728 Y1.7025 Z-0.067 I0.0497 J-0.0324
N890 G3 X2.7733 Y1.7673 Z-0.0735 I-0.0497 J0.0324
N900 G3 X2.8728 Y1.7025 Z-0.08 I0.0497 J-0.0324
N910 G2 X2.8899 Y1.728 I0.8799 J-0.5739 F15.
N920 G3 X2.8842 Y1.7385 I-0.0055 J0.0038
N930 G2 X2.8228 I-0.0307 J1.2497
N940 G3 X2.8171 Y1.728 I-0.0002 J-0.0067
N950 G2 X2.8468 Y1.6826 I-0.953 J-0.6587
N960 G3 X2.8602 I0.0067 J0.0041
N970 G2 X2.8728 Y1.7025 I0.8926 J-0.554
N980 G2 X2.9127 Y1.7193 I0.0324 J-0.0211
N990 G3 X2.953 Y1.7348 I0.0079 J0.0398
N1000 G2 X2.9917 Y1.7838 I0.9097 J-0.6785
N1010 G3 X2.9866 Y1.7932 I-0.0044 J0.0037
N1020 G2 X2.719 Y1.7934 I-0.1331 J1.1011
N1030 G3 X2.7144 Y1.7849 I-0.0006 J-0.0052
N1040 G2 X2.8474 Y1.587 I-0.8633 J-0.724
N1050 G3 X2.8596 I0.0061 J0.0032
N1060 G2 X2.953 Y1.7348 I1.0032 J-0.5307
N1070 G2 X3.028 Y1.7605 I0.0562 J-0.0419
N1080 G3 X3.1044 Y1.7814 I0.0206 J0.0745
N1090 G2 X3.1282 Y1.8055 I0.7491 J-0.7189
N1100 G3 X3.1281 Y1.8229 I-0.0084 J0.0086
N1110 G2 X3.0712 Y1.8795 I1.0257 J1.0864
N1120 G3 X3.0437 Y1.8884 I-0.022 J-0.0211
N1130 G2 X2.8534 Y1.8708 I-0.1925 J1.0456
N1140 G2 X2.6631 Y1.8884 I0.0001 J1.0383
N1150 G3 X2.6359 Y1.8796 I-0.0055 J-0.0297
N1160 G2 X2.5793 Y1.8233 I-1.2012 J1.1486
N1170 G3 X2.5792 Y1.8051 I0.0087 J-0.0092
N1180 G2 X2.8258 Y1.4269 I-0.7236 J-0.7412
N1190 G3 X2.8454 Y1.4133 I0.0196 J0.0073
N1200 G1 X2.8616
N1210 G3 X2.8812 Y1.4269 I0. J0.0209
N1220 G2 X3.1044 Y1.7814 I0.9722 J-0.3644
N1230 G2 X3.1966 Y1.8004 I0.0599 J-0.0575
N1240 G3 X3.2901 Y1.8118 I0.0368 J0.0868
N1250 G2 X3.2928 Y1.8138 I0.5634 J-0.7493
N1260 G2 X3.0952 Y2.0033 I0.8607 J1.0953
N1270 G2 X2.6118 I-0.2417 J0.9058
N1280 G2 X2.4142 Y1.8138 I-1.0583 J0.9058
N1290 G2 X2.7571 Y1.3125 I-0.5607 J-0.7513
N1300 G1 X2.9499
N1310 G2 X3.2901 Y1.8118 I0.9036 J-0.25
N1320 G1 X3.2861 Y1.8132
N1330 G1 X2.8546 Y1.6856
N1340 G1 X2.8541 Y1.6843
N1350 G3 X2.8728 Y1.7025 Z-0.0809 I-0.0311 J0.0506 F13.3
N1360 G3 X2.7733 Y1.7673 Z-0.0874 I-0.0497 J0.0324
N1370 G3 X2.8728 Y1.7025 Z-0.0939 I0.0497 J-0.0324
N1380 G3 X2.7733 Y1.7673 Z-0.1005 I-0.0497 J0.0324
N1390 G3 X2.8728 Y1.7025 Z-0.107 I0.0497 J-0.0324
N1400 G3 X2.7733 Y1.7673 Z-0.1135 I-0.0497 J0.0324
N1410 G3 X2.8728 Y1.7025 Z-0.12 I0.0497 J-0.0324
N1420 G2 X2.8899 Y1.728 I0.8799 J-0.5739 F15.
N1430 G3 X2.8842 Y1.7385 I-0.0055 J0.0038
N1440 G2 X2.8228 I-0.0307 J1.2497
N1450 G3 X2.8171 Y1.728 I-0.0002 J-0.0067
N1460 G2 X2.8468 Y1.6826 I-0.953 J-0.6587
N1470 G3 X2.8602 I0.0067 J0.0041
N1480 G2 X2.8728 Y1.7025 I0.8926 J-0.554
N1490 G2 X2.9127 Y1.7193 I0.0324 J-0.0211
N1500 G3 X2.953 Y1.7348 I0.0079 J0.0398
N1510 G2 X2.9917 Y1.7838 I0.9097 J-0.6785
N1520 G3 X2.9866 Y1.7932 I-0.0044 J0.0037
N1530 G2 X2.719 Y1.7934 I-0.1331 J1.1011
N1540 G3 X2.7144 Y1.7849 I-0.0006 J-0.0052
N1550 G2 X2.8474 Y1.587 I-0.8633 J-0.724
N1560 G3 X2.8596 I0.0061 J0.0032
N1570 G2 X2.953 Y1.7348 I1.0032 J-0.5307
N1580 G2 X3.028 Y1.7605 I0.0562 J-0.0419
N1590 G3 X3.1044 Y1.7814 I0.0206 J0.0745
N1600 G2 X3.1282 Y1.8055 I0.7491 J-0.7189
N1610 G3 X3.1281 Y1.8229 I-0.0084 J0.0086
N1620 G2 X3.0712 Y1.8795 I1.0257 J1.0864
N1630 G3 X3.0437 Y1.8884 I-0.022 J-0.0211
N1640 G2 X2.8534 Y1.8708 I-0.1925 J1.0456
N1650 G2 X2.6631 Y1.8884 I0.0001 J1.0383
N1660 G3 X2.6359 Y1.8796 I-0.0055 J-0.0297
N1670 G2 X2.5793 Y1.8233 I-1.2012 J1.1486
N1680 G3 X2.5792 Y1.8051 I0.0087 J-0.0092
N1690 G2 X2.8258 Y1.4269 I-0.7236 J-0.7412
N1700 G3 X2.8454 Y1.4133 I0.0196 J0.0073
N1710 G1 X2.8616
N1720 G3 X2.8812 Y1.4269 I0. J0.0209
N1730 G2 X3.1044 Y1.7814 I0.9722 J-0.3644
N1740 G2 X3.1966 Y1.8004 I0.0599 J-0.0575
N1750 G3 X3.2901 Y1.8118 I0.0368 J0.0868
N1760 G2 X3.2928 Y1.8138 I0.5634 J-0.7493
N1770 G2 X3.0952 Y2.0033 I0.8607 J1.0953
N1780 G2 X2.6118 I-0.2417 J0.9058
N1790 G2 X2.4142 Y1.8138 I-1.0583 J0.9058
N1800 G2 X2.7571 Y1.3125 I-0.5607 J-0.7513
N1810 G1 X2.9499
N1820 G2 X3.2901 Y1.8118 I0.9036 J-0.25
N1830 G1 X3.2861 Y1.8132
N1840 G1 X2.8546 Y1.6856
N1850 G1 X2.8541 Y1.6843
N1860 G3 X2.8728 Y1.7025 Z-0.1209 I-0.0311 J0.0506 F13.3
N1870 G3 X2.7733 Y1.7673 Z-0.1274 I-0.0497 J0.0324
N1880 G3 X2.8728 Y1.7025 Z-0.1339 I0.0497 J-0.0324
N1890 G3 X2.7733 Y1.7673 Z-0.1405 I-0.0497 J0.0324
N1900 G3 X2.8728 Y1.7025 Z-0.147 I0.0497 J-0.0324
N1910 G3 X2.7733 Y1.7673 Z-0.1535 I-0.0497 J0.0324
N1920 G3 X2.8728 Y1.7025 Z-0.16 I0.0497 J-0.0324
N1930 G2 X2.8899 Y1.728 I0.8799 J-0.5739 F15.
N1940 G3 X2.8842 Y1.7385 I-0.0055 J0.0038
N1950 G2 X2.8228 I-0.0307 J1.2497
N1960 G3 X2.8171 Y1.728 I-0.0002 J-0.0067
N1970 G2 X2.8468 Y1.6826 I-0.953 J-0.6587
N1980 G3 X2.8602 I0.0067 J0.0041
N1990 G2 X2.8728 Y1.7025 I0.8926 J-0.554
N2000 G2 X2.9127 Y1.7193 I0.0324 J-0.0211
N2010 G3 X2.953 Y1.7348 I0.0079 J0.0398
N2020 G2 X2.9917 Y1.7838 I0.9097 J-0.6785
N2030 G3 X2.9866 Y1.7932 I-0.0044 J0.0037
N2040 G2 X2.719 Y1.7934 I-0.1331 J1.1011
N2050 G3 X2.7144 Y1.7849 I-0.0006 J-0.0052
N2060 G2 X2.8474 Y1.587 I-0.8633 J-0.724
N2070 G3 X2.8596 I0.0061 J0.0032
N2080 G2 X2.953 Y1.7348 I1.0032 J-0.5307
N2090 G2 X3.028 Y1.7605 I0.0562 J-0.0419
N2100 G3 X3.1044 Y1.7814 I0.0206 J0.0745
N2110 G2 X3.1282 Y1.8055 I0.7491 J-0.7189
N2120 G3 X3.1281 Y1.8229 I-0.0084 J0.0086
N2130 G2 X3.0712 Y1.8795 I1.0257 J1.0864
N2140 G3 X3.0437 Y1.8884 I-0.022 J-0.0211
N2150 G2 X2.8534 Y1.8708 I-0.1925 J1.0456
N2160 G2 X2.6631 Y1.8884 I0.0001 J1.0383
N2170 G3 X2.6359 Y1.8796 I-0.0055 J-0.0297
N2180 G2 X2.5793 Y1.8233 I-1.2012 J1.1486
N2190 G3 X2.5792 Y1.8051 I0.0087 J-0.0092
N2200 G2 X2.8258 Y1.4269 I-0.7236 J-0.7412
N2210 G3 X2.8454 Y1.4133 I0.0196 J0.0073
N2220 G1 X2.8616
N2230 G3 X2.8812 Y1.4269 I0. J0.0209
N2240 G2 X3.1044 Y1.7814 I0.9722 J-0.3644
N2250 G2 X3.1966 Y1.8004 I0.0599 J-0.0575
N2260 G3 X3.2901 Y1.8118 I0.0368 J0.0868
N2270 G2 X3.2928 Y1.8138 I0.5634 J-0.7493
N2280 G2 X3.0952 Y2.0033 I0.8607 J1.0953
N2290 G2 X2.6118 I-0.2417 J0.9058
N2300 G2 X2.4142 Y1.8138 I-1.0583 J0.9058
N2310 G2 X2.7571 Y1.3125 I-0.5607 J-0.7513
N2320 G1 X2.9499
N2330 G2 X3.2901 Y1.8118 I0.9036 J-0.25
N2340 G1 X3.2861 Y1.8132
N2350 G1 X2.8546 Y1.6856
N2360 G1 X2.8541 Y1.6843
N2370 G3 X2.8728 Y1.7025 Z-0.1609 I-0.0311 J0.0506 F13.3
N2380 G3 X2.7733 Y1.7673 Z-0.1674 I-0.0497 J0.0324
N2390 G3 X2.8728 Y1.7025 Z-0.1739 I0.0497 J-0.0324
N2400 G3 X2.7733 Y1.7673 Z-0.1805 I-0.0497 J0.0324
N2410 G3 X2.8728 Y1.7025 Z-0.187 I0.0497 J-0.0324
N2420 G3 X2.7733 Y1.7673 Z-0.1935 I-0.0497 J0.0324
N2430 G3 X2.8728 Y1.7025 Z-0.2 I0.0497 J-0.0324
N2440 G2 X2.8899 Y1.728 I0.8799 J-0.5739 F15.
N2450 G3 X2.8842 Y1.7385 I-0.0055 J0.0038
N2460 G2 X2.8228 I-0.0307 J1.2497
N2470 G3 X2.8171 Y1.728 I-0.0002 J-0.0067
N2480 G2 X2.8468 Y1.6826 I-0.953 J-0.6587
N2490 G3 X2.8602 I0.0067 J0.0041
N2500 G2 X2.8728 Y1.7025 I0.8926 J-0.554
N2510 G2 X2.9127 Y1.7193 I0.0324 J-0.0211
N2520 G3 X2.953 Y1.7348 I0.0079 J0.0398
N2530 G2 X2.9917 Y1.7838 I0.9097 J-0.6785
N2540 G3 X2.9866 Y1.7932 I-0.0044 J0.0037
N2550 G2 X2.719 Y1.7934 I-0.1331 J1.1011
N2560 G3 X2.7144 Y1.7849 I-0.0006 J-0.0052
N2570 G2 X2.8474 Y1.587 I-0.8633 J-0.724
N2580 G3 X2.8596 I0.0061 J0.0032
N2590 G2 X2.953 Y1.7348 I1.0032 J-0.5307
N2600 G2 X3.028 Y1.7605 I0.0562 J-0.0419
N2610 G3 X3.1044 Y1.7814 I0.0206 J0.0745
N2620 G2 X3.1282 Y1.8055 I0.7491 J-0.7189
N2630 G3 X3.1281 Y1.8229 I-0.0084 J0.0086
N2640 G2 X3.0712 Y1.8795 I1.0257 J1.0864
N2650 G3 X3.0437 Y1.8884 I-0.022 J-0.0211
N2660 G2 X2.8534 Y1.8708 I-0.1925 J1.0456
N2670 G2 X2.6631 Y1.8884 I0.0001 J1.0383
N2680 G3 X2.6359 Y1.8796 I-0.0055 J-0.0297
N2690 G2 X2.5793 Y1.8233 I-1.2012 J1.1486
N2700 G3 X2.5792 Y1.8051 I0.0087 J-0.0092
N2710 G2 X2.8258 Y1.4269 I-0.7236 J-0.7412
N2720 G3 X2.8454 Y1.4133 I0.0196 J0.0073
N2730 G1 X2.8616
N2740 G3 X2.8812 Y1.4269 I0. J0.0209
N2750 G2 X3.1044 Y1.7814 I0.9722 J-0.3644
N2760 G2 X3.1966 Y1.8004 I0.0599 J-0.0575
N2770 G3 X3.2901 Y1.8118 I0.0368 J0.0868
N2780 G2 X3.2928 Y1.8138 I0.5634 J-0.7493
N2790 G2 X3.0952 Y2.0033 I0.8607 J1.0953
N2800 G2 X2.6118 I-0.2417 J0.9058
N2810 G2 X2.4142 Y1.8138 I-1.0583 J0.9058
N2820 G2 X2.7571 Y1.3125 I-0.5607 J-0.7513
N2830 G1 X2.9499
N2840 G2 X3.2901 Y1.8118 I0.9036 J-0.25
N2850 G1 X3.2861 Y1.8132
N2860 G1 X2.8546 Y1.6856
N2870 G1 X2.8541 Y1.6843
N2880 G3 X2.8728 Y1.7025 Z-0.2009 I-0.0311 J0.0506 F13.3
N2890 G3 X2.7733 Y1.7673 Z-0.2074 I-0.0497 J0.0324
N2900 G3 X2.8728 Y1.7025 Z-0.2139 I0.0497 J-0.0324
N2910 G3 X2.7733 Y1.7673 Z-0.2205 I-0.0497 J0.0324
N2920 G3 X2.8728 Y1.7025 Z-0.227 I0.0497 J-0.0324
N2930 G3 X2.7733 Y1.7673 Z-0.2335 I-0.0497 J0.0324
N2940 G3 X2.8728 Y1.7025 Z-0.24 I0.0497 J-0.0324
N2950 G2 X2.8899 Y1.728 I0.8799 J-0.5739 F15.
N2960 G3 X2.8842 Y1.7385 I-0.0055 J0.0038
N2970 G2 X2.8228 I-0.0307 J1.2497
N2980 G3 X2.8171 Y1.728 I-0.0002 J-0.0067
N2990 G2 X2.8468 Y1.6826 I-0.953 J-0.6587
N3000 G3 X2.8602 I0.0067 J0.0041
N3010 G2 X2.8728 Y1.7025 I0.8926 J-0.554
N3020 G2 X2.9127 Y1.7193 I0.0324 J-0.0211
N3030 G3 X2.953 Y1.7348 I0.0079 J0.0398
N3040 G2 X2.9917 Y1.7838 I0.9097 J-0.6785
N3050 G3 X2.9866 Y1.7932 I-0.0044 J0.0037
N3060 G2 X2.719 Y1.7934 I-0.1331 J1.1011
N3070 G3 X2.7144 Y1.7849 I-0.0006 J-0.0052
N3080 G2 X2.8474 Y1.587 I-0.8633 J-0.724
N3090 G3 X2.8596 I0.0061 J0.0032
N3100 G2 X2.953 Y1.7348 I1.0032 J-0.5307
N3110 G2 X3.028 Y1.7605 I0.0562 J-0.0419
N3120 G3 X3.1044 Y1.7814 I0.0206 J0.0745
N3130 G2 X3.1282 Y1.8055 I0.7491 J-0.7189
N3140 G3 X3.1281 Y1.8229 I-0.0084 J0.0086
N3150 G2 X3.0712 Y1.8795 I1.0257 J1.0864
N3160 G3 X3.0437 Y1.8884 I-0.022 J-0.0211
N3170 G2 X2.8534 Y1.8708 I-0.1925 J1.0456
N3180 G2 X2.6631 Y1.8884 I0.0001 J1.0383
N3190 G3 X2.6359 Y1.8796 I-0.0055 J-0.0297
N3200 G2 X2.5793 Y1.8233 I-1.2012 J1.1486
N3210 G3 X2.5792 Y1.8051 I0.0087 J-0.0092
N3220 G2 X2.8258 Y1.4269 I-0.7236 J-0.7412
N3230 G3 X2.8454 Y1.4133 I0.0196 J0.0073
N3240 G1 X2.8616
N3250 G3 X2.8812 Y1.4269 I0. J0.0209
N3260 G2 X3.1044 Y1.7814 I0.9722 J-0.3644
N3270 G2 X3.1966 Y1.8004 I0.0599 J-0.0575
N3280 G3 X3.2901 Y1.8118 I0.0368 J0.0868
N3290 G2 X3.2928 Y1.8138 I0.5634 J-0.7493
N3300 G2 X3.0952 Y2.0033 I0.8607 J1.0953
N3310 G2 X2.6118 I-0.2417 J0.9058
N3320 G2 X2.4142 Y1.8138 I-1.0583 J0.9058
N3330 G2 X2.7571 Y1.3125 I-0.5607 J-0.7513
N3340 G1 X2.9499
N3350 G2 X3.2901 Y1.8118 I0.9036 J-0.25
N3360 G1 X3.286 Y1.8134
N3370 G1 X2.8783 Y1.7412
N3380 G3 X2.873 Y1.739 I0.0022 J-0.0123
N3390 G1 X2.8176 Y1.6981
N3400 G3 X2.8255 Y1.6756 I0.0074 J-0.0101
N3410 G3 X2.8206 Y1.7942 Z-0.2465 I-0.0025 J0.0593 F13.3
N3420 G3 X2.8255 Y1.6756 Z-0.253 I0.0025 J-0.0593
N3430 G3 X2.8728 Y1.7025 Z-0.255 I-0.0025 J0.0593
N3440 G2 X2.8899 Y1.728 I0.8799 J-0.5739 F15.
N3450 G3 X2.8842 Y1.7385 I-0.0055 J0.0038
N3460 G2 X2.8228 I-0.0307 J1.2497
N3470 G3 X2.8171 Y1.728 I-0.0002 J-0.0067
N3480 G2 X2.8468 Y1.6826 I-0.953 J-0.6587
N3490 G3 X2.8602 I0.0067 J0.0041
N3500 G2 X2.8728 Y1.7025 I0.8926 J-0.554
N3510 G2 X2.9127 Y1.7193 I0.0324 J-0.0211
N3520 G3 X2.953 Y1.7348 I0.0079 J0.0398
N3530 G2 X2.9917 Y1.7838 I0.9097 J-0.6785
N3540 G3 X2.9866 Y1.7932 I-0.0044 J0.0037
N3550 G2 X2.719 Y1.7934 I-0.1331 J1.1011
N3560 G3 X2.7144 Y1.7849 I-0.0006 J-0.0052
N3570 G2 X2.8474 Y1.587 I-0.8633 J-0.724
N3580 G3 X2.8596 I0.0061 J0.0032
N3590 G2 X2.953 Y1.7348 I1.0032 J-0.5307
N3600 G2 X3.028 Y1.7605 I0.0562 J-0.0419
N3610 G3 X3.1044 Y1.7814 I0.0206 J0.0745
N3620 G2 X3.1282 Y1.8055 I0.7491 J-0.7189
N3630 G3 X3.1281 Y1.8229 I-0.0084 J0.0086
N3640 G2 X3.0712 Y1.8795 I1.0257 J1.0864
N3650 G3 X3.0437 Y1.8884 I-0.022 J-0.0211
N3660 G2 X2.8534 Y1.8708 I-0.1925 J1.0456
N3670 G2 X2.6631 Y1.8884 I0.0001 J1.0383
N3680 G3 X2.6359 Y1.8796 I-0.0055 J-0.0297
N3690 G2 X2.5793 Y1.8233 I-1.2012 J1.1486
N3700 G3 X2.5792 Y1.8051 I0.0087 J-0.0092
N3710 G2 X2.8258 Y1.4269 I-0.7236 J-0.7412
N3720 G3 X2.8454 Y1.4133 I0.0196 J0.0073
N3730 G1 X2.8616
N3740 G3 X2.8812 Y1.4269 I0. J0.0209
N3750 G2 X3.1044 Y1.7814 I0.9722 J-0.3644
N3760 G2 X3.1966 Y1.8004 I0.0599 J-0.0575
N3770 G3 X3.2901 Y1.8118 I0.0368 J0.0868
N3780 G2 X3.2928 Y1.8138 I0.5634 J-0.7493
N3790 G2 X3.0952 Y2.0033 I0.8607 J1.0953
N3800 G2 X2.6118 I-0.2417 J0.9058
N3810 G2 X2.4142 Y1.8138 I-1.0583 J0.9058
N3820 G2 X2.7571 Y1.3125 I-0.5607 J-0.7513
N3830 G1 X2.9499
N3840 G2 X3.2901 Y1.8118 I0.9036 J-0.25
N3850 G2 X3.2928 Y1.8138 Z-0.2548 I0.5634 J-0.7493
N3860 G2 X3.2874 Y1.8181 Z-0.2528 I0.8607 J1.0953
N3870 G2 X3.2827 Y1.8219 Z-0.249 I0.8661 J1.091
N3880 G2 X3.279 Y1.8248 Z-0.2436 I0.8708 J1.0872
N3890 G2 X3.2767 Y1.8267 Z-0.2371 I0.8745 J1.0843
N3900 G2 X3.2759 Y1.8273 Z-0.23 I0.8768 J1.0824
N3910 G0 Z0.2
N3920 G0 X3.6754 Y2.312
N3930 G1 Z0.125 F15.
N3940 G3 X3.6744 Y2.3113 Z0.1174 I0.0314 J-0.0504 F13.3
N3950 G3 X3.6716 Y2.3094 Z0.1106 I0.0324 J-0.0498
N3960 G3 X3.6675 Y2.3061 Z0.1051 I0.0352 J-0.0479
N3970 G3 X3.6627 Y2.3013 Z0.1014 I0.0393 J-0.0445
N3980 G3 X3.658 Y2.2954 Z0.1 I0.0441 J-0.0398
N3990 G3 X3.7555 Y2.2276 Z0.0935 I0.0487 J-0.0339
N4000 G3 X3.658 Y2.2954 Z0.087 I-0.0487 J0.0339
N4010 G3 X3.7555 Y2.2276 Z0.0805 I0.0487 J-0.0339
N4020 G3 X3.658 Y2.2954 Z0.0739 I-0.0487 J0.0339
N4030 G3 X3.7555 Y2.2276 Z0.0674 I0.0487 J-0.0339
N4040 G3 X3.658 Y2.2954 Z0.0609 I-0.0487 J0.0339
N4050 G3 X3.7555 Y2.2276 Z0.0544 I0.0487 J-0.0339
N4060 G3 X3.658 Y2.2954 Z0.0479 I-0.0487 J0.0339
N4070 G3 X3.7555 Y2.2276 Z0.0414 I0.0487 J-0.0339
N4080 G3 X3.658 Y2.2954 Z0.0349 I-0.0487 J0.0339
N4090 G3 X3.7555 Y2.2276 Z0.0283 I0.0487 J-0.0339
N4100 G3 X3.658 Y2.2954 Z0.0218 I-0.0487 J0.0339
N4110 G3 X3.7555 Y2.2276 Z0.0153 I0.0487 J-0.0339
N4120 G3 X3.658 Y2.2954 Z0.0088 I-0.0487 J0.0339
N4130 G3 X3.7555 Y2.2276 Z0.0023 I0.0487 J-0.0339
N4140 G3 X3.658 Y2.2954 Z-0.0042 I-0.0487 J0.0339
N4150 G3 X3.7555 Y2.2276 Z-0.0107 I0.0487 J-0.0339
N4160 G3 X3.658 Y2.2954 Z-0.0172 I-0.0487 J0.0339
N4170 G3 X3.7555 Y2.2276 Z-0.0238 I0.0487 J-0.0339
N4180 G3 X3.658 Y2.2954 Z-0.0303 I-0.0487 J0.0339
N4190 G3 X3.7555 Y2.2276 Z-0.0368 I0.0487 J-0.0339
N4200 G3 X3.7418 Y2.3095 Z-0.04 I-0.0487 J0.0339
N4210 G2 X3.736 Y2.3139 I0.0943 J0.1292 F15.
N4220 G3 X3.725 Y2.3223 I-0.1782 J-0.2219
N4230 G3 X3.7078 Y2.3193 I-0.0072 J-0.0099
N4240 G2 X3.6841 Y2.2864 I-0.8694 J0.6006
N4250 G3 X3.6868 Y2.2687 I0.0101 J-0.0075
N4260 G3 X3.7916 Y2.2042 I0.4903 J0.6788
N4270 G3 X3.8029 Y2.2111 I0.0036 J0.0069
N4280 G1 Y2.2565
N4290 G3 X3.789 Y2.2805 I-0.0278 J0.
N4300 G1 X3.7685 Y2.2924
N4310 G2 X3.747 Y2.3058 I0.1912 J0.3305
N4320 G2 X3.7418 Y2.3095 I0.0891 J0.1329
N4330 G2 X3.708 Y2.3747 I0.0485 J0.0664
N4340 G3 X3.6376 Y2.3951 I-0.0384 J-0.0006
N4350 G2 X3.5348 Y2.2652 I-0.784 J0.514
N4360 G3 X3.8435 Y2.0716 I0.6187 J0.644
N4370 G2 X3.9035 Y2.1541 I0.31 J-0.1626
N4380 G1 Y2.3352
N4390 G2 X3.6908 Y2.4874 I0.25 J0.5739
N4400 G2 X3.6376 Y2.3951 I-0.8373 J0.4217
N4410 G3 X3.6389 Y2.3798 I0.0105 J-0.0069
N4420 G1 X3.6943 Y2.3203
N4430 G2 X3.6971 Y2.3153 I-0.0091 J-0.0085
N4440 G3 X3.7007 Y2.3096 I0.012 J0.0036
N4450 G1 X3.7396 Y2.2746
N4460 G3 X3.7589 Y2.2899 I0.0084 J0.0093
N4470 G3 X3.6546 Y2.2332 Z-0.0465 I-0.0522 J-0.0283 F13.3
N4480 G3 X3.7589 Y2.2899 Z-0.053 I0.0522 J0.0283
N4490 G3 X3.6546 Y2.2332 Z-0.0595 I-0.0522 J-0.0283
N4500 G3 X3.7589 Y2.2899 Z-0.0661 I0.0522 J0.0283
N4510 G3 X3.6546 Y2.2332 Z-0.0726 I-0.0522 J-0.0283
N4520 G3 X3.7589 Y2.2899 Z-0.0791 I0.0522 J0.0283
N4530 G3 X3.7418 Y2.3095 Z-0.08 I-0.0522 J-0.0283
N4540 G2 X3.736 Y2.3139 I0.0943 J0.1292 F15.
N4550 G3 X3.725 Y2.3223 I-0.1782 J-0.2219
N4560 G3 X3.7078 Y2.3193 I-0.0072 J-0.0099
N4570 G2 X3.6841 Y2.2864 I-0.8694 J0.6006
N4580 G3 X3.6868 Y2.2687 I0.0101 J-0.0075
N4590 G3 X3.7916 Y2.2042 I0.4903 J0.6788
N4600 G3 X3.8029 Y2.2111 I0.0036 J0.0069
N4610 G1 Y2.2565
N4620 G3 X3.789 Y2.2805 I-0.0278 J0.
N4630 G1 X3.7685 Y2.2924
N4640 G2 X3.747 Y2.3058 I0.1912 J0.3305
N4650 G2 X3.7418 Y2.3095 I0.0891 J0.1329
N4660 G2 X3.708 Y2.3747 I0.0485 J0.0664
N4670 G3 X3.6376 Y2.3951 I-0.0384 J-0.0006
N4680 G2 X3.5348 Y2.2652 I-0.784 J0.514
N4690 G3 X3.8435 Y2.0716 I0.6187 J0.644
N4700 G2 X3.9035 Y2.1541 I0.31 J-0.1626
N4710 G1 Y2.3352
N4720 G2 X3.6908 Y2.4874 I0.25 J0.5739
N4730 G2 X3.6376 Y2.3951 I-0.8373 J0.4217
N4740 G3 X3.6389 Y2.3798 I0.0105 J-0.0069
N4750 G1 X3.6943 Y2.3203
N4760 G2 X3.6971 Y2.3153 I-0.0091 J-0.0085
N4770 G3 X3.7007 Y2.3096 I0.012 J0.0036
N4780 G1 X3.7396 Y2.2746
N4790 G3 X3.7589 Y2.2899 I0.0084 J0.0093
N4800 G3 X3.6546 Y2.2332 Z-0.0865 I-0.0522 J-0.0283 F13.3
N4810 G3 X3.7589 Y2.2899 Z-0.093 I0.0522 J0.0283
N4820 G3 X3.6546 Y2.2332 Z-0.0995 I-0.0522 J-0.0283
N4830 G3 X3.7589 Y2.2899 Z-0.1061 I0.0522 J0.0283
N4840 G3 X3.6546 Y2.2332 Z-0.1126 I-0.0522 J-0.0283
N4850 G3 X3.7589 Y2.2899 Z-0.1191 I0.0522 J0.0283
N4860 G3 X3.7418 Y2.3095 Z-0.12 I-0.0522 J-0.0283
N4870 G2 X3.736 Y2.3139 I0.0943 J0.1292 F15.
N4880 G3 X3.725 Y2.3223 I-0.1782 J-0.2219
N4890 G3 X3.7078 Y2.3193 I-0.0072 J-0.0099
N4900 G2 X3.6841 Y2.2864 I-0.8694 J0.6006
N4910 G3 X3.6868 Y2.2687 I0.0101 J-0.0075
N4920 G3 X3.7916 Y2.2042 I0.4903 J0.6788
N4930 G3 X3.8029 Y2.2111 I0.0036 J0.0069
N4940 G1 Y2.2565
N4950 G3 X3.789 Y2.2805 I-0.0278 J0.
N4960 G1 X3.7685 Y2.2924
N4970 G2 X3.747 Y2.3058 I0.1912 J0.3305
N4980 G2 X3.7418 Y2.3095 I0.0891 J0.1329
N4990 G2 X3.708 Y2.3747 I0.0485 J0.0664
N5000 G3 X3.6376 Y2.3951 I-0.0384 J-0.0006
N5010 G2 X3.5348 Y2.2652 I-0.784 J0.514
N5020 G3 X3.8435 Y2.0716 I0.6187 J0.644
N5030 G2 X3.9035 Y2.1541 I0.31 J-0.1626
N5040 G1 Y2.3352
N5050 G2 X3.6908 Y2.4874 I0.25 J0.5739
N5060 G2 X3.6376 Y2.3951 I-0.8373 J0.4217
N5070 G3 X3.6389 Y2.3798 I0.0105 J-0.0069
N5080 G1 X3.6943 Y2.3203
N5090 G2 X3.6971 Y2.3153 I-0.0091 J-0.0085
N5100 G3 X3.7007 Y2.3096 I0.012 J0.0036
N5110 G1 X3.7396 Y2.2746
N5120 G3 X3.7589 Y2.2899 I0.0084 J0.0093
N5130 G3 X3.6546 Y2.2332 Z-0.1265 I-0.0522 J-0.0283 F13.3
N5140 G3 X3.7589 Y2.2899 Z-0.133 I0.0522 J0.0283
N5150 G3 X3.6546 Y2.2332 Z-0.1395 I-0.0522 J-0.0283
N5160 G3 X3.7589 Y2.2899 Z-0.1461 I0.0522 J0.0283
N5170 G3 X3.6546 Y2.2332 Z-0.1526 I-0.0522 J-0.0283
N5180 G3 X3.7589 Y2.2899 Z-0.1591 I0.0522 J0.0283
N5190 G3 X3.7418 Y2.3095 Z-0.16 I-0.0522 J-0.0283
N5200 G2 X3.736 Y2.3139 I0.0943 J0.1292 F15.
N5210 G3 X3.725 Y2.3223 I-0.1782 J-0.2219
N5220 G3 X3.7078 Y2.3193 I-0.0072 J-0.0099
N5230 G2 X3.6841 Y2.2864 I-0.8694 J0.6006
N5240 G3 X3.6868 Y2.2687 I0.0101 J-0.0075
N5250 G3 X3.7916 Y2.2042 I0.4903 J0.6788
N5260 G3 X3.8029 Y2.2111 I0.0036 J0.0069
N5270 G1 Y2.2565
N5280 G3 X3.789 Y2.2805 I-0.0278 J0.
N5290 G1 X3.7685 Y2.2924
N5300 G2 X3.747 Y2.3058 I0.1912 J0.3305
N5310 G2 X3.7418 Y2.3095 I0.0891 J0.1329
N5320 G2 X3.708 Y2.3747 I0.0485 J0.0664
N5330 G3 X3.6376 Y2.3951 I-0.0384 J-0.0006
N5340 G2 X3.5348 Y2.2652 I-0.784 J0.514
N5350 G3 X3.8435 Y2.0716 I0.6187 J0.644
N5360 G2 X3.9035 Y2.1541 I0.31 J-0.1626
N5370 G1 Y2.3352
N5380 G2 X3.6908 Y2.4874 I0.25 J0.5739
N5390 G2 X3.6376 Y2.3951 I-0.8373 J0.4217
N5400 G3 X3.6389 Y2.3798 I0.0105 J-0.0069
N5410 G1 X3.6943 Y2.3203
N5420 G2 X3.6971 Y2.3153 I-0.0091 J-0.0085
N5430 G3 X3.7007 Y2.3096 I0.012 J0.0036
N5440 G1 X3.7396 Y2.2746
N5450 G3 X3.7589 Y2.2899 I0.0084 J0.0093
N5460 G3 X3.6546 Y2.2332 Z-0.1665 I-0.0522 J-0.0283 F13.3
N5470 G3 X3.7589 Y2.2899 Z-0.173 I0.0522 J0.0283
N5480 G3 X3.6546 Y2.2332 Z-0.1795 I-0.0522 J-0.0283
N5490 G3 X3.7589 Y2.2899 Z-0.1861 I0.0522 J0.0283
N5500 G3 X3.6546 Y2.2332 Z-0.1926 I-0.0522 J-0.0283
N5510 G3 X3.7589 Y2.2899 Z-0.1991 I0.0522 J0.0283
N5520 G3 X3.7418 Y2.3095 Z-0.2 I-0.0522 J-0.0283
N5530 G2 X3.736 Y2.3139 I0.0943 J0.1292 F15.
N5540 G3 X3.725 Y2.3223 I-0.1782 J-0.2219
N5550 G3 X3.7078 Y2.3193 I-0.0072 J-0.0099
N5560 G2 X3.6841 Y2.2864 I-0.8694 J0.6006
N5570 G3 X3.6868 Y2.2687 I0.0101 J-0.0075
N5580 G3 X3.7916 Y2.2042 I0.4903 J0.6788
N5590 G3 X3.8029 Y2.2111 I0.0036 J0.0069
N5600 G1 Y2.2565
N5610 G3 X3.789 Y2.2805 I-0.0278 J0.
N5620 G1 X3.7685 Y2.2924
N5630 G2 X3.747 Y2.3058 I0.1912 J0.3305
N5640 G2 X3.7418 Y2.3095 I0.0891 J0.1329
N5650 G2 X3.708 Y2.3747 I0.0485 J0.0664
N5660 G3 X3.6376 Y2.3951 I-0.0384 J-0.0006
N5670 G2 X3.5348 Y2.2652 I-0.784 J0.514
N5680 G3 X3.8435 Y2.0716 I0.6187 J0.644
N5690 G2 X3.9035 Y2.1541 I0.31 J-0.1626
N5700 G1 Y2.3352
N5710 G2 X3.6908 Y2.4874 I0.25 J0.5739
N5720 G2 X3.6376 Y2.3951 I-0.8373 J0.4217
N5730 G3 X3.6389 Y2.3798 I0.0105 J-0.0069
N5740 G1 X3.6943 Y2.3203
N5750 G2 X3.6971 Y2.3153 I-0.0091 J-0.0085
N5760 G3 X3.7007 Y2.3096 I0.012 J0.0036
N5770 G1 X3.7396 Y2.2746
N5780 G3 X3.7589 Y2.2899 I0.0084 J0.0093
N5790 G3 X3.6546 Y2.2332 Z-0.2065 I-0.0522 J-0.0283 F13.3
N5800 G3 X3.7589 Y2.2899 Z-0.213 I0.0522 J0.0283
N5810 G3 X3.6546 Y2.2332 Z-0.2195 I-0.0522 J-0.0283
N5820 G3 X3.7589 Y2.2899 Z-0.2261 I0.0522 J0.0283
N5830 G3 X3.6546 Y2.2332 Z-0.2326 I-0.0522 J-0.0283
N5840 G3 X3.7589 Y2.2899 Z-0.2391 I0.0522 J0.0283
N5850 G3 X3.7418 Y2.3095 Z-0.24 I-0.0522 J-0.0283
N5860 G2 X3.736 Y2.3139 I0.0943 J0.1292 F15.
N5870 G3 X3.725 Y2.3223 I-0.1782 J-0.2219
N5880 G3 X3.7078 Y2.3193 I-0.0072 J-0.0099
N5890 G2 X3.6841 Y2.2864 I-0.8694 J0.6006
N5900 G3 X3.6868 Y2.2687 I0.0101 J-0.0075
N5910 G3 X3.7916 Y2.2042 I0.4903 J0.6788
N5920 G3 X3.8029 Y2.2111 I0.0036 J0.0069
N5930 G1 Y2.2565
N5940 G3 X3.789 Y2.2805 I-0.0278 J0.
N5950 G1 X3.7685 Y2.2924
N5960 G2 X3.747 Y2.3058 I0.1912 J0.3305
N5970 G2 X3.7418 Y2.3095 I0.0891 J0.1329
N5980 G2 X3.708 Y2.3747 I0.0485 J0.0664
N5990 G3 X3.6376 Y2.3951 I-0.0384 J-0.0006
N6000 G2 X3.5348 Y2.2652 I-0.784 J0.514
N6010 G3 X3.8435 Y2.0716 I0.6187 J0.644
N6020 G2 X3.9035 Y2.1541 I0.31 J-0.1626
N6030 G1 Y2.3352
N6040 G2 X3.6908 Y2.4874 I0.25 J0.5739
N6050 G2 X3.6376 Y2.3951 I-0.8373 J0.4217
N6060 G3 X3.6396 Y2.3791 I0.0105 J-0.0069
N6070 G1 X3.756 Y2.2725
N6080 G2 X3.7582 Y2.2697 I-0.0084 J-0.0092
N6090 G1 X3.7622 Y2.2631
N6100 G1 X3.7661 Y2.2609
N6110 G3 X3.6474 Y2.2622 Z-0.2465 I-0.0594 J0.0007 F13.3
N6120 G3 X3.7661 Y2.2609 Z-0.253 I0.0594 J-0.0007
N6130 G3 X3.7418 Y2.3095 Z-0.255 I-0.0594 J0.0007
N6140 G2 X3.736 Y2.3139 I0.0943 J0.1292 F15.
N6150 G3 X3.725 Y2.3223 I-0.1782 J-0.2219
N6160 G3 X3.7078 Y2.3193 I-0.0072 J-0.0099
N6170 G2 X3.6841 Y2.2864 I-0.8694 J0.6006
N6180 G3 X3.6868 Y2.2687 I0.0101 J-0.0075
N6190 G3 X3.7916 Y2.2042 I0.4903 J0.6788
N6200 G3 X3.8029 Y2.2111 I0.0036 J0.0069
N6210 G1 Y2.2565
N6220 G3 X3.789 Y2.2805 I-0.0278 J0.
N6230 G1 X3.7685 Y2.2924
N6240 G2 X3.747 Y2.3058 I0.1912 J0.3305
N6250 G2 X3.7418 Y2.3095 I0.0891 J0.1329
N6260 G2 X3.708 Y2.3747 I0.0485 J0.0664
N6270 G3 X3.6376 Y2.3951 I-0.0384 J-0.0006
N6280 G2 X3.5348 Y2.2652 I-0.784 J0.514
N6290 G3 X3.8435 Y2.0716 I0.6187 J0.644
N6300 G2 X3.9035 Y2.1541 I0.31 J-0.1626
N6310 G1 Y2.3352
N6320 G2 X3.6908 Y2.4874 I0.25 J0.5739
N6330 G2 X3.6376 Y2.3951 I-0.8373 J0.4217
N6340 G3 X3.6344 Y2.3881 Z-0.2538 I0.0209 J-0.0137
N6350 G3 X3.6335 Y2.3813 Z-0.2502 I0.0241 J-0.0067
N6360 G3 X3.6341 Y2.3758 Z-0.2447 I0.025 J0.0002
N6370 G3 X3.6352 Y2.3724 Z-0.2377 I0.0243 J0.0057
N6380 G3 X3.6356 Y2.3713 Z-0.23 I0.0233 J0.0091
N6390 G0 Z0.2
N6400 G0 X4.1298 Y2.9642
N6410 G1 Z0.125 F15.
N6420 G3 X4.1287 Y2.9646 Z0.1174 I-0.0222 J-0.0551 F13.3
N6430 G3 X4.1255 Y2.9657 Z0.1106 I-0.0211 J-0.0555
N6440 G3 X4.1204 Y2.9671 Z0.1051 I-0.0179 J-0.0566
N6450 G3 X4.1138 Y2.9682 Z0.1014 I-0.0128 J-0.058
N6460 G3 X4.1062 Y2.9685 Z0.1 I-0.0061 J-0.0591
N6470 G3 X4.109 Y2.8498 Z0.0935 I0.0014 J-0.0594
N6480 G3 X4.1062 Y2.9685 Z0.087 I-0.0014 J0.0594
N6490 G3 X4.109 Y2.8498 Z0.0805 I0.0014 J-0.0594
N6500 G3 X4.1062 Y2.9685 Z0.0739 I-0.0014 J0.0594
N6510 G3 X4.109 Y2.8498 Z0.0674 I0.0014 J-0.0594
N6520 G3 X4.1062 Y2.9685 Z0.0609 I-0.0014 J0.0594
N6530 G3 X4.109 Y2.8498 Z0.0544 I0.0014 J-0.0594
N6540 G3 X4.1062 Y2.9685 Z0.0479 I-0.0014 J0.0594
N6550 G3 X4.109 Y2.8498 Z0.0414 I0.0014 J-0.0594
N6560 G3 X4.1062 Y2.9685 Z0.0349 I-0.0014 J0.0594
N6570 G3 X4.109 Y2.8498 Z0.0283 I0.0014 J-0.0594
N6580 G3 X4.1062 Y2.9685 Z0.0218 I-0.0014 J0.0594
N6590 G3 X4.109 Y2.8498 Z0.0153 I0.0014 J-0.0594
N6600 G3 X4.1062 Y2.9685 Z0.0088 I-0.0014 J0.0594
N6610 G3 X4.109 Y2.8498 Z0.0023 I0.0014 J-0.0594
N6620 G3 X4.1062 Y2.9685 Z-0.0042 I-0.0014 J0.0594
N6630 G3 X4.109 Y2.8498 Z-0.0107 I0.0014 J-0.0594
N6640 G3 X4.1062 Y2.9685 Z-0.0172 I-0.0014 J0.0594
N6650 G3 X4.109 Y2.8498 Z-0.0238 I0.0014 J-0.0594
N6660 G3 X4.1062 Y2.9685 Z-0.0303 I-0.0014 J0.0594
N6670 G3 X4.109 Y2.8498 Z-0.0368 I0.0014 J-0.0594
N6680 G3 X4.167 Y2.9091 Z-0.04 I-0.0014 J0.0594
N6690 G3 X4.14 I-0.0135 J0. F15.
N6700 G3 X4.2857 I0.0729 J0.
N6710 G3 X4.0213 I-0.1322 J0.
N6720 G3 X4.4045 I0.1916 J0.
N6730 G3 X3.9025 I-0.251 J0.
N6740 G3 X4.4045 I0.251 J0.
N6750 G3 X4.392 Y2.9216 I-0.0125 J0.
N6760 G1 X4.1719 Y2.9214
N6770 G3 X4.1618 Y2.9179 I-0.0013 J-0.0124
N6780 G1 X4.1413 Y2.898
N6790 G3 X4.1587 Y2.8801 I0.0087 J-0.009
N6800 G3 X4.1613 Y2.8837 I-0.0087 J0.009
N6810 G3 X4.054 Y2.9345 Z-0.0465 I-0.0537 J0.0254 F13.3
N6820 G3 X4.1613 Y2.8837 Z-0.053 I0.0537 J-0.0254
N6830 G3 X4.054 Y2.9345 Z-0.0595 I-0.0537 J0.0254
N6840 G3 X4.1613 Y2.8837 Z-0.0661 I0.0537 J-0.0254
N6850 G3 X4.054 Y2.9345 Z-0.0726 I-0.0537 J0.0254
N6860 G3 X4.1613 Y2.8837 Z-0.0791 I0.0537 J-0.0254
N6870 G3 X4.167 Y2.9091 Z-0.08 I-0.0537 J0.0254
N6880 G3 X4.14 I-0.0135 J0. F15.
N6890 G3 X4.2857 I0.0729 J0.
N6900 G3 X4.0213 I-0.1322 J0.
N6910 G3 X4.4045 I0.1916 J0.
N6920 G3 X3.9025 I-0.251 J0.
N6930 G3 X4.4045 I0.251 J0.
N6940 G3 X4.392 Y2.9216 I-0.0125 J0.
N6950 G1 X4.1719 Y2.9214
N6960 G3 X4.1618 Y2.9179 I-0.0013 J-0.0124
N6970 G1 X4.1413 Y2.898
N6980 G3 X4.1587 Y2.8801 I0.0087 J-0.009
N6990 G3 X4.1613 Y2.8837 I-0.0087 J0.009
N7000 G3 X4.054 Y2.9345 Z-0.0865 I-0.0537 J0.0254 F13.3
N7010 G3 X4.1613 Y2.8837 Z-0.093 I0.0537 J-0.0254
N7020 G3 X4.054 Y2.9345 Z-0.0995 I-0.0537 J0.0254
N7030 G3 X4.1613 Y2.8837 Z-0.1061 I0.0537 J-0.0254
N7040 G3 X4.054 Y2.9345 Z-0.1126 I-0.0537 J0.0254
N7050 G3 X4.1613 Y2.8837 Z-0.1191 I0.0537 J-0.0254
N7060 G3 X4.167 Y2.9091 Z-0.12 I-0.0537 J0.0254
N7070 G3 X4.14 I-0.0135 J0. F15.
N7080 G3 X4.2857 I0.0729 J0.
N7090 G3 X4.0213 I-0.1322 J0.
N7100 G3 X4.4045 I0.1916 J0.
N7110 G3 X3.9025 I-0.251 J0.
N7120 G3 X4.4045 I0.251 J0.
N7130 G3 X4.392 Y2.9216 I-0.0125 J0.
N7140 G1 X4.1719 Y2.9214
N7150 G3 X4.1618 Y2.9179 I-0.0013 J-0.0124
N7160 G1 X4.1413 Y2.898
N7170 G3 X4.1587 Y2.8801 I0.0087 J-0.009
N7180 G3 X4.1613 Y2.8837 I-0.0087 J0.009
N7190 G3 X4.054 Y2.9345 Z-0.1265 I-0.0537 J0.0254 F13.3
N7200 G3 X4.1613 Y2.8837 Z-0.133 I0.0537 J-0.0254
N7210 G3 X4.054 Y2.9345 Z-0.1395 I-0.0537 J0.0254
N7220 G3 X4.1613 Y2.8837 Z-0.1461 I0.0537 J-0.0254
N7230 G3 X4.054 Y2.9345 Z-0.1526 I-0.0537 J0.0254
N7240 G3 X4.1613 Y2.8837 Z-0.1591 I0.0537 J-0.0254
N7250 G3 X4.167 Y2.9091 Z-0.16 I-0.0537 J0.0254
N7260 G3 X4.14 I-0.0135 J0. F15.
N7270 G3 X4.2857 I0.0729 J0.
N7280 G3 X4.0213 I-0.1322 J0.
N7290 G3 X4.4045 I0.1916 J0.
N7300 G3 X3.9025 I-0.251 J0.
N7310 G3 X4.4045 I0.251 J0.
N7320 G3 X4.392 Y2.9216 I-0.0125 J0.
N7330 G1 X4.1719 Y2.9214
N7340 G3 X4.1618 Y2.9179 I-0.0013 J-0.0124
N7350 G1 X4.1413 Y2.898
N7360 G3 X4.1587 Y2.8801 I0.0087 J-0.009
N7370 G3 X4.1613 Y2.8837 I-0.0087 J0.009
N7380 G3 X4.054 Y2.9345 Z-0.1665 I-0.0537 J0.0254 F13.3
N7390 G3 X4.1613 Y2.8837 Z-0.173 I0.0537 J-0.0254
N7400 G3 X4.054 Y2.9345 Z-0.1795 I-0.0537 J0.0254
N7410 G3 X4.1613 Y2.8837 Z-0.1861 I0.0537 J-0.0254
N7420 G3 X4.054 Y2.9345 Z-0.1926 I-0.0537 J0.0254
N7430 G3 X4.1613 Y2.8837 Z-0.1991 I0.0537 J-0.0254
N7440 G3 X4.167 Y2.9091 Z-0.2 I-0.0537 J0.0254
N7450 G3 X4.14 I-0.0135 J0. F15.
N7460 G3 X4.2857 I0.0729 J0.
N7470 G3 X4.0213 I-0.1322 J0.
N7480 G3 X4.4045 I0.1916 J0.
N7490 G3 X3.9025 I-0.251 J0.
N7500 G3 X4.4045 I0.251 J0.
N7510 G3 X4.392 Y2.9216 I-0.0125 J0.
N7520 G1 X4.1719 Y2.9214
N7530 G3 X4.1618 Y2.9179 I-0.0013 J-0.0124
N7540 G1 X4.1413 Y2.898
N7550 G3 X4.1587 Y2.8801 I0.0087 J-0.009
N7560 G3 X4.1613 Y2.8837 I-0.0087 J0.009
N7570 G3 X4.054 Y2.9345 Z-0.2065 I-0.0537 J0.0254 F13.3
N7580 G3 X4.1613 Y2.8837 Z-0.213 I0.0537 J-0.0254
N7590 G3 X4.054 Y2.9345 Z-0.2195 I-0.0537 J0.0254
N7600 G3 X4.1613 Y2.8837 Z-0.2261 I0.0537 J-0.0254
N7610 G3 X4.054 Y2.9345 Z-0.2326 I-0.0537 J0.0254
N7620 G3 X4.1613 Y2.8837 Z-0.2391 I0.0537 J-0.0254
N7630 G3 X4.167 Y2.9091 Z-0.24 I-0.0537 J0.0254
N7640 G3 X4.14 I-0.0135 J0. F15.
N7650 G3 X4.2857 I0.0729 J0.
N7660 G3 X4.0213 I-0.1322 J0.
N7670 G3 X4.4045 I0.1916 J0.
N7680 G3 X3.9025 I-0.251 J0.
N7690 G3 X4.4045 I0.251 J0.
N7700 G3 X4.3925 Y2.9216 I-0.0125 J0.
N7710 G1 X4.1863 Y2.9298
N7720 G3 X4.1754 Y2.9266 I-0.0023 J-0.0123
N7730 G1 X4.1262 Y2.88
N7740 G3 X4.1421 Y2.8608 I0.0086 J-0.0091
N7750 G3 X4.0731 Y2.9575 Z-0.2465 I-0.0345 J0.0483 F13.3
N7760 G3 X4.1421 Y2.8608 Z-0.253 I0.0345 J-0.0483
N7770 G3 X4.167 Y2.9091 Z-0.255 I-0.0345 J0.0483
N7780 G3 X4.14 I-0.0135 J0. F15.
N7790 G3 X4.2857 I0.0729 J0.
N7800 G3 X4.0213 I-0.1322 J0.
N7810 G3 X4.4045 I0.1916 J0.
N7820 G3 X3.9025 I-0.251 J0.
N7830 G3 X4.4045 I0.251 J0.
N7840 G3 X4.4033 Y2.9167 Z-0.2538 I-0.025 J0.
N7850 G3 X4.4003 Y2.923 Z-0.2502 I-0.0238 J-0.0076
N7860 G3 X4.3967 Y2.9272 Z-0.2447 I-0.0208 J-0.0139
N7870 G3 X4.394 Y2.9295 Z-0.2377 I-0.0173 J-0.0181
N7880 G3 X4.393 Y2.9302 Z-0.23 I-0.0145 J-0.0204
N7890 G0 Z0.2
N7900 G0 X4.4963 Y3.5932
N7910 G1 Z0.125 F15.
N7920 G3 X4.4954 Y3.5925 Z0.1174 I0.0355 J-0.0476 F13.3
N7930 G3 X4.4928 Y3.5903 Z0.1106 I0.0364 J-0.0469
N7940 G3 X4.4889 Y3.5866 Z0.1051 I0.0391 J-0.0447
N7950 G3 X4.4846 Y3.5815 Z0.1014 I0.0429 J-0.041
N7960 G3 X4.4804 Y3.5753 Z0.1 I0.0473 J-0.0359
N7970 G3 X4.5833 Y3.5159 Z0.0935 I0.0514 J-0.0297
N7980 G3 X4.4804 Y3.5753 Z0.087 I-0.0514 J0.0297
N7990 G3 X4.5833 Y3.5159 Z0.0805 I0.0514 J-0.0297
N8000 G3 X4.4804 Y3.5753 Z0.0739 I-0.0514 J0.0297
N8010 G3 X4.5833 Y3.5159 Z0.0674 I0.0514 J-0.0297
N8020 G3 X4.4804 Y3.5753 Z0.0609 I-0.0514 J0.0297
N8030 G3 X4.5833 Y3.5159 Z0.0544 I0.0514 J-0.0297
N8040 G3 X4.4804 Y3.5753 Z0.0479 I-0.0514 J0.0297
N8050 G3 X4.5833 Y3.5159 Z0.0414 I0.0514 J-0.0297
N8060 G3 X4.4804 Y3.5753 Z0.0349 I-0.0514 J0.0297
N8070 G3 X4.5833 Y3.5159 Z0.0283 I0.0514 J-0.0297
N8080 G3 X4.4804 Y3.5753 Z0.0218 I-0.0514 J0.0297
N8090 G3 X4.5833 Y3.5159 Z0.0153 I0.0514 J-0.0297
N8100 G3 X4.4804 Y3.5753 Z0.0088 I-0.0514 J0.0297
N8110 G3 X4.5833 Y3.5159 Z0.0023 I0.0514 J-0.0297
N8120 G3 X4.4804 Y3.5753 Z-0.0042 I-0.0514 J0.0297
N8130 G3 X4.5833 Y3.5159 Z-0.0107 I0.0514 J-0.0297
N8140 G3 X4.4804 Y3.5753 Z-0.0172 I-0.0514 J0.0297
N8150 G3 X4.5833 Y3.5159 Z-0.0238 I0.0514 J-0.0297
N8160 G3 X4.4804 Y3.5753 Z-0.0303 I-0.0514 J0.0297
N8170 G3 X4.5833 Y3.5159 Z-0.0368 I0.0514 J-0.0297
N8180 G3 X4.5627 Y3.5963 Z-0.04 I-0.0514 J0.0297
N8190 G3 X4.5064 Y3.6273 I-0.3921 J-0.6449 F15.
N8200 G3 X4.4963 Y3.6211 I-0.0031 J-0.0063
N8210 G1 Y3.557
N8220 G3 X4.51 Y3.5333 I0.0274 J0.
N8230 G2 X4.6364 Y3.4423 I-0.3885 J-0.6734
N8240 G2 X4.7407 Y3.3267 I-0.4579 J-0.5181
N8250 G2 X4.7599 Y3.2966 I-0.2721 J-0.1948
N8260 G3 X4.7776 Y3.2656 I3.5787 J2.0228
N8270 G3 X4.8014 Y3.2519 I0.0238 J0.0137
N8280 G1 X4.864
N8290 G3 X4.8711 Y3.2633 I0. J0.0079
N8300 G3 X4.7985 Y3.3812 I-0.6868 J-0.3414
N8310 G3 X4.7066 Y3.4849 I-0.6709 J-0.5018
N8320 G3 X4.6119 Y3.5637 I-0.6151 J-0.6432
N8330 G3 X4.5627 Y3.5963 I-0.4413 J-0.6123
N8340 G2 X4.5272 Y3.6687 I0.0388 J0.0639
N8350 G3 X4.4859 Y3.7379 I-0.066 J0.0075
N8360 G3 X4.4635 Y3.7466 I-0.3324 J-0.8288
N8370 G2 X4.4035 Y3.6642 I-0.31 J0.1625
N8380 G1 Y3.483
N8390 G2 X4.7274 Y3.1591 I-0.25 J-0.5739
N8400 G1 X5.0108
N8410 G3 X4.4859 Y3.7379 I-0.8573 J-0.25
N8420 G3 X4.4744 Y3.7253 I-0.0034 J-0.0085
N8430 G1 X4.4923 Y3.6905
N8440 G1 X4.5764 Y3.5791
N8450 G1 X4.5798 Y3.5766
N8460 G3 X4.5814 Y3.5782 I0.0007 J0.001
N8470 G3 X4.5627 Y3.5963 Z-0.0409 I-0.0496 J-0.0327 F13.3
N8480 G3 X4.501 Y3.4949 Z-0.0474 I-0.0308 J-0.0507
N8490 G3 X4.5627 Y3.5963 Z-0.0539 I0.0308 J0.0507
N8500 G3 X4.501 Y3.4949 Z-0.0605 I-0.0308 J-0.0507
N8510 G3 X4.5627 Y3.5963 Z-0.067 I0.0308 J0.0507
N8520 G3 X4.501 Y3.4949 Z-0.0735 I-0.0308 J-0.0507
N8530 G3 X4.5627 Y3.5963 Z-0.08 I0.0308 J0.0507
N8540 G3 X4.5064 Y3.6273 I-0.3921 J-0.6449 F15.
N8550 G3 X4.4963 Y3.6211 I-0.0031 J-0.0063
N8560 G1 Y3.557
N8570 G3 X4.51 Y3.5333 I0.0274 J0.
N8580 G2 X4.6364 Y3.4423 I-0.3885 J-0.6734
N8590 G2 X4.7407 Y3.3267 I-0.4579 J-0.5181
N8600 G2 X4.7599 Y3.2966 I-0.2721 J-0.1948
N8610 G3 X4.7776 Y3.2656 I3.5787 J2.0228
N8620 G3 X4.8014 Y3.2519 I0.0238 J0.0137
N8630 G1 X4.864
N8640 G3 X4.8711 Y3.2633 I0. J0.0079
N8650 G3 X4.7985 Y3.3812 I-0.6868 J-0.3414
N8660 G3 X4.7066 Y3.4849 I-0.6709 J-0.5018
N8670 G3 X4.6119 Y3.5637 I-0.6151 J-0.6432
N8680 G3 X4.5627 Y3.5963 I-0.4413 J-0.6123
N8690 G2 X4.5272 Y3.6687 I0.0388 J0.0639
N8700 G3 X4.4859 Y3.7379 I-0.066 J0.0075
N8710 G3 X4.4635 Y3.7466 I-0.3324 J-0.8288
N8720 G2 X4.4035 Y3.6642 I-0.31 J0.1625
N8730 G1 Y3.483
N8740 G2 X4.7274 Y3.1591 I-0.25 J-0.5739
N8750 G1 X5.0108
N8760 G3 X4.4859 Y3.7379 I-0.8573 J-0.25
N8770 G3 X4.4744 Y3.7253 I-0.0034 J-0.0085
N8780 G1 X4.4923 Y3.6905
N8790 G1 X4.5764 Y3.5791
N8800 G1 X4.5798 Y3.5766
N8810 G3 X4.5814 Y3.5782 I0.0007 J0.001
N8820 G3 X4.5627 Y3.5963 Z-0.0809 I-0.0496 J-0.0327 F13.3
N8830 G3 X4.501 Y3.4949 Z-0.0874 I-0.0308 J-0.0507
N8840 G3 X4.5627 Y3.5963 Z-0.0939 I0.0308 J0.0507
N8850 G3 X4.501 Y3.4949 Z-0.1005 I-0.0308 J-0.0507
N8860 G3 X4.5627 Y3.5963 Z-0.107 I0.0308 J0.0507
N8870 G3 X4.501 Y3.4949 Z-0.1135 I-0.0308 J-0.0507
N8880 G3 X4.5627 Y3.5963 Z-0.12 I0.0308 J0.0507
N8890 G3 X4.5064 Y3.6273 I-0.3921 J-0.6449 F15.
N8900 G3 X4.4963 Y3.6211 I-0.0031 J-0.0063
N8910 G1 Y3.557
N8920 G3 X4.51 Y3.5333 I0.0274 J0.
N8930 G2 X4.6364 Y3.4423 I-0.3885 J-0.6734
N8940 G2 X4.7407 Y3.3267 I-0.4579 J-0.5181
N8950 G2 X4.7599 Y3.2966 I-0.2721 J-0.1948
N8960 G3 X4.7776 Y3.2656 I3.5787 J2.0228
N8970 G3 X4.8014 Y3.2519 I0.0238 J0.0137
N8980 G1 X4.864
N8990 G3 X4.8711 Y3.2633 I0. J0.0079
N9000 G3 X4.7985 Y3.3812 I-0.6868 J-0.3414
N9010 G3 X4.7066 Y3.4849 I-0.6709 J-0.5018
N9020 G3 X4.6119 Y3.5637 I-0.6151 J-0.6432
N9030 G3 X4.5627 Y3.5963 I-0.4413 J-0.6123
N9040 G2 X4.5272 Y3.6687 I0.0388 J0.0639
N9050 G3 X4.4859 Y3.7379 I-0.066 J0.0075
N9060 G3 X4.4635 Y3.7466 I-0.3324 J-0.8288
N9070 G2 X4.4035 Y3.6642 I-0.31 J0.1625
N9080 G1 Y3.483
N9090 G2 X4.7274 Y3.1591 I-0.25 J-0.5739
N9100 G1 X5.0108
N9110 G3 X4.4859 Y3.7379 I-0.8573 J-0.25
N9120 G3 X4.4744 Y3.7253 I-0.0034 J-0.0085
N9130 G1 X4.4923 Y3.6905
N9140 G1 X4.5764 Y3.5791
N9150 G1 X4.5798 Y3.5766
N9160 G3 X4.5814 Y3.5782 I0.0007 J0.001
N9170 G3 X4.5627 Y3.5963 Z-0.1209 I-0.0496 J-0.0327 F13.3
N9180 G3 X4.501 Y3.4949 Z-0.1274 I-0.0308 J-0.0507
N9190 G3 X4.5627 Y3.5963 Z-0.1339 I0.0308 J0.0507
N9200 G3 X4.501 Y3.4949 Z-0.1405 I-0.0308 J-0.0507
N9210 G3 X4.5627 Y3.5963 Z-0.147 I0.0308 J0.0507
N9220 G3 X4.501 Y3.4949 Z-0.1535 I-0.0308 J-0.0507
N9230 G3 X4.5627 Y3.5963 Z-0.16 I0.0308 J0.0507
N9240 G3 X4.5064 Y3.6273 I-0.3921 J-0.6449 F15.
N9250 G3 X4.4963 Y3.6211 I-0.0031 J-0.0063
N9260 G1 Y3.557
N9270 G3 X4.51 Y3.5333 I0.0274 J0.
N9280 G2 X4.6364 Y3.4423 I-0.3885 J-0.6734
N9290 G2 X4.7407 Y3.3267 I-0.4579 J-0.5181
N9300 G2 X4.7599 Y3.2966 I-0.2721 J-0.1948
N9310 G3 X4.7776 Y3.2656 I3.5787 J2.0228
N9320 G3 X4.8014 Y3.2519 I0.0238 J0.0137
N9330 G1 X4.864
N9340 G3 X4.8711 Y3.2633 I0. J0.0079
N9350 G3 X4.7985 Y3.3812 I-0.6868 J-0.3414
N9360 G3 X4.7066 Y3.4849 I-0.6709 J-0.5018
N9370 G3 X4.6119 Y3.5637 I-0.6151 J-0.6432
N9380 G3 X4.5627 Y3.5963 I-0.4413 J-0.6123
N9390 G2 X4.5272 Y3.6687 I0.0388 J0.0639
N9400 G3 X4.4859 Y3.7379 I-0.066 J0.0075
N9410 G3 X4.4635 Y3.7466 I-0.3324 J-0.8288
N9420 G2 X4.4035 Y3.6642 I-0.31 J0.1625
N9430 G1 Y3.483
N9440 G2 X4.7274 Y3.1591 I-0.25 J-0.5739
N9450 G1 X5.0108
N9460 G3 X4.4859 Y3.7379 I-0.8573 J-0.25
N9470 G3 X4.4744 Y3.7253 I-0.0034 J-0.0085
N9480 G1 X4.4923 Y3.6905
N9490 G1 X4.5764 Y3.5791
N9500 G1 X4.5798 Y3.5766
N9510 G3 X4.5814 Y3.5782 I0.0007 J0.001
N9520 G3 X4.5627 Y3.5963 Z-0.1609 I-0.0496 J-0.0327 F13.3
N9530 G3 X4.501 Y3.4949 Z-0.1674 I-0.0308 J-0.0507
N9540 G3 X4.5627 Y3.5963 Z-0.1739 I0.0308 J0.0507
N9550 G3 X4.501 Y3.4949 Z-0.1805 I-0.0308 J-0.0507
N9560 G3 X4.5627 Y3.5963 Z-0.187 I0.0308 J0.0507
N9570 G3 X4.501 Y3.4949 Z-0.1935 I-0.0308 J-0.0507
N9580 G3 X4.5627 Y3.5963 Z-0.2 I0.0308 J0.0507
N9590 G3 X4.5064 Y3.6273 I-0.3921 J-0.6449 F15.
N9600 G3 X4.4963 Y3.6211 I-0.0031 J-0.0063
N9610 G1 Y3.557
N9620 G3 X4.51 Y3.5333 I0.0274 J0.
N9630 G2 X4.6364 Y3.4423 I-0.3885 J-0.6734
N9640 G2 X4.7407 Y3.3267 I-0.4579 J-0.5181
N9650 G2 X4.7599 Y3.2966 I-0.2721 J-0.1948
N9660 G3 X4.7776 Y3.2656 I3.5787 J2.0228
N9670 G3 X4.8014 Y3.2519 I0.0238 J0.0137
N9680 G1 X4.864
N9690 G3 X4.8711 Y3.2633 I0. J0.0079
N9700 G3 X4.7985 Y3.3812 I-0.6868 J-0.3414
N9710 G3 X4.7066 Y3.4849 I-0.6709 J-0.5018
N9720 G3 X4.6119 Y3.5637 I-0.6151 J-0.6432
N9730 G3 X4.5627 Y3.5963 I-0.4413 J-0.6123
N9740 G2 X4.5272 Y3.6687 I0.0388 J0.0639
N9750 G3 X4.4859 Y3.7379 I-0.066 J0.0075
N9760 G3 X4.4635 Y3.7466 I-0.3324 J-0.8288
N9770 G2 X4.4035 Y3.6642 I-0.31 J0.1625
N9780 G1 Y3.483
N9790 G2 X4.7274 Y3.1591 I-0.25 J-0.5739
N9800 G1 X5.0108
N9810 G3 X4.4859 Y3.7379 I-0.8573 J-0.25
N9820 G3 X4.4744 Y3.7253 I-0.0034 J-0.0085
N9830 G1 X4.4923 Y3.6905
N9840 G1 X4.5764 Y3.5791
N9850 G1 X4.5798 Y3.5766
N9860 G3 X4.5814 Y3.5782 I0.0007 J0.001
N9870 G3 X4.5627 Y3.5963 Z-0.2009 I-0.0496 J-0.0327 F13.3
N9880 G3 X4.501 Y3.4949 Z-0.2074 I-0.0308 J-0.0507
N9890 G3 X4.5627 Y3.5963 Z-0.2139 I0.0308 J0.0507
N9900 G3 X4.501 Y3.4949 Z-0.2205 I-0.0308 J-0.0507
N9910 G3 X4.5627 Y3.5963 Z-0.227 I0.0308 J0.0507
N9920 G3 X4.501 Y3.4949 Z-0.2335 I-0.0308 J-0.0507
N9930 G3 X4.5627 Y3.5963 Z-0.24 I0.0308 J0.0507
N9940 G3 X4.5064 Y3.6273 I-0.3921 J-0.6449 F15.
N9950 G3 X4.4963 Y3.6211 I-0.0031 J-0.0063
N9960 G1 Y3.557
N9970 G3 X4.51 Y3.5333 I0.0274 J0.
N9980 G2 X4.6364 Y3.4423 I-0.3885 J-0.6734
N9990 G2 X4.7407 Y3.3267 I-0.4579 J-0.5181
N10000 G2 X4.7599 Y3.2966 I-0.2721 J-0.1948
N10010 G3 X4.7776 Y3.2656 I3.5787 J2.0228
N10020 G3 X4.8014 Y3.2519 I0.0238 J0.0137
N10030 G1 X4.864
N10040 G3 X4.8711 Y3.2633 I0. J0.0079
N10050 G3 X4.7985 Y3.3812 I-0.6868 J-0.3414
N10060 G3 X4.7066 Y3.4849 I-0.6709 J-0.5018
N10070 G3 X4.6119 Y3.5637 I-0.6151 J-0.6432
N10080 G3 X4.5627 Y3.5963 I-0.4413 J-0.6123
N10090 G2 X4.5272 Y3.6687 I0.0388 J0.0639
N10100 G3 X4.4859 Y3.7379 I-0.066 J0.0075
N10110 G3 X4.4635 Y3.7466 I-0.3324 J-0.8288
N10120 G2 X4.4035 Y3.6642 I-0.31 J0.1625
N10130 G1 Y3.483
N10140 G2 X4.7274 Y3.1591 I-0.25 J-0.5739
N10150 G1 X5.0108
N10160 G3 X4.4859 Y3.7379 I-0.8573 J-0.25
N10170 G3 X4.4742 Y3.7256 I-0.0034 J-0.0085
N10180 G1 X4.491 Y3.6896
N10190 G1 X4.5813 Y3.5547
N10200 G1 X4.5875 Y3.5483
N10210 G3 X4.591 Y3.5499 I0.0015 J0.0015
N10220 G3 X4.4726 Y3.5412 Z-0.2465 I-0.0592 J-0.0044 F13.3
N10230 G3 X4.591 Y3.5499 Z-0.253 I0.0592 J0.0044
N10240 G3 X4.5627 Y3.5963 Z-0.255 I-0.0592 J-0.0044
N10250 G3 X4.5064 Y3.6273 I-0.3921 J-0.6449 F15.
N10260 G3 X4.4963 Y3.6211 I-0.0031 J-0.0063
N10270 G1 Y3.557
N10280 G3 X4.51 Y3.5333 I0.0274 J0.
N10290 G2 X4.6364 Y3.4423 I-0.3885 J-0.6734
N10300 G2 X4.7407 Y3.3267 I-0.4579 J-0.5181
N10310 G2 X4.7599 Y3.2966 I-0.2721 J-0.1948
N10320 G3 X4.7776 Y3.2656 I3.5787 J2.0228
N10330 G3 X4.8014 Y3.2519 I0.0238 J0.0137
N10340 G1 X4.864
N10350 G3 X4.8711 Y3.2633 I0. J0.0079
N10360 G3 X4.7985 Y3.3812 I-0.6868 J-0.3414
N10370 G3 X4.7066 Y3.4849 I-0.6709 J-0.5018
N10380 G3 X4.6119 Y3.5637 I-0.6151 J-0.6432
N10390 G3 X4.5627 Y3.5963 I-0.4413 J-0.6123
N10400 G2 X4.5272 Y3.6687 I0.0388 J0.0639
N10410 G3 X4.4859 Y3.7379 I-0.066 J0.0075
N10420 G3 X4.4635 Y3.7466 I-0.3324 J-0.8288
N10430 G2 X4.4035 Y3.6642 I-0.31 J0.1625
N10440 G1 Y3.483
N10450 G2 X4.7274 Y3.1591 I-0.25 J-0.5739
N10460 G1 X5.0108
N10470 G3 X4.4859 Y3.7379 I-0.8573 J-0.25
N10480 G3 X4.4785 Y3.7409 Z-0.2537 I-0.3324 J-0.8288
N10490 G3 X4.4719 Y3.7434 Z-0.2499 I-0.325 J-0.8317
N10500 G3 X4.4666 Y3.7454 Z-0.244 I-0.3183 J-0.8343
N10510 G3 X4.4635 Y3.7466 Z-0.2367 I-0.3131 J-0.8363
N10520 G2 X4.463 Y3.7458 Z-0.23 I-0.31 J0.1625
N10530 G0 Z0.2
N10540 G0 X3.6792 Y3.5007
N10550 G1 Z0.125 F15.
N10560 G3 X3.6795 Y3.4995 Z0.1174 I0.0583 J0.0111 F13.3
N10570 G3 X3.6803 Y3.4962 Z0.1106 I0.0581 J0.0123
N10580 G3 X3.6819 Y3.4912 Z0.1051 I0.0573 J0.0156
N10590 G3 X3.6846 Y3.485 Z0.1014 I0.0557 J0.0206
N10600 G3 X3.6884 Y3.4785 Z0.1 I0.053 J0.0268
N10610 G3 X3.7867 Y3.545 Z0.0935 I0.0492 J0.0333
N10620 G3 X3.6884 Y3.4785 Z0.087 I-0.0492 J-0.0333
N10630 G3 X3.7867 Y3.545 Z0.0805 I0.0492 J0.0333
N10640 G3 X3.6884 Y3.4785 Z0.0739 I-0.0492 J-0.0333
N10650 G3 X3.7867 Y3.545 Z0.0674 I0.0492 J0.0333
N10660 G3 X3.6884 Y3.4785 Z0.0609 I-0.0492 J-0.0333
N10670 G3 X3.7867 Y3.545 Z0.0544 I0.0492 J0.0333
N10680 G3 X3.6884 Y3.4785 Z0.0479 I-0.0492 J-0.0333
N10690 G3 X3.7867 Y3.545 Z0.0414 I0.0492 J0.0333
N10700 G3 X3.6884 Y3.4785 Z0.0349 I-0.0492 J-0.0333
N10710 G3 X3.7867 Y3.545 Z0.0283 I0.0492 J0.0333
N10720 G3 X3.6884 Y3.4785 Z0.0218 I-0.0492 J-0.0333
N10730 G3 X3.7867 Y3.545 Z0.0153 I0.0492 J0.0333
N10740 G3 X3.6884 Y3.4785 Z0.0088 I-0.0492 J-0.0333
N10750 G3 X3.7867 Y3.545 Z0.0023 I0.0492 J0.0333
N10760 G3 X3.6884 Y3.4785 Z-0.0042 I-0.0492 J-0.0333
N10770 G3 X3.7867 Y3.545 Z-0.0107 I0.0492 J0.0333
N10780 G3 X3.6884 Y3.4785 Z-0.0172 I-0.0492 J-0.0333
N10790 G3 X3.7867 Y3.545 Z-0.0238 I0.0492 J0.0333
N10800 G3 X3.6884 Y3.4785 Z-0.0303 I-0.0492 J-0.0333
N10810 G3 X3.7867 Y3.545 Z-0.0368 I0.0492 J0.0333
N10820 G3 X3.7054 Y3.5617 Z-0.04 I-0.0492 J-0.0333
N10830 G2 X3.6991 Y3.5577 I-0.2034 J0.3162 F15.
N10840 G3 X3.6868 Y3.5495 I0.1039 J-0.169
N10850 G3 X3.6841 Y3.5318 I0.0074 J-0.0102
N10860 G2 X3.7078 Y3.4989 I-0.8904 J-0.6657
N10870 G3 X3.725 Y3.4959 I0.01 J0.0069
N10880 G2 X3.789 Y3.5377 I0.4467 J-0.615
N10890 G3 X3.8029 Y3.5618 I-0.0139 J0.0241
N10900 G1 Y3.6071
N10910 G3 X3.7916 Y3.614 I-0.0078 J0.
N10920 G3 X3.7508 Y3.591 I0.2831 J-0.5479
N10930 G3 X3.7114 Y3.5656 I0.6532 J-1.0585
N10940 G2 X3.7054 Y3.5617 I-0.2093 J0.3123
N10950 G2 X3.6309 Y3.554 I-0.0449 J0.0698
N10960 G3 X3.5866 Y3.4935 I-0.0139 J-0.0363
N10970 G2 X3.6908 Y3.3308 I-0.7331 J-0.5844
N10980 G2 X3.9035 Y3.483 I0.4627 J-0.4217
N10990 G1 Y3.6642
N11000 G2 X3.8435 Y3.7466 I0.25 J0.245
N11010 G3 X3.5348 Y3.5531 I0.3099 J-0.8375
N11020 G2 X3.5866 Y3.4935 I-0.6813 J-0.644
N11030 G3 X3.6012 Y3.4897 I0.0098 J0.0078
N11040 G1 X3.677 Y3.5212
N11050 G2 X3.6829 Y3.5221 I0.0048 J-0.0115
N11060 G3 X3.6897 Y3.5233 I0.0012 J0.0124
N11070 G1 X3.7371 Y3.5471
N11080 G3 X3.7299 Y3.5707 I-0.0056 J0.0112
N11090 G3 X3.7054 Y3.5617 Z-0.0409 I0.0077 J-0.0589 F13.3
N11100 G3 X3.7697 Y3.4618 Z-0.0474 I0.0321 J-0.0499
N11110 G3 X3.7054 Y3.5617 Z-0.0539 I-0.0321 J0.0499
N11120 G3 X3.7697 Y3.4618 Z-0.0605 I0.0321 J-0.0499
N11130 G3 X3.7054 Y3.5617 Z-0.067 I-0.0321 J0.0499
N11140 G3 X3.7697 Y3.4618 Z-0.0735 I0.0321 J-0.0499
N11150 G3 X3.7054 Y3.5617 Z-0.08 I-0.0321 J0.0499
N11160 G2 X3.6991 Y3.5577 I-0.2034 J0.3162 F15.
N11170 G3 X3.6868 Y3.5495 I0.1039 J-0.169
N11180 G3 X3.6841 Y3.5318 I0.0074 J-0.0102
N11190 G2 X3.7078 Y3.4989 I-0.8904 J-0.6657
N11200 G3 X3.725 Y3.4959 I0.01 J0.0069
N11210 G2 X3.789 Y3.5377 I0.4467 J-0.615
N11220 G3 X3.8029 Y3.5618 I-0.0139 J0.0241
N11230 G1 Y3.6071
N11240 G3 X3.7916 Y3.614 I-0.0078 J0.
N11250 G3 X3.7508 Y3.591 I0.2831 J-0.5479
N11260 G3 X3.7114 Y3.5656 I0.6532 J-1.0585
N11270 G2 X3.7054 Y3.5617 I-0.2093 J0.3123
N11280 G2 X3.6309 Y3.554 I-0.0449 J0.0698
N11290 G3 X3.5866 Y3.4935 I-0.0139 J-0.0363
N11300 G2 X3.6908 Y3.3308 I-0.7331 J-0.5844
N11310 G2 X3.9035 Y3.483 I0.4627 J-0.4217
N11320 G1 Y3.6642
N11330 G2 X3.8435 Y3.7466 I0.25 J0.245
N11340 G3 X3.5348 Y3.5531 I0.3099 J-0.8375
N11350 G2 X3.5866 Y3.4935 I-0.6813 J-0.644
N11360 G3 X3.6012 Y3.4897 I0.0098 J0.0078
N11370 G1 X3.677 Y3.5212
N11380 G2 X3.6829 Y3.5221 I0.0048 J-0.0115
N11390 G3 X3.6897 Y3.5233 I0.0012 J0.0124
N11400 G1 X3.7371 Y3.5471
N11410 G3 X3.7299 Y3.5707 I-0.0056 J0.0112
N11420 G3 X3.7054 Y3.5617 Z-0.0809 I0.0077 J-0.0589 F13.3
N11430 G3 X3.7697 Y3.4618 Z-0.0874 I0.0321 J-0.0499
N11440 G3 X3.7054 Y3.5617 Z-0.0939 I-0.0321 J0.0499
N11450 G3 X3.7697 Y3.4618 Z-0.1005 I0.0321 J-0.0499
N11460 G3 X3.7054 Y3.5617 Z-0.107 I-0.0321 J0.0499
N11470 G3 X3.7697 Y3.4618 Z-0.1135 I0.0321 J-0.0499
N11480 G3 X3.7054 Y3.5617 Z-0.12 I-0.0321 J0.0499
N11490 G2 X3.6991 Y3.5577 I-0.2034 J0.3162 F15.
N11500 G3 X3.6868 Y3.5495 I0.1039 J-0.169
N11510 G3 X3.6841 Y3.5318 I0.0074 J-0.0102
N11520 G2 X3.7078 Y3.4989 I-0.8904 J-0.6657
N11530 G3 X3.725 Y3.4959 I0.01 J0.0069
N11540 G2 X3.789 Y3.5377 I0.4467 J-0.615
N11550 G3 X3.8029 Y3.5618 I-0.0139 J0.0241
N11560 G1 Y3.6071
N11570 G3 X3.7916 Y3.614 I-0.0078 J0.
N11580 G3 X3.7508 Y3.591 I0.2831 J-0.5479
N11590 G3 X3.7114 Y3.5656 I0.6532 J-1.0585
N11600 G2 X3.7054 Y3.5617 I-0.2093 J0.3123
N11610 G2 X3.6309 Y3.554 I-0.0449 J0.0698
N11620 G3 X3.5866 Y3.4935 I-0.0139 J-0.0363
N11630 G2 X3.6908 Y3.3308 I-0.7331 J-0.5844
N11640 G2 X3.9035 Y3.483 I0.4627 J-0.4217
N11650 G1 Y3.6642
N11660 G2 X3.8435 Y3.7466 I0.25 J0.245
N11670 G3 X3.5348 Y3.5531 I0.3099 J-0.8375
N11680 G2 X3.5866 Y3.4935 I-0.6813 J-0.644
N11690 G3 X3.6012 Y3.4897 I0.0098 J0.0078
N11700 G1 X3.677 Y3.5212
N11710 G2 X3.6829 Y3.5221 I0.0048 J-0.0115
N11720 G3 X3.6897 Y3.5233 I0.0012 J0.0124
N11730 G1 X3.7371 Y3.5471
N11740 G3 X3.7299 Y3.5707 I-0.0056 J0.0112
N11750 G3 X3.7054 Y3.5617 Z-0.1209 I0.0077 J-0.0589 F13.3
N11760 G3 X3.7697 Y3.4618 Z-0.1274 I0.0321 J-0.0499
N11770 G3 X3.7054 Y3.5617 Z-0.1339 I-0.0321 J0.0499
N11780 G3 X3.7697 Y3.4618 Z-0.1405 I0.0321 J-0.0499
N11790 G3 X3.7054 Y3.5617 Z-0.147 I-0.0321 J0.0499
N11800 G3 X3.7697 Y3.4618 Z-0.1535 I0.0321 J-0.0499
N11810 G3 X3.7054 Y3.5617 Z-0.16 I-0.0321 J0.0499
N11820 G2 X3.6991 Y3.5577 I-0.2034 J0.3162 F15.
N11830 G3 X3.6868 Y3.5495 I0.1039 J-0.169
N11840 G3 X3.6841 Y3.5318 I0.0074 J-0.0102
N11850 G2 X3.7078 Y3.4989 I-0.8904 J-0.6657
N11860 G3 X3.725 Y3.4959 I0.01 J0.0069
N11870 G2 X3.789 Y3.5377 I0.4467 J-0.615
N11880 G3 X3.8029 Y3.5618 I-0.0139 J0.0241
N11890 G1 Y3.6071
N11900 G3 X3.7916 Y3.614 I-0.0078 J0.
N11910 G3 X3.7508 Y3.591 I0.2831 J-0.5479
N11920 G3 X3.7114 Y3.5656 I0.6532 J-1.0585
N11930 G2 X3.7054 Y3.5617 I-0.2093 J0.3123
N11940 G2 X3.6309 Y3.554 I-0.0449 J0.0698
N11950 G3 X3.5866 Y3.4935 I-0.0139 J-0.0363
N11960 G2 X3.6908 Y3.3308 I-0.7331 J-0.5844
N11970 G2 X3.9035 Y3.483 I0.4627 J-0.4217
N11980 G1 Y3.6642
N11990 G2 X3.8435 Y3.7466 I0.25 J0.245
N12000 G3 X3.5348 Y3.5531 I0.3099 J-0.8375
N12010 G2 X3.5866 Y3.4935 I-0.6813 J-0.644
N12020 G3 X3.6012 Y3.4897 I0.0098 J0.0078
N12030 G1 X3.677 Y3.5212
N12040 G2 X3.6829 Y3.5221 I0.0048 J-0.0115
N12050 G3 X3.6897 Y3.5233 I0.0012 J0.0124
N12060 G1 X3.7371 Y3.5471
N12070 G3 X3.7299 Y3.5707 I-0.0056 J0.0112
N12080 G3 X3.7054 Y3.5617 Z-0.1609 I0.0077 J-0.0589 F13.3
N12090 G3 X3.7697 Y3.4618 Z-0.1674 I0.0321 J-0.0499
N12100 G3 X3.7054 Y3.5617 Z-0.1739 I-0.0321 J0.0499
N12110 G3 X3.7697 Y3.4618 Z-0.1805 I0.0321 J-0.0499
N12120 G3 X3.7054 Y3.5617 Z-0.187 I-0.0321 J0.0499
N12130 G3 X3.7697 Y3.4618 Z-0.1935 I0.0321 J-0.0499
N12140 G3 X3.7054 Y3.5617 Z-0.2 I-0.0321 J0.0499
N12150 G2 X3.6991 Y3.5577 I-0.2034 J0.3162 F15.
N12160 G3 X3.6868 Y3.5495 I0.1039 J-0.169
N12170 G3 X3.6841 Y3.5318 I0.0074 J-0.0102
N12180 G2 X3.7078 Y3.4989 I-0.8904 J-0.6657
N12190 G3 X3.725 Y3.4959 I0.01 J0.0069
N12200 G2 X3.789 Y3.5377 I0.4467 J-0.615
N12210 G3 X3.8029 Y3.5618 I-0.0139 J0.0241
N12220 G1 Y3.6071
N12230 G3 X3.7916 Y3.614 I-0.0078 J0.
N12240 G3 X3.7508 Y3.591 I0.2831 J-0.5479
N12250 G3 X3.7114 Y3.5656 I0.6532 J-1.0585
N12260 G2 X3.7054 Y3.5617 I-0.2093 J0.3123
N12270 G2 X3.6309 Y3.554 I-0.0449 J0.0698
N12280 G3 X3.5866 Y3.4935 I-0.0139 J-0.0363
N12290 G2 X3.6908 Y3.3308 I-0.7331 J-0.5844
N12300 G2 X3.9035 Y3.483 I0.4627 J-0.4217
N12310 G1 Y3.6642
N12320 G2 X3.8435 Y3.7466 I0.25 J0.245
N12330 G3 X3.5348 Y3.5531 I0.3099 J-0.8375
N12340 G2 X3.5866 Y3.4935 I-0.6813 J-0.644
N12350 G3 X3.6012 Y3.4897 I0.0098 J0.0078
N12360 G1 X3.677 Y3.5212
N12370 G2 X3.6829 Y3.5221 I0.0048 J-0.0115
N12380 G3 X3.6897 Y3.5233 I0.0012 J0.0124
N12390 G1 X3.7371 Y3.5471
N12400 G3 X3.7299 Y3.5707 I-0.0056 J0.0112
N12410 G3 X3.7054 Y3.5617 Z-0.2009 I0.0077 J-0.0589 F13.3
N12420 G3 X3.7697 Y3.4618 Z-0.2074 I0.0321 J-0.0499
N12430 G3 X3.7054 Y3.5617 Z-0.2139 I-0.0321 J0.0499
N12440 G3 X3.7697 Y3.4618 Z-0.2205 I0.0321 J-0.0499
N12450 G3 X3.7054 Y3.5617 Z-0.227 I-0.0321 J0.0499
N12460 G3 X3.7697 Y3.4618 Z-0.2335 I0.0321 J-0.0499
N12470 G3 X3.7054 Y3.5617 Z-0.24 I-0.0321 J0.0499
N12480 G2 X3.6991 Y3.5577 I-0.2034 J0.3162 F15.
N12490 G3 X3.6868 Y3.5495 I0.1039 J-0.169
N12500 G3 X3.6841 Y3.5318 I0.0074 J-0.0102
N12510 G2 X3.7078 Y3.4989 I-0.8904 J-0.6657
N12520 G3 X3.725 Y3.4959 I0.01 J0.0069
N12530 G2 X3.789 Y3.5377 I0.4467 J-0.615
N12540 G3 X3.8029 Y3.5618 I-0.0139 J0.0241
N12550 G1 Y3.6071
N12560 G3 X3.7916 Y3.614 I-0.0078 J0.
N12570 G3 X3.7508 Y3.591 I0.2831 J-0.5479
N12580 G3 X3.7114 Y3.5656 I0.6532 J-1.0585
N12590 G2 X3.7054 Y3.5617 I-0.2093 J0.3123
N12600 G2 X3.6309 Y3.554 I-0.0449 J0.0698
N12610 G3 X3.5866 Y3.4935 I-0.0139 J-0.0363
N12620 G2 X3.6908 Y3.3308 I-0.7331 J-0.5844
N12630 G2 X3.9035 Y3.483 I0.4627 J-0.4217
N12640 G1 Y3.6642
N12650 G2 X3.8435 Y3.7466 I0.25 J0.245
N12660 G3 X3.5348 Y3.5531 I0.3099 J-0.8375
N12670 G2 X3.5866 Y3.4935 I-0.6813 J-0.644
N12680 G3 X3.6023 Y3.4903 I0.0098 J0.0078
N12690 G1 X3.7289 Y3.5589
N12700 G2 X3.7325 Y3.5602 I0.006 J-0.011
N12710 G1 X3.757 Y3.5648
N12720 G1 X3.7596 Y3.5669
N12730 G3 X3.7156 Y3.4566 Z-0.2465 I-0.022 J-0.0551 F13.3
N12740 G3 X3.7596 Y3.5669 Z-0.253 I0.022 J0.0551
N12750 G3 X3.7054 Y3.5617 Z-0.255 I-0.022 J-0.0551
N12760 G2 X3.6991 Y3.5577 I-0.2034 J0.3162 F15.
N12770 G3 X3.6868 Y3.5495 I0.1039 J-0.169
N12780 G3 X3.6841 Y3.5318 I0.0074 J-0.0102
N12790 G2 X3.7078 Y3.4989 I-0.8904 J-0.6657
N12800 G3 X3.725 Y3.4959 I0.01 J0.0069
N12810 G2 X3.789 Y3.5377 I0.4467 J-0.615
N12820 G3 X3.8029 Y3.5618 I-0.0139 J0.0241
N12830 G1 Y3.6071
N12840 G3 X3.7916 Y3.614 I-0.0078 J0.
N12850 G3 X3.7508 Y3.591 I0.2831 J-0.5479
N12860 G3 X3.7114 Y3.5656 I0.6532 J-1.0585
N12870 G2 X3.7054 Y3.5617 I-0.2093 J0.3123
N12880 G2 X3.6309 Y3.554 I-0.0449 J0.0698
N12890 G3 X3.5866 Y3.4935 I-0.0139 J-0.0363
N12900 G2 X3.6908 Y3.3308 I-0.7331 J-0.5844
N12910 G2 X3.9035 Y3.483 I0.4627 J-0.4217
N12920 G1 Y3.6642
N12930 G2 X3.8435 Y3.7466 I0.25 J0.245
N12940 G3 X3.5348 Y3.5531 I0.3099 J-0.8375
N12950 G2 X3.5866 Y3.4935 I-0.6813 J-0.644
N12960 G3 X3.5923 Y3.4883 Z-0.2538 I0.0195 J0.0156
N12970 G3 X3.5985 Y3.4853 Z-0.2502 I0.0139 J0.0208
N12980 G3 X3.6039 Y3.4842 Z-0.2447 I0.0076 J0.0238
N12990 G3 X3.6075 Y3.4841 Z-0.2377 I0.0022 J0.0249
N13000 G3 X3.6087 Y3.4842 Z-0.23 I-0.0013 J0.025
N13010 G0 Z0.2
N13020 G0 X2.9282 Y2.8541
N13030 G1 Z0.125 F15.
N13040 G3 X2.9293 Y2.8536 Z0.1174 I0.0222 J0.0551 F13.3
N13050 G3 X2.9325 Y2.8525 Z0.1106 I0.0211 J0.0555
N13060 G3 X2.9376 Y2.8511 Z0.1051 I0.0179 J0.0566
N13070 G3 X2.9442 Y2.8501 Z0.1014 I0.0128 J0.058
N13080 G3 X2.9517 Y2.8498 Z0.1 I0.0061 J0.0591
N13090 G3 X2.949 Y2.9685 Z0.0935 I-0.0014 J0.0594
N13100 G3 X2.9517 Y2.8498 Z0.087 I0.0014 J-0.0594
N13110 G3 X2.949 Y2.9685 Z0.0805 I-0.0014 J0.0594
N13120 G3 X2.9517 Y2.8498 Z0.0739 I0.0014 J-0.0594
N13130 G3 X2.949 Y2.9685 Z0.0674 I-0.0014 J0.0594
N13140 G3 X2.9517 Y2.8498 Z0.0609 I0.0014 J-0.0594
N13150 G3 X2.949 Y2.9685 Z0.0544 I-0.0014 J0.0594
N13160 G3 X2.9517 Y2.8498 Z0.0479 I0.0014 J-0.0594
N13170 G3 X2.949 Y2.9685 Z0.0414 I-0.0014 J0.0594
N13180 G3 X2.9517 Y2.8498 Z0.0349 I0.0014 J-0.0594
N13190 G3 X2.949 Y2.9685 Z0.0283 I-0.0014 J0.0594
N13200 G3 X2.9517 Y2.8498 Z0.0218 I0.0014 J-0.0594
N13210 G3 X2.949 Y2.9685 Z0.0153 I-0.0014 J0.0594
N13220 G3 X2.9517 Y2.8498 Z0.0088 I0.0014 J-0.0594
N13230 G3 X2.949 Y2.9685 Z0.0023 I-0.0014 J0.0594
N13240 G3 X2.9517 Y2.8498 Z-0.0042 I0.0014 J-0.0594
N13250 G3 X2.949 Y2.9685 Z-0.0107 I-0.0014 J0.0594
N13260 G3 X2.9517 Y2.8498 Z-0.0172 I0.0014 J-0.0594
N13270 G3 X2.949 Y2.9685 Z-0.0238 I-0.0014 J0.0594
N13280 G3 X2.9517 Y2.8498 Z-0.0303 I0.0014 J-0.0594
N13290 G3 X2.949 Y2.9685 Z-0.0368 I-0.0014 J0.0594
N13300 G3 X2.891 Y2.9091 Z-0.04 I0.0014 J-0.0594
N13310 G3 X2.9347 I0.0219 J0. F15.
N13320 G3 X2.7723 I-0.0813 J0.
N13330 G3 X3.0535 I0.1406 J0.
N13340 G3 X2.6535 I-0.2 J0.
N13350 G3 X3.1722 I0.2594 J0.
N13360 G3 X2.5348 I-0.3188 J0.
N13370 G3 X3.291 I0.3781 J0.
N13380 G3 X2.416 I-0.4375 J0.
N13390 G3 X3.291 I0.4375 J0.
N13400 G3 X3.2771 Y2.9215 I-0.0125 J0.
N13410 G1 X3.089 Y2.9002
N13420 G2 X3.085 Y2.9004 I-0.0011 J0.0125
N13430 G1 X2.9109 Y2.9413
N13440 G3 X2.8967 Y2.9345 I-0.0029 J-0.0122
N13450 G3 X3.004 Y2.8837 Z-0.0465 I0.0537 J-0.0254 F13.3
N13460 G3 X2.8967 Y2.9345 Z-0.053 I-0.0537 J0.0254
N13470 G3 X3.004 Y2.8837 Z-0.0595 I0.0537 J-0.0254
N13480 G3 X2.8967 Y2.9345 Z-0.0661 I-0.0537 J0.0254
N13490 G3 X3.004 Y2.8837 Z-0.0726 I0.0537 J-0.0254
N13500 G3 X2.8967 Y2.9345 Z-0.0791 I-0.0537 J0.0254
N13510 G3 X2.891 Y2.9091 Z-0.08 I0.0537 J-0.0254
N13520 G3 X2.9347 I0.0219 J0. F15.
N13530 G3 X2.7723 I-0.0813 J0.
N13540 G3 X3.0535 I0.1406 J0.
N13550 G3 X2.6535 I-0.2 J0.
N13560 G3 X3.1722 I0.2594 J0.
N13570 G3 X2.5348 I-0.3188 J0.
N13580 G3 X3.291 I0.3781 J0.
N13590 G3 X2.416 I-0.4375 J0.
N13600 G3 X3.291 I0.4375 J0.
N13610 G3 X3.2771 Y2.9215 I-0.0125 J0.
N13620 G1 X3.089 Y2.9002
N13630 G2 X3.085 Y2.9004 I-0.0011 J0.0125
N13640 G1 X2.9109 Y2.9413
N13650 G3 X2.8967 Y2.9345 I-0.0029 J-0.0122
N13660 G3 X3.004 Y2.8837 Z-0.0865 I0.0537 J-0.0254 F13.3
N13670 G3 X2.8967 Y2.9345 Z-0.093 I-0.0537 J0.0254
N13680 G3 X3.004 Y2.8837 Z-0.0995 I0.0537 J-0.0254
N13690 G3 X2.8967 Y2.9345 Z-0.1061 I-0.0537 J0.0254
N13700 G3 X3.004 Y2.8837 Z-0.1126 I0.0537 J-0.0254
N13710 G3 X2.8967 Y2.9345 Z-0.1191 I-0.0537 J0.0254
N13720 G3 X2.891 Y2.9091 Z-0.12 I0.0537 J-0.0254
N13730 G3 X2.9347 I0.0219 J0. F15.
N13740 G3 X2.7723 I-0.0813 J0.
N13750 G3 X3.0535 I0.1406 J0.
N13760 G3 X2.6535 I-0.2 J0.
N13770 G3 X3.1722 I0.2594 J0.
N13780 G3 X2.5348 I-0.3188 J0.
N13790 G3 X3.291 I0.3781 J0.
N13800 G3 X2.416 I-0.4375 J0.
N13810 G3 X3.291 I0.4375 J0.
N13820 G3 X3.2771 Y2.9215 I-0.0125 J0.
N13830 G1 X3.089 Y2.9002
N13840 G2 X3.085 Y2.9004 I-0.0011 J0.0125
N13850 G1 X2.9109 Y2.9413
N13860 G3 X2.8967 Y2.9345 I-0.0029 J-0.0122
N13870 G3 X3.004 Y2.8837 Z-0.1265 I0.0537 J-0.0254 F13.3
N13880 G3 X2.8967 Y2.9345 Z-0.133 I-0.0537 J0.0254
N13890 G3 X3.004 Y2.8837 Z-0.1395 I0.0537 J-0.0254
N13900 G3 X2.8967 Y2.9345 Z-0.1461 I-0.0537 J0.0254
N13910 G3 X3.004 Y2.8837 Z-0.1526 I0.0537 J-0.0254
N13920 G3 X2.8967 Y2.9345 Z-0.1591 I-0.0537 J0.0254
N13930 G3 X2.891 Y2.9091 Z-0.16 I0.0537 J-0.0254
N13940 G3 X2.9347 I0.0219 J0. F15.
N13950 G3 X2.7723 I-0.0813 J0.
N13960 G3 X3.0535 I0.1406 J0.
N13970 G3 X2.6535 I-0.2 J0.
N13980 G3 X3.1722 I0.2594 J0.
N13990 G3 X2.5348 I-0.3188 J0.
N14000 G3 X3.291 I0.3781 J0.
N14010 G3 X2.416 I-0.4375 J0.
N14020 G3 X3.291 I0.4375 J0.
N14030 G3 X3.2771 Y2.9215 I-0.0125 J0.
N14040 G1 X3.089 Y2.9002
N14050 G2 X3.085 Y2.9004 I-0.0011 J0.0125
N14060 G1 X2.9109 Y2.9413
N14070 G3 X2.8967 Y2.9345 I-0.0029 J-0.0122
N14080 G3 X3.004 Y2.8837 Z-0.1665 I0.0537 J-0.0254 F13.3
N14090 G3 X2.8967 Y2.9345 Z-0.173 I-0.0537 J0.0254
N14100 G3 X3.004 Y2.8837 Z-0.1795 I0.0537 J-0.0254
N14110 G3 X2.8967 Y2.9345 Z-0.1861 I-0.0537 J0.0254
N14120 G3 X3.004 Y2.8837 Z-0.1926 I0.0537 J-0.0254
N14130 G3 X2.8967 Y2.9345 Z-0.1991 I-0.0537 J0.0254
N14140 G3 X2.891 Y2.9091 Z-0.2 I0.0537 J-0.0254
N14150 G3 X2.9347 I0.0219 J0. F15.
N14160 G3 X2.7723 I-0.0813 J0.
N14170 G3 X3.0535 I0.1406 J0.
N14180 G3 X2.6535 I-0.2 J0.
N14190 G3 X3.1722 I0.2594 J0.
N14200 G3 X2.5348 I-0.3188 J0.
N14210 G3 X3.291 I0.3781 J0.
N14220 G3 X2.416 I-0.4375 J0.
N14230 G3 X3.291 I0.4375 J0.
N14240 G3 X3.2771 Y2.9215 I-0.0125 J0.
N14250 G1 X3.089 Y2.9002
N14260 G2 X3.085 Y2.9004 I-0.0011 J0.0125
N14270 G1 X2.9109 Y2.9413
N14280 G3 X2.8967 Y2.9345 I-0.0029 J-0.0122
N14290 G3 X3.004 Y2.8837 Z-0.2065 I0.0537 J-0.0254 F13.3
N14300 G3 X2.8967 Y2.9345 Z-0.213 I-0.0537 J0.0254
N14310 G3 X3.004 Y2.8837 Z-0.2195 I0.0537 J-0.0254
N14320 G3 X2.8967 Y2.9345 Z-0.2261 I-0.0537 J0.0254
N14330 G3 X3.004 Y2.8837 Z-0.2326 I0.0537 J-0.0254
N14340 G3 X2.8967 Y2.9345 Z-0.2391 I-0.0537 J0.0254
N14350 G3 X2.891 Y2.9091 Z-0.24 I0.0537 J-0.0254
N14360 G3 X2.9347 I0.0219 J0. F15.
N14370 G3 X2.7723 I-0.0813 J0.
N14380 G3 X3.0535 I0.1406 J0.
N14390 G3 X2.6535 I-0.2 J0.
N14400 G3 X3.1722 I0.2594 J0.
N14410 G3 X2.5348 I-0.3188 J0.
N14420 G3 X3.291 I0.3781 J0.
N14430 G3 X2.416 I-0.4375 J0.
N14440 G3 X3.291 I0.4375 J0.
N14450 G3 X3.2765 Y2.9215 I-0.0125 J0.
N14460 G1 X3.0813 Y2.8903
N14470 G2 X3.0738 Y2.8912 I-0.0022 J0.0123
N14480 G1 X2.9284 Y2.9586
N14490 G3 X2.9159 Y2.9575 I-0.0053 J-0.0113
N14500 G3 X2.9849 Y2.8608 Z-0.2465 I0.0345 J-0.0483 F13.3
N14510 G3 X2.9159 Y2.9575 Z-0.253 I-0.0345 J0.0483
N14520 G3 X2.891 Y2.9091 Z-0.255 I0.0345 J-0.0483
N14530 G3 X2.9347 I0.0219 J0. F15.
N14540 G3 X2.7723 I-0.0813 J0.
N14550 G3 X3.0535 I0.1406 J0.
N14560 G3 X2.6535 I-0.2 J0.
N14570 G3 X3.1722 I0.2594 J0.
N14580 G3 X2.5348 I-0.3188 J0.
N14590 G3 X3.291 I0.3781 J0.
N14600 G3 X2.416 I-0.4375 J0.
N14610 G3 X3.291 I0.4375 J0.
N14620 G3 X3.2898 Y2.9167 Z-0.2538 I-0.025 J0.
N14630 G3 X3.2868 Y2.923 Z-0.2502 I-0.0238 J-0.0076
N14640 G3 X3.2833 Y2.9272 Z-0.2447 I-0.0208 J-0.0139
N14650 G3 X3.2805 Y2.9295 Z-0.2377 I-0.0173 J-0.0181
N14660 G3 X3.2795 Y2.9302 Z-0.23 I-0.0145 J-0.0204
N14670 G0 Z0.2
N14680 G0 X2.0316 Y3.5063
N14690 G1 Z0.125 F15.
N14700 G3 X2.0326 Y3.5069 Z0.1174 I-0.0314 J0.0504 F13.3
N14710 G3 X2.0354 Y3.5088 Z0.1106 I-0.0324 J0.0498
N14720 G3 X2.0395 Y3.5122 Z0.1051 I-0.0352 J0.0479
N14730 G3 X2.0443 Y3.5169 Z0.1014 I-0.0393 J0.0445
N14740 G3 X2.049 Y3.5228 Z0.1 I-0.0441 J0.0398
N14750 G3 X1.9515 Y3.5906 Z0.0935 I-0.0487 J0.0339
N14760 G3 X2.049 Y3.5228 Z0.087 I0.0487 J-0.0339
N14770 G3 X1.9515 Y3.5906 Z0.0805 I-0.0487 J0.0339
N14780 G3 X2.049 Y3.5228 Z0.0739 I0.0487 J-0.0339
N14790 G3 X1.9515 Y3.5906 Z0.0674 I-0.0487 J0.0339
N14800 G3 X2.049 Y3.5228 Z0.0609 I0.0487 J-0.0339
N14810 G3 X1.9515 Y3.5906 Z0.0544 I-0.0487 J0.0339
N14820 G3 X2.049 Y3.5228 Z0.0479 I0.0487 J-0.0339
N14830 G3 X1.9515 Y3.5906 Z0.0414 I-0.0487 J0.0339
N14840 G3 X2.049 Y3.5228 Z0.0349 I0.0487 J-0.0339
N14850 G3 X1.9515 Y3.5906 Z0.0283 I-0.0487 J0.0339
N14860 G3 X2.049 Y3.5228 Z0.0218 I0.0487 J-0.0339
N14870 G3 X1.9515 Y3.5906 Z0.0153 I-0.0487 J0.0339
N14880 G3 X2.049 Y3.5228 Z0.0088 I0.0487 J-0.0339
N14890 G3 X1.9515 Y3.5906 Z0.0023 I-0.0487 J0.0339
N14900 G3 X2.049 Y3.5228 Z-0.0042 I0.0487 J-0.0339
N14910 G3 X1.9515 Y3.5906 Z-0.0107 I-0.0487 J0.0339
N14920 G3 X2.049 Y3.5228 Z-0.0172 I0.0487 J-0.0339
N14930 G3 X1.9515 Y3.5906 Z-0.0238 I-0.0487 J0.0339
N14940 G3 X2.049 Y3.5228 Z-0.0303 I0.0487 J-0.0339
N14950 G3 X1.9515 Y3.5906 Z-0.0368 I-0.0487 J0.0339
N14960 G3 X1.9652 Y3.5088 Z-0.04 I0.0487 J-0.0339
N14970 G2 X1.971 Y3.5043 I-0.0943 J-0.1292 F15.
N14980 G3 X1.982 Y3.496 I0.1782 J0.2219
N14990 G3 X1.9992 Y3.4989 I0.0072 J0.0099
N15000 G2 X2.0229 Y3.5318 I0.8697 J-0.6009
N15010 G3 X2.0202 Y3.5495 I-0.0101 J0.0075
N15020 G3 X1.9154 Y3.614 I-0.4903 J-0.6788
N15030 G3 X1.9041 Y3.6071 I-0.0036 J-0.0069
N15040 G1 Y3.5618
N15050 G3 X1.918 Y3.5377 I0.0278 J0.
N15060 G1 X1.9386 Y3.5258
N15070 G2 X1.96 Y3.5124 I-0.1912 J-0.3305
N15080 G2 X1.9652 Y3.5088 I-0.0891 J-0.1329
N15090 G2 X1.999 Y3.4436 I-0.0485 J-0.0664
N15100 G3 X2.0694 Y3.4231 I0.0384 J0.0006
N15110 G2 X2.1722 Y3.5531 I0.784 J-0.514
N15120 G3 X1.8635 Y3.7466 I-0.6187 J-0.644
N15130 G2 X1.8035 Y3.6642 I-0.31 J0.1625
N15140 G1 Y3.483
N15150 G2 X2.0162 Y3.3308 I-0.25 J-0.5739
N15160 G2 X2.0694 Y3.4231 I0.8373 J-0.4217
N15170 G3 X2.0681 Y3.4385 I-0.0105 J0.0069
N15180 G1 X2.0127 Y3.498
N15190 G2 X2.0099 Y3.5029 I0.0091 J0.0085
N15200 G3 X2.0063 Y3.5086 I-0.012 J-0.0036
N15210 G1 X1.9674 Y3.5436
N15220 G3 X1.9481 Y3.5284 I-0.0084 J-0.0093
N15230 G3 X2.0524 Y3.585 Z-0.0465 I0.0522 J0.0283 F13.3
N15240 G3 X1.9481 Y3.5284 Z-0.053 I-0.0522 J-0.0283
N15250 G3 X2.0524 Y3.585 Z-0.0595 I0.0522 J0.0283
N15260 G3 X1.9481 Y3.5284 Z-0.0661 I-0.0522 J-0.0283
N15270 G3 X2.0524 Y3.585 Z-0.0726 I0.0522 J0.0283
N15280 G3 X1.9481 Y3.5284 Z-0.0791 I-0.0522 J-0.0283
N15290 G3 X1.9652 Y3.5088 Z-0.08 I0.0522 J0.0283
N15300 G2 X1.971 Y3.5043 I-0.0943 J-0.1292 F15.
N15310 G3 X1.982 Y3.496 I0.1782 J0.2219
N15320 G3 X1.9992 Y3.4989 I0.0072 J0.0099
N15330 G2 X2.0229 Y3.5318 I0.8697 J-0.6009
N15340 G3 X2.0202 Y3.5495 I-0.0101 J0.0075
N15350 G3 X1.9154 Y3.614 I-0.4903 J-0.6788
N15360 G3 X1.9041 Y3.6071 I-0.0036 J-0.0069
N15370 G1 Y3.5618
N15380 G3 X1.918 Y3.5377 I0.0278 J0.
N15390 G1 X1.9386 Y3.5258
N15400 G2 X1.96 Y3.5124 I-0.1912 J-0.3305
N15410 G2 X1.9652 Y3.5088 I-0.0891 J-0.1329
N15420 G2 X1.999 Y3.4436 I-0.0485 J-0.0664
N15430 G3 X2.0694 Y3.4231 I0.0384 J0.0006
N15440 G2 X2.1722 Y3.5531 I0.784 J-0.514
N15450 G3 X1.8635 Y3.7466 I-0.6187 J-0.644
N15460 G2 X1.8035 Y3.6642 I-0.31 J0.1625
N15470 G1 Y3.483
N15480 G2 X2.0162 Y3.3308 I-0.25 J-0.5739
N15490 G2 X2.0694 Y3.4231 I0.8373 J-0.4217
N15500 G3 X2.0681 Y3.4385 I-0.0105 J0.0069
N15510 G1 X2.0127 Y3.498
N15520 G2 X2.0099 Y3.5029 I0.0091 J0.0085
N15530 G3 X2.0063 Y3.5086 I-0.012 J-0.0036
N15540 G1 X1.9674 Y3.5436
N15550 G3 X1.9481 Y3.5284 I-0.0084 J-0.0093
N15560 G3 X2.0524 Y3.585 Z-0.0865 I0.0522 J0.0283 F13.3
N15570 G3 X1.9481 Y3.5284 Z-0.093 I-0.0522 J-0.0283
N15580 G3 X2.0524 Y3.585 Z-0.0995 I0.0522 J0.0283
N15590 G3 X1.9481 Y3.5284 Z-0.1061 I-0.0522 J-0.0283
N15600 G3 X2.0524 Y3.585 Z-0.1126 I0.0522 J0.0283
N15610 G3 X1.9481 Y3.5284 Z-0.1191 I-0.0522 J-0.0283
N15620 G3 X1.9652 Y3.5088 Z-0.12 I0.0522 J0.0283
N15630 G2 X1.971 Y3.5043 I-0.0943 J-0.1292 F15.
N15640 G3 X1.982 Y3.496 I0.1782 J0.2219
N15650 G3 X1.9992 Y3.4989 I0.0072 J0.0099
N15660 G2 X2.0229 Y3.5318 I0.8697 J-0.6009
N15670 G3 X2.0202 Y3.5495 I-0.0101 J0.0075
N15680 G3 X1.9154 Y3.614 I-0.4903 J-0.6788
N15690 G3 X1.9041 Y3.6071 I-0.0036 J-0.0069
N15700 G1 Y3.5618
N15710 G3 X1.918 Y3.5377 I0.0278 J0.
N15720 G1 X1.9386 Y3.5258
N15730 G2 X1.96 Y3.5124 I-0.1912 J-0.3305
N15740 G2 X1.9652 Y3.5088 I-0.0891 J-0.1329
N15750 G2 X1.999 Y3.4436 I-0.0485 J-0.0664
N15760 G3 X2.0694 Y3.4231 I0.0384 J0.0006
N15770 G2 X2.1722 Y3.5531 I0.784 J-0.514
N15780 G3 X1.8635 Y3.7466 I-0.6187 J-0.644
N15790 G2 X1.8035 Y3.6642 I-0.31 J0.1625
N15800 G1 Y3.483
N15810 G2 X2.0162 Y3.3308 I-0.25 J-0.5739
N15820 G2 X2.0694 Y3.4231 I0.8373 J-0.4217
N15830 G3 X2.0681 Y3.4385 I-0.0105 J0.0069
N15840 G1 X2.0127 Y3.498
N15850 G2 X2.0099 Y3.5029 I0.0091 J0.0085
N15860 G3 X2.0063 Y3.5086 I-0.012 J-0.0036
N15870 G1 X1.9674 Y3.5436
N15880 G3 X1.9481 Y3.5284 I-0.0084 J-0.0093
N15890 G3 X2.0524 Y3.585 Z-0.1265 I0.0522 J0.0283 F13.3
N15900 G3 X1.9481 Y3.5284 Z-0.133 I-0.0522 J-0.0283
N15910 G3 X2.0524 Y3.585 Z-0.1395 I0.0522 J0.0283
N15920 G3 X1.9481 Y3.5284 Z-0.1461 I-0.0522 J-0.0283
N15930 G3 X2.0524 Y3.585 Z-0.1526 I0.0522 J0.0283
N15940 G3 X1.9481 Y3.5284 Z-0.1591 I-0.0522 J-0.0283
N15950 G3 X1.9652 Y3.5088 Z-0.16 I0.0522 J0.0283
N15960 G2 X1.971 Y3.5043 I-0.0943 J-0.1292 F15.
N15970 G3 X1.982 Y3.496 I0.1782 J0.2219
N15980 G3 X1.9992 Y3.4989 I0.0072 J0.0099
N15990 G2 X2.0229 Y3.5318 I0.8697 J-0.6009
N16000 G3 X2.0202 Y3.5495 I-0.0101 J0.0075
N16010 G3 X1.9154 Y3.614 I-0.4903 J-0.6788
N16020 G3 X1.9041 Y3.6071 I-0.0036 J-0.0069
N16030 G1 Y3.5618
N16040 G3 X1.918 Y3.5377 I0.0278 J0.
N16050 G1 X1.9386 Y3.5258
N16060 G2 X1.96 Y3.5124 I-0.1912 J-0.3305
N16070 G2 X1.9652 Y3.5088 I-0.0891 J-0.1329
N16080 G2 X1.999 Y3.4436 I-0.0485 J-0.0664
N16090 G3 X2.0694 Y3.4231 I0.0384 J0.0006
N16100 G2 X2.1722 Y3.5531 I0.784 J-0.514
N16110 G3 X1.8635 Y3.7466 I-0.6187 J-0.644
N16120 G2 X1.8035 Y3.6642 I-0.31 J0.1625
N16130 G1 Y3.483
N16140 G2 X2.0162 Y3.3308 I-0.25 J-0.5739
N16150 G2 X2.0694 Y3.4231 I0.8373 J-0.4217
N16160 G3 X2.0681 Y3.4385 I-0.0105 J0.0069
N16170 G1 X2.0127 Y3.498
N16180 G2 X2.0099 Y3.5029 I0.0091 J0.0085
N16190 G3 X2.0063 Y3.5086 I-0.012 J-0.0036
N16200 G1 X1.9674 Y3.5436
N16210 G3 X1.9481 Y3.5284 I-0.0084 J-0.0093
N16220 G3 X2.0524 Y3.585 Z-0.1665 I0.0522 J0.0283 F13.3
N16230 G3 X1.9481 Y3.5284 Z-0.173 I-0.0522 J-0.0283
N16240 G3 X2.0524 Y3.585 Z-0.1795 I0.0522 J0.0283
N16250 G3 X1.9481 Y3.5284 Z-0.1861 I-0.0522 J-0.0283
N16260 G3 X2.0524 Y3.585 Z-0.1926 I0.0522 J0.0283
N16270 G3 X1.9481 Y3.5284 Z-0.1991 I-0.0522 J-0.0283
N16280 G3 X1.9652 Y3.5088 Z-0.2 I0.0522 J0.0283
N16290 G2 X1.971 Y3.5043 I-0.0943 J-0.1292 F15.
N16300 G3 X1.982 Y3.496 I0.1782 J0.2219
N16310 G3 X1.9992 Y3.4989 I0.0072 J0.0099
N16320 G2 X2.0229 Y3.5318 I0.8697 J-0.6009
N16330 G3 X2.0202 Y3.5495 I-0.0101 J0.0075
N16340 G3 X1.9154 Y3.614 I-0.4903 J-0.6788
N16350 G3 X1.9041 Y3.6071 I-0.0036 J-0.0069
N16360 G1 Y3.5618
N16370 G3 X1.918 Y3.5377 I0.0278 J0.
N16380 G1 X1.9386 Y3.5258
N16390 G2 X1.96 Y3.5124 I-0.1912 J-0.3305
N16400 G2 X1.9652 Y3.5088 I-0.0891 J-0.1329
N16410 G2 X1.999 Y3.4436 I-0.0485 J-0.0664
N16420 G3 X2.0694 Y3.4231 I0.0384 J0.0006
N16430 G2 X2.1722 Y3.5531 I0.784 J-0.514
N16440 G3 X1.8635 Y3.7466 I-0.6187 J-0.644
N16450 G2 X1.8035 Y3.6642 I-0.31 J0.1625
N16460 G1 Y3.483
N16470 G2 X2.0162 Y3.3308 I-0.25 J-0.5739
N16480 G2 X2.0694 Y3.4231 I0.8373 J-0.4217
N16490 G3 X2.0681 Y3.4385 I-0.0105 J0.0069
N16500 G1 X2.0127 Y3.498
N16510 G2 X2.0099 Y3.5029 I0.0091 J0.0085
N16520 G3 X2.0063 Y3.5086 I-0.012 J-0.0036
N16530 G1 X1.9674 Y3.5436
N16540 G3 X1.9481 Y3.5284 I-0.0084 J-0.0093
N16550 G3 X2.0524 Y3.585 Z-0.2065 I0.0522 J0.0283 F13.3
N16560 G3 X1.9481 Y3.5284 Z-0.213 I-0.0522 J-0.0283
N16570 G3 X2.0524 Y3.585 Z-0.2195 I0.0522 J0.0283
N16580 G3 X1.9481 Y3.5284 Z-0.2261 I-0.0522 J-0.0283
N16590 G3 X2.0524 Y3.585 Z-0.2326 I0.0522 J0.0283
N16600 G3 X1.9481 Y3.5284 Z-0.2391 I-0.0522 J-0.0283
N16610 G3 X1.9652 Y3.5088 Z-0.24 I0.0522 J0.0283
N16620 G2 X1.971 Y3.5043 I-0.0943 J-0.1292 F15.
N16630 G3 X1.982 Y3.496 I0.1782 J0.2219
N16640 G3 X1.9992 Y3.4989 I0.0072 J0.0099
N16650 G2 X2.0229 Y3.5318 I0.8697 J-0.6009
N16660 G3 X2.0202 Y3.5495 I-0.0101 J0.0075
N16670 G3 X1.9154 Y3.614 I-0.4903 J-0.6788
N16680 G3 X1.9041 Y3.6071 I-0.0036 J-0.0069
N16690 G1 Y3.5618
N16700 G3 X1.918 Y3.5377 I0.0278 J0.
N16710 G1 X1.9386 Y3.5258
N16720 G2 X1.96 Y3.5124 I-0.1912 J-0.3305
N16730 G2 X1.9652 Y3.5088 I-0.0891 J-0.1329
N16740 G2 X1.999 Y3.4436 I-0.0485 J-0.0664
N16750 G3 X2.0694 Y3.4231 I0.0384 J0.0006
N16760 G2 X2.1722 Y3.5531 I0.784 J-0.514
N16770 G3 X1.8635 Y3.7466 I-0.6187 J-0.644
N16780 G2 X1.8035 Y3.6642 I-0.31 J0.1625
N16790 G1 Y3.483
N16800 G2 X2.0162 Y3.3308 I-0.25 J-0.5739
N16810 G2 X2.0694 Y3.4231 I0.8373 J-0.4217
N16820 G3 X2.0674 Y3.4392 I-0.0105 J0.0069
N16830 G1 X1.951 Y3.5458
N16840 G2 X1.9488 Y3.5485 I0.0084 J0.0092
N16850 G1 X1.9448 Y3.5551
N16860 G1 X1.9409 Y3.5574
N16870 G3 X2.0596 Y3.556 Z-0.2465 I0.0594 J-0.0007 F13.3
N16880 G3 X1.9409 Y3.5574 Z-0.253 I-0.0594 J0.0007
N16890 G3 X1.9652 Y3.5088 Z-0.255 I0.0594 J-0.0007
N16900 G2 X1.971 Y3.5043 I-0.0943 J-0.1292 F15.
N16910 G3 X1.982 Y3.496 I0.1782 J0.2219
N16920 G3 X1.9992 Y3.4989 I0.0072 J0.0099
N16930 G2 X2.0229 Y3.5318 I0.8697 J-0.6009
N16940 G3 X2.0202 Y3.5495 I-0.0101 J0.0075
N16950 G3 X1.9154 Y3.614 I-0.4903 J-0.6788
N16960 G3 X1.9041 Y3.6071 I-0.0036 J-0.0069
N16970 G1 Y3.5618
N16980 G3 X1.918 Y3.5377 I0.0278 J0.
N16990 G1 X1.9386 Y3.5258
N17000 G2 X1.96 Y3.5124 I-0.1912 J-0.3305
N17010 G2 X1.9652 Y3.5088 I-0.0891 J-0.1329
N17020 G2 X1.999 Y3.4436 I-0.0485 J-0.0664
N17030 G3 X2.0694 Y3.4231 I0.0384 J0.0006
N17040 G2 X2.1722 Y3.5531 I0.784 J-0.514
N17050 G3 X1.8635 Y3.7466 I-0.6187 J-0.644
N17060 G2 X1.8035 Y3.6642 I-0.31 J0.1625
N17070 G1 Y3.483
N17080 G2 X2.0162 Y3.3308 I-0.25 J-0.5739
N17090 G2 X2.0694 Y3.4231 I0.8373 J-0.4217
N17100 G3 X2.0726 Y3.4301 Z-0.2538 I-0.0209 J0.0137
N17110 G3 X2.0735 Y3.437 Z-0.2502 I-0.0241 J0.0067
N17120 G3 X2.0729 Y3.4425 Z-0.2447 I-0.025 J-0.0002
N17130 G3 X2.0718 Y3.4459 Z-0.2377 I-0.0243 J-0.0057
N17140 G3 X2.0714 Y3.447 Z-0.23 I-0.0233 J-0.0091
N17150 G0 Z0.2
N17160 G0 X1.5298 Y2.9642
N17170 G1 Z0.125 F15.
N17180 G3 X1.5287 Y2.9646 Z0.1174 I-0.0222 J-0.0551 F13.3
N17190 G3 X1.5255 Y2.9657 Z0.1106 I-0.0211 J-0.0555
N17200 G3 X1.5204 Y2.9671 Z0.1051 I-0.0179 J-0.0566
N17210 G3 X1.5138 Y2.9682 Z0.1014 I-0.0128 J-0.058
N17220 G3 X1.5063 Y2.9685 Z0.1 I-0.0061 J-0.0591
N17230 G3 X1.472 Y2.9566 Z0.0987 I0.0014 J-0.0594
N17240 G3 X1.5432 Y2.8616 Z0.0922 I0.0356 J-0.0475
N17250 G3 X1.472 Y2.9566 Z0.0857 I-0.0356 J0.0475
N17260 G3 X1.5432 Y2.8616 Z0.0792 I0.0356 J-0.0475
N17270 G3 X1.472 Y2.9566 Z0.0727 I-0.0356 J0.0475
N17280 G3 X1.5432 Y2.8616 Z0.0661 I0.0356 J-0.0475
N17290 G3 X1.472 Y2.9566 Z0.0596 I-0.0356 J0.0475
N17300 G3 X1.5432 Y2.8616 Z0.0531 I0.0356 J-0.0475
N17310 G3 X1.472 Y2.9566 Z0.0466 I-0.0356 J0.0475
N17320 G3 X1.5432 Y2.8616 Z0.0401 I0.0356 J-0.0475
N17330 G3 X1.472 Y2.9566 Z0.0336 I-0.0356 J0.0475
N17340 G3 X1.5432 Y2.8616 Z0.0271 I0.0356 J-0.0475
N17350 G3 X1.472 Y2.9566 Z0.0205 I-0.0356 J0.0475
N17360 G3 X1.5432 Y2.8616 Z0.014 I0.0356 J-0.0475
N17370 G3 X1.472 Y2.9566 Z0.0075 I-0.0356 J0.0475
N17380 G3 X1.5432 Y2.8616 Z0.001 I0.0356 J-0.0475
N17390 G3 X1.472 Y2.9566 Z-0.0055 I-0.0356 J0.0475
N17400 G3 X1.5432 Y2.8616 Z-0.012 I0.0356 J-0.0475
N17410 G3 X1.472 Y2.9566 Z-0.0185 I-0.0356 J0.0475
N17420 G3 X1.5432 Y2.8616 Z-0.025 I0.0356 J-0.0475
N17430 G3 X1.472 Y2.9566 Z-0.0316 I-0.0356 J0.0475
N17440 G3 X1.5432 Y2.8616 Z-0.0381 I0.0356 J-0.0475
N17450 G3 X1.567 Y2.9091 Z-0.04 I-0.0356 J0.0475
N17460 G3 X1.54 I-0.0135 J0. F15.
N17470 G3 X1.6858 I0.0729 J0.
N17480 G3 X1.4213 I-0.1322 J0.
N17490 G3 X1.8045 I0.1916 J0.
N17500 G3 X1.3025 I-0.251 J0.
N17510 G3 X1.8045 I0.251 J0.
N17520 G3 X1.792 Y2.9216 I-0.0125 J0.
N17530 G1 X1.5719 Y2.9214
N17540 G3 X1.5619 Y2.9179 I-0.0013 J-0.0124
N17550 G1 X1.5413 Y2.898
N17560 G3 X1.5587 Y2.8801 I0.0087 J-0.009
N17570 G3 X1.5613 Y2.8837 I-0.0087 J0.009
N17580 G3 X1.454 Y2.9345 Z-0.0465 I-0.0537 J0.0254 F13.3
N17590 G3 X1.5613 Y2.8837 Z-0.053 I0.0537 J-0.0254
N17600 G3 X1.454 Y2.9345 Z-0.0595 I-0.0537 J0.0254
N17610 G3 X1.5613 Y2.8837 Z-0.0661 I0.0537 J-0.0254
N17620 G3 X1.454 Y2.9345 Z-0.0726 I-0.0537 J0.0254
N17630 G3 X1.5613 Y2.8837 Z-0.0791 I0.0537 J-0.0254
N17640 G3 X1.567 Y2.9091 Z-0.08 I-0.0537 J0.0254
N17650 G3 X1.54 I-0.0135 J0. F15.
N17660 G3 X1.6858 I0.0729 J0.
N17670 G3 X1.4213 I-0.1322 J0.
N17680 G3 X1.8045 I0.1916 J0.
N17690 G3 X1.3025 I-0.251 J0.
N17700 G3 X1.8045 I0.251 J0.
N17710 G3 X1.792 Y2.9216 I-0.0125 J0.
N17720 G1 X1.5719 Y2.9214
N17730 G3 X1.5619 Y2.9179 I-0.0013 J-0.0124
N17740 G1 X1.5413 Y2.898
N17750 G3 X1.5587 Y2.8801 I0.0087 J-0.009
N17760 G3 X1.5613 Y2.8837 I-0.0087 J0.009
N17770 G3 X1.454 Y2.9345 Z-0.0865 I-0.0537 J0.0254 F13.3
N17780 G3 X1.5613 Y2.8837 Z-0.093 I0.0537 J-0.0254
N17790 G3 X1.454 Y2.9345 Z-0.0995 I-0.0537 J0.0254
N17800 G3 X1.5613 Y2.8837 Z-0.1061 I0.0537 J-0.0254
N17810 G3 X1.454 Y2.9345 Z-0.1126 I-0.0537 J0.0254
N17820 G3 X1.5613 Y2.8837 Z-0.1191 I0.0537 J-0.0254
N17830 G3 X1.567 Y2.9091 Z-0.12 I-0.0537 J0.0254
N17840 G3 X1.54 I-0.0135 J0. F15.
N17850 G3 X1.6858 I0.0729 J0.
N17860 G3 X1.4213 I-0.1322 J0.
N17870 G3 X1.8045 I0.1916 J0.
N17880 G3 X1.3025 I-0.251 J0.
N17890 G3 X1.8045 I0.251 J0.
N17900 G3 X1.792 Y2.9216 I-0.0125 J0.
N17910 G1 X1.5719 Y2.9214
N17920 G3 X1.5619 Y2.9179 I-0.0013 J-0.0124
N17930 G1 X1.5413 Y2.898
N17940 G3 X1.5587 Y2.8801 I0.0087 J-0.009
N17950 G3 X1.5613 Y2.8837 I-0.0087 J0.009
N17960 G3 X1.454 Y2.9345 Z-0.1265 I-0.0537 J0.0254 F13.3
N17970 G3 X1.5613 Y2.8837 Z-0.133 I0.0537 J-0.0254
N17980 G3 X1.454 Y2.9345 Z-0.1395 I-0.0537 J0.0254
N17990 G3 X1.5613 Y2.8837 Z-0.1461 I0.0537 J-0.0254
N18000 G3 X1.454 Y2.9345 Z-0.1526 I-0.0537 J0.0254
N18010 G3 X1.5613 Y2.8837 Z-0.1591 I0.0537 J-0.0254
N18020 G3 X1.567 Y2.9091 Z-0.16 I-0.0537 J0.0254
N18030 G3 X1.54 I-0.0135 J0. F15.
N18040 G3 X1.6858 I0.0729 J0.
N18050 G3 X1.4213 I-0.1322 J0.
N18060 G3 X1.8045 I0.1916 J0.
N18070 G3 X1.3025 I-0.251 J0.
N18080 G3 X1.8045 I0.251 J0.
N18090 G3 X1.792 Y2.9216 I-0.0125 J0.
N18100 G1 X1.5719 Y2.9214
N18110 G3 X1.5619 Y2.9179 I-0.0013 J-0.0124
N18120 G1 X1.5413 Y2.898
N18130 G3 X1.5587 Y2.8801 I0.0087 J-0.009
N18140 G3 X1.5613 Y2.8837 I-0.0087 J0.009
N18150 G3 X1.454 Y2.9345 Z-0.1665 I-0.0537 J0.0254 F13.3
N18160 G3 X1.5613 Y2.8837 Z-0.173 I0.0537 J-0.0254
N18170 G3 X1.454 Y2.9345 Z-0.1795 I-0.0537 J0.0254
N18180 G3 X1.5613 Y2.8837 Z-0.1861 I0.0537 J-0.0254
N18190 G3 X1.454 Y2.9345 Z-0.1926 I-0.0537 J0.0254
N18200 G3 X1.5613 Y2.8837 Z-0.1991 I0.0537 J-0.0254
N18210 G3 X1.567 Y2.9091 Z-0.2 I-0.0537 J0.0254
N18220 G3 X1.54 I-0.0135 J0. F15.
N18230 G3 X1.6858 I0.0729 J0.
N18240 G3 X1.4213 I-0.1322 J0.
N18250 G3 X1.8045 I0.1916 J0.
N18260 G3 X1.3025 I-0.251 J0.
N18270 G3 X1.8045 I0.251 J0.
N18280 G3 X1.792 Y2.9216 I-0.0125 J0.
N18290 G1 X1.5719 Y2.9214
N18300 G3 X1.5619 Y2.9179 I-0.0013 J-0.0124
N18310 G1 X1.5413 Y2.898
N18320 G3 X1.5587 Y2.8801 I0.0087 J-0.009
N18330 G3 X1.5613 Y2.8837 I-0.0087 J0.009
N18340 G3 X1.454 Y2.9345 Z-0.2065 I-0.0537 J0.0254 F13.3
N18350 G3 X1.5613 Y2.8837 Z-0.213 I0.0537 J-0.0254
N18360 G3 X1.454 Y2.9345 Z-0.2195 I-0.0537 J0.0254
N18370 G3 X1.5613 Y2.8837 Z-0.2261 I0.0537 J-0.0254
N18380 G3 X1.454 Y2.9345 Z-0.2326 I-0.0537 J0.0254
N18390 G3 X1.5613 Y2.8837 Z-0.2391 I0.0537 J-0.0254
N18400 G3 X1.567 Y2.9091 Z-0.24 I-0.0537 J0.0254
N18410 G3 X1.54 I-0.0135 J0. F15.
N18420 G3 X1.6858 I0.0729 J0.
N18430 G3 X1.4213 I-0.1322 J0.
N18440 G3 X1.8045 I0.1916 J0.
N18450 G3 X1.3025 I-0.251 J0.
N18460 G3 X1.8045 I0.251 J0.
N18470 G3 X1.7925 Y2.9216 I-0.0125 J0.
N18480 G1 X1.5863 Y2.9298
N18490 G3 X1.5754 Y2.9266 I-0.0023 J-0.0123
N18500 G1 X1.5262 Y2.88
N18510 G3 X1.5421 Y2.8608 I0.0086 J-0.0091
N18520 G3 X1.4731 Y2.9575 Z-0.2465 I-0.0345 J0.0483 F13.3
N18530 G3 X1.5421 Y2.8608 Z-0.253 I0.0345 J-0.0483
N18540 G3 X1.567 Y2.9091 Z-0.255 I-0.0345 J0.0483
N18550 G3 X1.54 I-0.0135 J0. F15.
N18560 G3 X1.6858 I0.0729 J0.
N18570 G3 X1.4213 I-0.1322 J0.
N18580 G3 X1.8045 I0.1916 J0.
N18590 G3 X1.3025 I-0.251 J0.
N18600 G3 X1.8045 I0.251 J0.
N18610 G3 X1.8033 Y2.9167 Z-0.2538 I-0.025 J0.
N18620 G3 X1.8003 Y2.923 Z-0.2502 I-0.0238 J-0.0076
N18630 G3 X1.7968 Y2.9272 Z-0.2447 I-0.0208 J-0.0139
N18640 G3 X1.794 Y2.9295 Z-0.2377 I-0.0173 J-0.0181
N18650 G3 X1.793 Y2.9302 Z-0.23 I-0.0145 J-0.0204
N18660 G0 Z0.2
N18670 G0 X2.0278 Y2.3176
N18680 G1 Z0.125 F15.
N18690 G3 X2.0275 Y2.3187 Z0.1174 I-0.0583 J-0.0111 F13.3
N18700 G3 X2.0267 Y2.322 Z0.1106 I-0.0581 J-0.0123
N18710 G3 X2.0251 Y2.3271 Z0.1051 I-0.0573 J-0.0156
N18720 G3 X2.0224 Y2.3332 Z0.1014 I-0.0557 J-0.0206
N18730 G3 X2.0186 Y2.3397 Z0.1 I-0.053 J-0.0268
N18740 G3 X1.9203 Y2.2732 Z0.0935 I-0.0492 J-0.0333
N18750 G3 X2.0186 Y2.3397 Z0.087 I0.0492 J0.0333
N18760 G3 X1.9203 Y2.2732 Z0.0805 I-0.0492 J-0.0333
N18770 G3 X2.0186 Y2.3397 Z0.0739 I0.0492 J0.0333
N18780 G3 X1.9203 Y2.2732 Z0.0674 I-0.0492 J-0.0333
N18790 G3 X2.0186 Y2.3397 Z0.0609 I0.0492 J0.0333
N18800 G3 X1.9203 Y2.2732 Z0.0544 I-0.0492 J-0.0333
N18810 G3 X2.0186 Y2.3397 Z0.0479 I0.0492 J0.0333
N18820 G3 X1.9203 Y2.2732 Z0.0414 I-0.0492 J-0.0333
N18830 G3 X2.0186 Y2.3397 Z0.0349 I0.0492 J0.0333
N18840 G3 X1.9203 Y2.2732 Z0.0283 I-0.0492 J-0.0333
N18850 G3 X2.0186 Y2.3397 Z0.0218 I0.0492 J0.0333
N18860 G3 X1.9203 Y2.2732 Z0.0153 I-0.0492 J-0.0333
N18870 G3 X2.0186 Y2.3397 Z0.0088 I0.0492 J0.0333
N18880 G3 X1.9203 Y2.2732 Z0.0023 I-0.0492 J-0.0333
N18890 G3 X2.0186 Y2.3397 Z-0.0042 I0.0492 J0.0333
N18900 G3 X1.9203 Y2.2732 Z-0.0107 I-0.0492 J-0.0333
N18910 G3 X2.0186 Y2.3397 Z-0.0172 I0.0492 J0.0333
N18920 G3 X1.9203 Y2.2732 Z-0.0238 I-0.0492 J-0.0333
N18930 G3 X2.0186 Y2.3397 Z-0.0303 I0.0492 J0.0333
N18940 G3 X1.9203 Y2.2732 Z-0.0368 I-0.0492 J-0.0333
N18950 G3 X2.0016 Y2.2565 Z-0.04 I0.0492 J0.0333
N18960 G2 X2.008 Y2.2605 I0.2034 J-0.3162 F15.
N18970 G3 X2.0202 Y2.2687 I-0.1039 J0.169
N18980 G3 X2.0229 Y2.2864 I-0.0074 J0.0102
N18990 G2 X1.9992 Y2.3193 I0.8904 J0.6657
N19000 G3 X1.982 Y2.3223 I-0.01 J-0.0069
N19010 G2 X1.9154 Y2.279 I-0.4465 J0.6147
N19020 G3 X1.9041 Y2.2595 I0.0113 J-0.0195
N19030 G1 Y2.2111
N19040 G3 X1.9154 Y2.2042 I0.0078 J0.
N19050 G3 X1.9562 Y2.2273 I-0.2831 J0.5479
N19060 G3 X1.9956 Y2.2526 I-0.6533 J1.0587
N19070 G2 X2.0016 Y2.2565 I0.2093 J-0.3123
N19080 G2 X2.0761 Y2.2643 I0.0449 J-0.0699
N19090 G3 X2.1204 Y2.3248 I0.0139 J0.0363
N19100 G2 X2.0162 Y2.4874 I0.7331 J0.5844
N19110 G2 X1.8035 Y2.3352 I-0.4627 J0.4217
N19120 G1 Y2.1541
N19130 G2 X1.8635 Y2.0716 I-0.25 J-0.245
N19140 G3 X2.1722 Y2.2651 I-0.31 J0.8375
N19150 G2 X2.1204 Y2.3248 I0.6813 J0.644
N19160 G3 X2.1058 Y2.3285 I-0.0098 J-0.0078
N19170 G1 X2.03 Y2.2971
N19180 G2 X2.0241 Y2.2962 I-0.0048 J0.0115
N19190 G3 X2.0173 Y2.2949 I-0.0012 J-0.0124
N19200 G1 X1.9699 Y2.2712
N19210 G3 X1.9771 Y2.2476 I0.0056 J-0.0112
N19220 G3 X1.9618 Y2.3653 Z-0.0465 I-0.0077 J0.0589 F13.3
N19230 G3 X1.9771 Y2.2476 Z-0.053 I0.0077 J-0.0589
N19240 G3 X1.9618 Y2.3653 Z-0.0595 I-0.0077 J0.0589
N19250 G3 X1.9771 Y2.2476 Z-0.0661 I0.0077 J-0.0589
N19260 G3 X1.9618 Y2.3653 Z-0.0726 I-0.0077 J0.0589
N19270 G3 X1.9771 Y2.2476 Z-0.0791 I0.0077 J-0.0589
N19280 G3 X2.0016 Y2.2565 Z-0.08 I-0.0077 J0.0589
N19290 G2 X2.008 Y2.2605 I0.2034 J-0.3162 F15.
N19300 G3 X2.0202 Y2.2687 I-0.1039 J0.169
N19310 G3 X2.0229 Y2.2864 I-0.0074 J0.0102
N19320 G2 X1.9992 Y2.3193 I0.8904 J0.6657
N19330 G3 X1.982 Y2.3223 I-0.01 J-0.0069
N19340 G2 X1.9154 Y2.279 I-0.4465 J0.6147
N19350 G3 X1.9041 Y2.2595 I0.0113 J-0.0195
N19360 G1 Y2.2111
N19370 G3 X1.9154 Y2.2042 I0.0078 J0.
N19380 G3 X1.9562 Y2.2273 I-0.2831 J0.5479
N19390 G3 X1.9956 Y2.2526 I-0.6533 J1.0587
N19400 G2 X2.0016 Y2.2565 I0.2093 J-0.3123
N19410 G2 X2.0761 Y2.2643 I0.0449 J-0.0699
N19420 G3 X2.1204 Y2.3248 I0.0139 J0.0363
N19430 G2 X2.0162 Y2.4874 I0.7331 J0.5844
N19440 G2 X1.8035 Y2.3352 I-0.4627 J0.4217
N19450 G1 Y2.1541
N19460 G2 X1.8635 Y2.0716 I-0.25 J-0.245
N19470 G3 X2.1722 Y2.2651 I-0.31 J0.8375
N19480 G2 X2.1204 Y2.3248 I0.6813 J0.644
N19490 G3 X2.1058 Y2.3285 I-0.0098 J-0.0078
N19500 G1 X2.03 Y2.2971
N19510 G2 X2.0241 Y2.2962 I-0.0048 J0.0115
N19520 G3 X2.0173 Y2.2949 I-0.0012 J-0.0124
N19530 G1 X1.9699 Y2.2712
N19540 G3 X1.9771 Y2.2476 I0.0056 J-0.0112
N19550 G3 X1.9618 Y2.3653 Z-0.0865 I-0.0077 J0.0589 F13.3
N19560 G3 X1.9771 Y2.2476 Z-0.093 I0.0077 J-0.0589
N19570 G3 X1.9618 Y2.3653 Z-0.0995 I-0.0077 J0.0589
N19580 G3 X1.9771 Y2.2476 Z-0.1061 I0.0077 J-0.0589
N19590 G3 X1.9618 Y2.3653 Z-0.1126 I-0.0077 J0.0589
N19600 G3 X1.9771 Y2.2476 Z-0.1191 I0.0077 J-0.0589
N19610 G3 X2.0016 Y2.2565 Z-0.12 I-0.0077 J0.0589
N19620 G2 X2.008 Y2.2605 I0.2034 J-0.3162 F15.
N19630 G3 X2.0202 Y2.2687 I-0.1039 J0.169
N19640 G3 X2.0229 Y2.2864 I-0.0074 J0.0102
N19650 G2 X1.9992 Y2.3193 I0.8904 J0.6657
N19660 G3 X1.982 Y2.3223 I-0.01 J-0.0069
N19670 G2 X1.9154 Y2.279 I-0.4465 J0.6147
N19680 G3 X1.9041 Y2.2595 I0.0113 J-0.0195
N19690 G1 Y2.2111
N19700 G3 X1.9154 Y2.2042 I0.0078 J0.
N19710 G3 X1.9562 Y2.2273 I-0.2831 J0.5479
N19720 G3 X1.9956 Y2.2526 I-0.6533 J1.0587
N19730 G2 X2.0016 Y2.2565 I0.2093 J-0.3123
N19740 G2 X2.0761 Y2.2643 I0.0449 J-0.0699
N19750 G3 X2.1204 Y2.3248 I0.0139 J0.0363
N19760 G2 X2.0162 Y2.4874 I0.7331 J0.5844
N19770 G2 X1.8035 Y2.3352 I-0.4627 J0.4217
N19780 G1 Y2.1541
N19790 G2 X1.8635 Y2.0716 I-0.25 J-0.245
N19800 G3 X2.1722 Y2.2651 I-0.31 J0.8375
N19810 G2 X2.1204 Y2.3248 I0.6813 J0.644
N19820 G3 X2.1058 Y2.3285 I-0.0098 J-0.0078
N19830 G1 X2.03 Y2.2971
N19840 G2 X2.0241 Y2.2962 I-0.0048 J0.0115
N19850 G3 X2.0173 Y2.2949 I-0.0012 J-0.0124
N19860 G1 X1.9699 Y2.2712
N19870 G3 X1.9771 Y2.2476 I0.0056 J-0.0112
N19880 G3 X1.9618 Y2.3653 Z-0.1265 I-0.0077 J0.0589 F13.3
N19890 G3 X1.9771 Y2.2476 Z-0.133 I0.0077 J-0.0589
N19900 G3 X1.9618 Y2.3653 Z-0.1395 I-0.0077 J0.0589
N19910 G3 X1.9771 Y2.2476 Z-0.1461 I0.0077 J-0.0589
N19920 G3 X1.9618 Y2.3653 Z-0.1526 I-0.0077 J0.0589
N19930 G3 X1.9771 Y2.2476 Z-0.1591 I0.0077 J-0.0589
N19940 G3 X2.0016 Y2.2565 Z-0.16 I-0.0077 J0.0589
N19950 G2 X2.008 Y2.2605 I0.2034 J-0.3162 F15.
N19960 G3 X2.0202 Y2.2687 I-0.1039 J0.169
N19970 G3 X2.0229 Y2.2864 I-0.0074 J0.0102
N19980 G2 X1.9992 Y2.3193 I0.8904 J0.6657
N19990 G3 X1.982 Y2.3223 I-0.01 J-0.0069
N20000 G2 X1.9154 Y2.279 I-0.4465 J0.6147
N20010 G3 X1.9041 Y2.2595 I0.0113 J-0.0195
N20020 G1 Y2.2111
N20030 G3 X1.9154 Y2.2042 I0.0078 J0.
N20040 G3 X1.9562 Y2.2273 I-0.2831 J0.5479
N20050 G3 X1.9956 Y2.2526 I-0.6533 J1.0587
N20060 G2 X2.0016 Y2.2565 I0.2093 J-0.3123
N20070 G2 X2.0761 Y2.2643 I0.0449 J-0.0699
N20080 G3 X2.1204 Y2.3248 I0.0139 J0.0363
N20090 G2 X2.0162 Y2.4874 I0.7331 J0.5844
N20100 G2 X1.8035 Y2.3352 I-0.4627 J0.4217
N20110 G1 Y2.1541
N20120 G2 X1.8635 Y2.0716 I-0.25 J-0.245
N20130 G3 X2.1722 Y2.2651 I-0.31 J0.8375
N20140 G2 X2.1204 Y2.3248 I0.6813 J0.644
N20150 G3 X2.1058 Y2.3285 I-0.0098 J-0.0078
N20160 G1 X2.03 Y2.2971
N20170 G2 X2.0241 Y2.2962 I-0.0048 J0.0115
N20180 G3 X2.0173 Y2.2949 I-0.0012 J-0.0124
N20190 G1 X1.9699 Y2.2712
N20200 G3 X1.9771 Y2.2476 I0.0056 J-0.0112
N20210 G3 X1.9618 Y2.3653 Z-0.1665 I-0.0077 J0.0589 F13.3
N20220 G3 X1.9771 Y2.2476 Z-0.173 I0.0077 J-0.0589
N20230 G3 X1.9618 Y2.3653 Z-0.1795 I-0.0077 J0.0589
N20240 G3 X1.9771 Y2.2476 Z-0.1861 I0.0077 J-0.0589
N20250 G3 X1.9618 Y2.3653 Z-0.1926 I-0.0077 J0.0589
N20260 G3 X1.9771 Y2.2476 Z-0.1991 I0.0077 J-0.0589
N20270 G3 X2.0016 Y2.2565 Z-0.2 I-0.0077 J0.0589
N20280 G2 X2.008 Y2.2605 I0.2034 J-0.3162 F15.
N20290 G3 X2.0202 Y2.2687 I-0.1039 J0.169
N20300 G3 X2.0229 Y2.2864 I-0.0074 J0.0102
N20310 G2 X1.9992 Y2.3193 I0.8904 J0.6657
N20320 G3 X1.982 Y2.3223 I-0.01 J-0.0069
N20330 G2 X1.9154 Y2.279 I-0.4465 J0.6147
N20340 G3 X1.9041 Y2.2595 I0.0113 J-0.0195
N20350 G1 Y2.2111
N20360 G3 X1.9154 Y2.2042 I0.0078 J0.
N20370 G3 X1.9562 Y2.2273 I-0.2831 J0.5479
N20380 G3 X1.9956 Y2.2526 I-0.6533 J1.0587
N20390 G2 X2.0016 Y2.2565 I0.2093 J-0.3123
N20400 G2 X2.0761 Y2.2643 I0.0449 J-0.0699
N20410 G3 X2.1204 Y2.3248 I0.0139 J0.0363
N20420 G2 X2.0162 Y2.4874 I0.7331 J0.5844
N20430 G2 X1.8035 Y2.3352 I-0.4627 J0.4217
N20440 G1 Y2.1541
N20450 G2 X1.8635 Y2.0716 I-0.25 J-0.245
N20460 G3 X2.1722 Y2.2651 I-0.31 J0.8375
N20470 G2 X2.1204 Y2.3248 I0.6813 J0.644
N20480 G3 X2.1058 Y2.3285 I-0.0098 J-0.0078
N20490 G1 X2.03 Y2.2971
N20500 G2 X2.0241 Y2.2962 I-0.0048 J0.0115
N20510 G3 X2.0173 Y2.2949 I-0.0012 J-0.0124
N20520 G1 X1.9699 Y2.2712
N20530 G3 X1.9771 Y2.2476 I0.0056 J-0.0112
N20540 G3 X1.9618 Y2.3653 Z-0.2065 I-0.0077 J0.0589 F13.3
N20550 G3 X1.9771 Y2.2476 Z-0.213 I0.0077 J-0.0589
N20560 G3 X1.9618 Y2.3653 Z-0.2195 I-0.0077 J0.0589
N20570 G3 X1.9771 Y2.2476 Z-0.2261 I0.0077 J-0.0589
N20580 G3 X1.9618 Y2.3653 Z-0.2326 I-0.0077 J0.0589
N20590 G3 X1.9771 Y2.2476 Z-0.2391 I0.0077 J-0.0589
N20600 G3 X2.0016 Y2.2565 Z-0.24 I-0.0077 J0.0589
N20610 G2 X2.008 Y2.2605 I0.2034 J-0.3162 F15.
N20620 G3 X2.0202 Y2.2687 I-0.1039 J0.169
N20630 G3 X2.0229 Y2.2864 I-0.0074 J0.0102
N20640 G2 X1.9992 Y2.3193 I0.8904 J0.6657
N20650 G3 X1.982 Y2.3223 I-0.01 J-0.0069
N20660 G2 X1.9154 Y2.279 I-0.4465 J0.6147
N20670 G3 X1.9041 Y2.2595 I0.0113 J-0.0195
N20680 G1 Y2.2111
N20690 G3 X1.9154 Y2.2042 I0.0078 J0.
N20700 G3 X1.9562 Y2.2273 I-0.2831 J0.5479
N20710 G3 X1.9956 Y2.2526 I-0.6533 J1.0587
N20720 G2 X2.0016 Y2.2565 I0.2093 J-0.3123
N20730 G2 X2.0761 Y2.2643 I0.0449 J-0.0699
N20740 G3 X2.1204 Y2.3248 I0.0139 J0.0363
N20750 G2 X2.0162 Y2.4874 I0.7331 J0.5844
N20760 G2 X1.8035 Y2.3352 I-0.4627 J0.4217
N20770 G1 Y2.1541
N20780 G2 X1.8635 Y2.0716 I-0.25 J-0.245
N20790 G3 X2.1722 Y2.2651 I-0.31 J0.8375
N20800 G2 X2.1204 Y2.3248 I0.6813 J0.644
N20810 G3 X2.1046 Y2.328 I-0.0098 J-0.0078
N20820 G1 X1.9781 Y2.2593
N20830 G2 X1.9744 Y2.258 I-0.006 J0.011
N20840 G1 X1.95 Y2.2534
N20850 G1 X1.9474 Y2.2513
N20860 G3 X1.9914 Y2.3616 Z-0.2465 I0.022 J0.0551 F13.3
N20870 G3 X1.9474 Y2.2513 Z-0.253 I-0.022 J-0.0551
N20880 G3 X2.0016 Y2.2565 Z-0.255 I0.022 J0.0551
N20890 G2 X2.008 Y2.2605 I0.2034 J-0.3162 F15.
N20900 G3 X2.0202 Y2.2687 I-0.1039 J0.169
N20910 G3 X2.0229 Y2.2864 I-0.0074 J0.0102
N20920 G2 X1.9992 Y2.3193 I0.8904 J0.6657
N20930 G3 X1.982 Y2.3223 I-0.01 J-0.0069
N20940 G2 X1.9154 Y2.279 I-0.4465 J0.6147
N20950 G3 X1.9041 Y2.2595 I0.0113 J-0.0195
N20960 G1 Y2.2111
N20970 G3 X1.9154 Y2.2042 I0.0078 J0.
N20980 G3 X1.9562 Y2.2273 I-0.2831 J0.5479
N20990 G3 X1.9956 Y2.2526 I-0.6533 J1.0587
N21000 G2 X2.0016 Y2.2565 I0.2093 J-0.3123
N21010 G2 X2.0761 Y2.2643 I0.0449 J-0.0699
N21020 G3 X2.1204 Y2.3248 I0.0139 J0.0363
N21030 G2 X2.0162 Y2.4874 I0.7331 J0.5844
N21040 G2 X1.8035 Y2.3352 I-0.4627 J0.4217
N21050 G1 Y2.1541
N21060 G2 X1.8635 Y2.0716 I-0.25 J-0.245
N21070 G3 X2.1722 Y2.2651 I-0.31 J0.8375
N21080 G2 X2.1204 Y2.3248 I0.6813 J0.644
N21090 G3 X2.1147 Y2.33 Z-0.2538 I-0.0195 J-0.0156
N21100 G3 X2.1085 Y2.333 Z-0.2502 I-0.0139 J-0.0208
N21110 G3 X2.1031 Y2.3341 Z-0.2447 I-0.0076 J-0.0238
N21120 G3 X2.0995 Y2.3342 Z-0.2377 I-0.0022 J-0.0249
N21130 G3 X2.0983 Y2.3341 Z-0.23 I0.0013 J-0.025
N21140 G0 Z0.2
N21150 G0 X1.2107 Y2.225
N21160 G1 Z0.125 F15.
N21170 G3 X1.2116 Y2.2257 Z0.1174 I-0.0355 J0.0476 F13.3
N21180 G3 X1.2142 Y2.2279 Z0.1106 I-0.0365 J0.0469
N21190 G3 X1.218 Y2.2316 Z0.1051 I-0.0391 J0.0447
N21200 G3 X1.2224 Y2.2367 Z0.1014 I-0.0429 J0.041
N21210 G3 X1.2266 Y2.2429 Z0.1 I-0.0473 J0.0359
N21220 G3 X1.1237 Y2.3022 Z0.0935 I-0.0514 J0.0296
N21230 G3 X1.2266 Y2.2429 Z0.087 I0.0514 J-0.0296
N21240 G3 X1.1237 Y2.3022 Z0.0805 I-0.0514 J0.0296
N21250 G3 X1.2266 Y2.2429 Z0.0739 I0.0514 J-0.0296
N21260 G3 X1.1237 Y2.3022 Z0.0674 I-0.0514 J0.0296
N21270 G3 X1.2266 Y2.2429 Z0.0609 I0.0514 J-0.0296
N21280 G3 X1.1237 Y2.3022 Z0.0544 I-0.0514 J0.0296
N21290 G3 X1.2266 Y2.2429 Z0.0479 I0.0514 J-0.0296
N21300 G3 X1.1237 Y2.3022 Z0.0414 I-0.0514 J0.0296
N21310 G3 X1.2266 Y2.2429 Z0.0349 I0.0514 J-0.0296
N21320 G3 X1.1237 Y2.3022 Z0.0283 I-0.0514 J0.0296
N21330 G3 X1.2266 Y2.2429 Z0.0218 I0.0514 J-0.0296
N21340 G3 X1.1237 Y2.3022 Z0.0153 I-0.0514 J0.0296
N21350 G3 X1.2266 Y2.2429 Z0.0088 I0.0514 J-0.0296
N21360 G3 X1.1237 Y2.3022 Z0.0023 I-0.0514 J0.0296
N21370 G3 X1.2266 Y2.2429 Z-0.0042 I0.0514 J-0.0296
N21380 G3 X1.1237 Y2.3022 Z-0.0107 I-0.0514 J0.0296
N21390 G3 X1.2266 Y2.2429 Z-0.0172 I0.0514 J-0.0296
N21400 G3 X1.1237 Y2.3022 Z-0.0238 I-0.0514 J0.0296
N21410 G3 X1.2266 Y2.2429 Z-0.0303 I0.0514 J-0.0296
N21420 G3 X1.1237 Y2.3022 Z-0.0368 I-0.0514 J0.0296
N21430 G3 X1.1443 Y2.2218 Z-0.04 I0.0514 J-0.0296
N21440 G3 X1.1993 Y2.1915 I0.3854 J0.6346 F15.
N21450 G3 X1.2107 Y2.1986 I0.0035 J0.0071
N21460 G1 Y2.2612
N21470 G3 X1.197 Y2.285 I-0.0274 J0.
N21480 G2 X1.0706 Y2.3759 I0.3884 J0.6734
N21490 G2 X0.9663 Y2.4915 I0.4578 J0.518
N21500 G2 X0.9471 Y2.5216 I0.2722 J0.1948
N21510 G3 X0.9294 Y2.5526 I-3.578 J-2.0226
N21520 G3 X0.9056 Y2.5664 I-0.0238 J-0.0137
N21530 G1 X0.8416
N21540 G3 X0.8353 Y2.5563 I0. J-0.007
N21550 G3 X0.9079 Y2.4374 I0.6524 J0.3171
N21560 G3 X1.0004 Y2.3333 I0.6838 J0.5142
N21570 G3 X1.0945 Y2.2549 I0.6196 J0.648
N21580 G3 X1.1443 Y2.2218 I0.4352 J0.6015
N21590 G2 X1.1797 Y2.1495 I-0.0388 J-0.0639
N21600 G3 X1.221 Y2.0803 I0.066 J-0.0075
N21610 G3 X1.2435 Y2.0716 I0.3325 J0.8288
N21620 G2 X1.3035 Y2.1541 I0.31 J-0.1625
N21630 G1 Y2.3352
N21640 G2 X0.9796 Y2.6591 I0.25 J0.5739
N21650 G1 X0.6962
N21660 G3 X1.221 Y2.0803 I0.8573 J0.25
N21670 G3 X1.2326 Y2.093 I0.0034 J0.0085
N21680 G1 X1.2146 Y2.1279
N21690 G1 X1.1305 Y2.2391
N21700 G1 X1.1272 Y2.2415
N21710 G3 X1.1255 Y2.2399 I-0.0007 J-0.0009
N21720 G3 X1.2247 Y2.3053 Z-0.0465 I0.0496 J0.0327 F13.3
N21730 G3 X1.1255 Y2.2399 Z-0.053 I-0.0496 J-0.0327
N21740 G3 X1.2247 Y2.3053 Z-0.0595 I0.0496 J0.0327
N21750 G3 X1.1255 Y2.2399 Z-0.0661 I-0.0496 J-0.0327
N21760 G3 X1.2247 Y2.3053 Z-0.0726 I0.0496 J0.0327
N21770 G3 X1.1255 Y2.2399 Z-0.0791 I-0.0496 J-0.0327
N21780 G3 X1.1443 Y2.2218 Z-0.08 I0.0496 J0.0327
N21790 G3 X1.1993 Y2.1915 I0.3854 J0.6346 F15.
N21800 G3 X1.2107 Y2.1986 I0.0035 J0.0071
N21810 G1 Y2.2612
N21820 G3 X1.197 Y2.285 I-0.0274 J0.
N21830 G2 X1.0706 Y2.3759 I0.3884 J0.6734
N21840 G2 X0.9663 Y2.4915 I0.4578 J0.518
N21850 G2 X0.9471 Y2.5216 I0.2722 J0.1948
N21860 G3 X0.9294 Y2.5526 I-3.578 J-2.0226
N21870 G3 X0.9056 Y2.5664 I-0.0238 J-0.0137
N21880 G1 X0.8416
N21890 G3 X0.8353 Y2.5563 I0. J-0.007
N21900 G3 X0.9079 Y2.4374 I0.6524 J0.3171
N21910 G3 X1.0004 Y2.3333 I0.6838 J0.5142
N21920 G3 X1.0945 Y2.2549 I0.6196 J0.648
N21930 G3 X1.1443 Y2.2218 I0.4352 J0.6015
N21940 G2 X1.1797 Y2.1495 I-0.0388 J-0.0639
N21950 G3 X1.221 Y2.0803 I0.066 J-0.0075
N21960 G3 X1.2435 Y2.0716 I0.3325 J0.8288
N21970 G2 X1.3035 Y2.1541 I0.31 J-0.1625
N21980 G1 Y2.3352
N21990 G2 X0.9796 Y2.6591 I0.25 J0.5739
N22000 G1 X0.6962
N22010 G3 X1.221 Y2.0803 I0.8573 J0.25
N22020 G3 X1.2326 Y2.093 I0.0034 J0.0085
N22030 G1 X1.2146 Y2.1279
N22040 G1 X1.1305 Y2.2391
N22050 G1 X1.1272 Y2.2415
N22060 G3 X1.1255 Y2.2399 I-0.0007 J-0.0009
N22070 G3 X1.2247 Y2.3053 Z-0.0865 I0.0496 J0.0327 F13.3
N22080 G3 X1.1255 Y2.2399 Z-0.093 I-0.0496 J-0.0327
N22090 G3 X1.2247 Y2.3053 Z-0.0995 I0.0496 J0.0327
N22100 G3 X1.1255 Y2.2399 Z-0.1061 I-0.0496 J-0.0327
N22110 G3 X1.2247 Y2.3053 Z-0.1126 I0.0496 J0.0327
N22120 G3 X1.1255 Y2.2399 Z-0.1191 I-0.0496 J-0.0327
N22130 G3 X1.1443 Y2.2218 Z-0.12 I0.0496 J0.0327
N22140 G3 X1.1993 Y2.1915 I0.3854 J0.6346 F15.
N22150 G3 X1.2107 Y2.1986 I0.0035 J0.0071
N22160 G1 Y2.2612
N22170 G3 X1.197 Y2.285 I-0.0274 J0.
N22180 G2 X1.0706 Y2.3759 I0.3884 J0.6734
N22190 G2 X0.9663 Y2.4915 I0.4578 J0.518
N22200 G2 X0.9471 Y2.5216 I0.2722 J0.1948
N22210 G3 X0.9294 Y2.5526 I-3.578 J-2.0226
N22220 G3 X0.9056 Y2.5664 I-0.0238 J-0.0137
N22230 G1 X0.8416
N22240 G3 X0.8353 Y2.5563 I0. J-0.007
N22250 G3 X0.9079 Y2.4374 I0.6524 J0.3171
N22260 G3 X1.0004 Y2.3333 I0.6838 J0.5142
N22270 G3 X1.0945 Y2.2549 I0.6196 J0.648
N22280 G3 X1.1443 Y2.2218 I0.4352 J0.6015
N22290 G2 X1.1797 Y2.1495 I-0.0388 J-0.0639
N22300 G3 X1.221 Y2.0803 I0.066 J-0.0075
N22310 G3 X1.2435 Y2.0716 I0.3325 J0.8288
N22320 G2 X1.3035 Y2.1541 I0.31 J-0.1625
N22330 G1 Y2.3352
N22340 G2 X0.9796 Y2.6591 I0.25 J0.5739
N22350 G1 X0.6962
N22360 G3 X1.221 Y2.0803 I0.8573 J0.25
N22370 G3 X1.2326 Y2.093 I0.0034 J0.0085
N22380 G1 X1.2146 Y2.1279
N22390 G1 X1.1305 Y2.2391
N22400 G1 X1.1272 Y2.2415
N22410 G3 X1.1255 Y2.2399 I-0.0007 J-0.0009
N22420 G3 X1.2247 Y2.3053 Z-0.1265 I0.0496 J0.0327 F13.3
N22430 G3 X1.1255 Y2.2399 Z-0.133 I-0.0496 J-0.0327
N22440 G3 X1.2247 Y2.3053 Z-0.1395 I0.0496 J0.0327
N22450 G3 X1.1255 Y2.2399 Z-0.1461 I-0.0496 J-0.0327
N22460 G3 X1.2247 Y2.3053 Z-0.1526 I0.0496 J0.0327
N22470 G3 X1.1255 Y2.2399 Z-0.1591 I-0.0496 J-0.0327
N22480 G3 X1.1443 Y2.2218 Z-0.16 I0.0496 J0.0327
N22490 G3 X1.1993 Y2.1915 I0.3854 J0.6346 F15.
N22500 G3 X1.2107 Y2.1986 I0.0035 J0.0071
N22510 G1 Y2.2612
N22520 G3 X1.197 Y2.285 I-0.0274 J0.
N22530 G2 X1.0706 Y2.3759 I0.3884 J0.6734
N22540 G2 X0.9663 Y2.4915 I0.4578 J0.518
N22550 G2 X0.9471 Y2.5216 I0.2722 J0.1948
N22560 G3 X0.9294 Y2.5526 I-3.578 J-2.0226
N22570 G3 X0.9056 Y2.5664 I-0.0238 J-0.0137
N22580 G1 X0.8416
N22590 G3 X0.8353 Y2.5563 I0. J-0.007
N22600 G3 X0.9079 Y2.4374 I0.6524 J0.3171
N22610 G3 X1.0004 Y2.3333 I0.6838 J0.5142
N22620 G3 X1.0945 Y2.2549 I0.6196 J0.648
N22630 G3 X1.1443 Y2.2218 I0.4352 J0.6015
N22640 G2 X1.1797 Y2.1495 I-0.0388 J-0.0639
N22650 G3 X1.221 Y2.0803 I0.066 J-0.0075
N22660 G3 X1.2435 Y2.0716 I0.3325 J0.8288
N22670 G2 X1.3035 Y2.1541 I0.31 J-0.1625
N22680 G1 Y2.3352
N22690 G2 X0.9796 Y2.6591 I0.25 J0.5739
N22700 G1 X0.6962
N22710 G3 X1.221 Y2.0803 I0.8573 J0.25
N22720 G3 X1.2326 Y2.093 I0.0034 J0.0085
N22730 G1 X1.2146 Y2.1279
N22740 G1 X1.1305 Y2.2391
N22750 G1 X1.1272 Y2.2415
N22760 G3 X1.1255 Y2.2399 I-0.0007 J-0.0009
N22770 G3 X1.2247 Y2.3053 Z-0.1665 I0.0496 J0.0327 F13.3
N22780 G3 X1.1255 Y2.2399 Z-0.173 I-0.0496 J-0.0327
N22790 G3 X1.2247 Y2.3053 Z-0.1795 I0.0496 J0.0327
N22800 G3 X1.1255 Y2.2399 Z-0.1861 I-0.0496 J-0.0327
N22810 G3 X1.2247 Y2.3053 Z-0.1926 I0.0496 J0.0327
N22820 G3 X1.1255 Y2.2399 Z-0.1991 I-0.0496 J-0.0327
N22830 G3 X1.1443 Y2.2218 Z-0.2 I0.0496 J0.0327
N22840 G3 X1.1993 Y2.1915 I0.3854 J0.6346 F15.
N22850 G3 X1.2107 Y2.1986 I0.0035 J0.0071
N22860 G1 Y2.2612
N22870 G3 X1.197 Y2.285 I-0.0274 J0.
N22880 G2 X1.0706 Y2.3759 I0.3884 J0.6734
N22890 G2 X0.9663 Y2.4915 I0.4578 J0.518
N22900 G2 X0.9471 Y2.5216 I0.2722 J0.1948
N22910 G3 X0.9294 Y2.5526 I-3.578 J-2.0226
N22920 G3 X0.9056 Y2.5664 I-0.0238 J-0.0137
N22930 G1 X0.8416
N22940 G3 X0.8353 Y2.5563 I0. J-0.007
N22950 G3 X0.9079 Y2.4374 I0.6524 J0.3171
N22960 G3 X1.0004 Y2.3333 I0.6838 J0.5142
N22970 G3 X1.0945 Y2.2549 I0.6196 J0.648
N22980 G3 X1.1443 Y2.2218 I0.4352 J0.6015
N22990 G2 X1.1797 Y2.1495 I-0.0388 J-0.0639
N23000 G3 X1.221 Y2.0803 I0.066 J-0.0075
N23010 G3 X1.2435 Y2.0716 I0.3325 J0.8288
N23020 G2 X1.3035 Y2.1541 I0.31 J-0.1625
N23030 G1 Y2.3352
N23040 G2 X0.9796 Y2.6591 I0.25 J0.5739
N23050 G1 X0.6962
N23060 G3 X1.221 Y2.0803 I0.8573 J0.25
N23070 G3 X1.2326 Y2.093 I0.0034 J0.0085
N23080 G1 X1.2146 Y2.1279
N23090 G1 X1.1305 Y2.2391
N23100 G1 X1.1272 Y2.2415
N23110 G3 X1.1255 Y2.2399 I-0.0007 J-0.0009
N23120 G3 X1.2247 Y2.3053 Z-0.2065 I0.0496 J0.0327 F13.3
N23130 G3 X1.1255 Y2.2399 Z-0.213 I-0.0496 J-0.0327
N23140 G3 X1.2247 Y2.3053 Z-0.2195 I0.0496 J0.0327
N23150 G3 X1.1255 Y2.2399 Z-0.2261 I-0.0496 J-0.0327
N23160 G3 X1.2247 Y2.3053 Z-0.2326 I0.0496 J0.0327
N23170 G3 X1.1255 Y2.2399 Z-0.2391 I-0.0496 J-0.0327
N23180 G3 X1.1443 Y2.2218 Z-0.24 I0.0496 J0.0327
N23190 G3 X1.1993 Y2.1915 I0.3854 J0.6346 F15.
N23200 G3 X1.2107 Y2.1986 I0.0035 J0.0071
N23210 G1 Y2.2612
N23220 G3 X1.197 Y2.285 I-0.0274 J0.
N23230 G2 X1.0706 Y2.3759 I0.3884 J0.6734
N23240 G2 X0.9663 Y2.4915 I0.4578 J0.518
N23250 G2 X0.9471 Y2.5216 I0.2722 J0.1948
N23260 G3 X0.9294 Y2.5526 I-3.578 J-2.0226
N23270 G3 X0.9056 Y2.5664 I-0.0238 J-0.0137
N23280 G1 X0.8416
N23290 G3 X0.8353 Y2.5563 I0. J-0.007
N23300 G3 X0.9079 Y2.4374 I0.6524 J0.3171
N23310 G3 X1.0004 Y2.3333 I0.6838 J0.5142
N23320 G3 X1.0945 Y2.2549 I0.6196 J0.648
N23330 G3 X1.1443 Y2.2218 I0.4352 J0.6015
N23340 G2 X1.1797 Y2.1495 I-0.0388 J-0.0639
N23350 G3 X1.221 Y2.0803 I0.066 J-0.0075
N23360 G3 X1.2435 Y2.0716 I0.3325 J0.8288
N23370 G2 X1.3035 Y2.1541 I0.31 J-0.1625
N23380 G1 Y2.3352
N23390 G2 X0.9796 Y2.6591 I0.25 J0.5739
N23400 G1 X0.6962
N23410 G3 X1.221 Y2.0803 I0.8573 J0.25
N23420 G3 X1.2328 Y2.0927 I0.0034 J0.0085
N23430 G1 X1.2159 Y2.1288
N23440 G1 X1.1257 Y2.2635
N23450 G1 X1.1195 Y2.2698
N23460 G3 X1.1159 Y2.2682 I-0.0015 J-0.0015
N23470 G3 X1.2343 Y2.277 Z-0.2465 I0.0592 J0.0044 F13.3
N23480 G3 X1.1159 Y2.2682 Z-0.253 I-0.0592 J-0.0044
N23490 G3 X1.1443 Y2.2218 Z-0.255 I0.0592 J0.0044
N23500 G3 X1.1993 Y2.1915 I0.3854 J0.6346 F15.
N23510 G3 X1.2107 Y2.1986 I0.0035 J0.0071
N23520 G1 Y2.2612
N23530 G3 X1.197 Y2.285 I-0.0274 J0.
N23540 G2 X1.0706 Y2.3759 I0.3884 J0.6734
N23550 G2 X0.9663 Y2.4915 I0.4578 J0.518
N23560 G2 X0.9471 Y2.5216 I0.2722 J0.1948
N23570 G3 X0.9294 Y2.5526 I-3.578 J-2.0226
N23580 G3 X0.9056 Y2.5664 I-0.0238 J-0.0137
N23590 G1 X0.8416
N23600 G3 X0.8353 Y2.5563 I0. J-0.007
N23610 G3 X0.9079 Y2.4374 I0.6524 J0.3171
N23620 G3 X1.0004 Y2.3333 I0.6838 J0.5142
N23630 G3 X1.0945 Y2.2549 I0.6196 J0.648
N23640 G3 X1.1443 Y2.2218 I0.4352 J0.6015
N23650 G2 X1.1797 Y2.1495 I-0.0388 J-0.0639
N23660 G3 X1.221 Y2.0803 I0.066 J-0.0075
N23670 G3 X1.2435 Y2.0716 I0.3325 J0.8288
N23680 G2 X1.3035 Y2.1541 I0.31 J-0.1625
N23690 G1 Y2.3352
N23700 G2 X0.9796 Y2.6591 I0.25 J0.5739
N23710 G1 X0.6962
N23720 G3 X1.221 Y2.0803 I0.8573 J0.25
N23730 G3 X1.2285 Y2.0774 Z-0.2537 I0.3325 J0.8288
N23740 G3 X1.2352 Y2.0748 Z-0.2499 I0.325 J0.8317
N23750 G3 X1.2404 Y2.0728 Z-0.2439 I0.3183 J0.8343
N23760 G3 X1.2435 Y2.0716 Z-0.2366 I0.3131 J0.8363
N23770 G2 X1.2439 Y2.0724 Z-0.23 I0.31 J-0.1625
N23780 G0 Z0.2
N23790 G0 X1.9282 Y1.0074
N23800 G1 Z0.125 F15.
N23810 G3 X1.9293 Y1.007 Z0.1174 I0.0222 J0.0551 F13.3
N23820 G3 X1.9325 Y1.0059 Z0.1106 I0.0211 J0.0555
N23830 G3 X1.9376 Y1.0045 Z0.1051 I0.0179 J0.0566
N23840 G3 X1.9442 Y1.0034 Z0.1014 I0.0128 J0.058
N23850 G3 X1.9517 Y1.0031 Z0.1 I0.0061 J0.0591
N23860 G3 X1.949 Y1.1219 Z0.0935 I-0.0014 J0.0594
N23870 G3 X1.9517 Y1.0031 Z0.087 I0.0014 J-0.0594
N23880 G3 X1.949 Y1.1219 Z0.0805 I-0.0014 J0.0594
N23890 G3 X1.9517 Y1.0031 Z0.0739 I0.0014 J-0.0594
N23900 G3 X1.949 Y1.1219 Z0.0674 I-0.0014 J0.0594
N23910 G3 X1.9517 Y1.0031 Z0.0609 I0.0014 J-0.0594
N23920 G3 X1.949 Y1.1219 Z0.0544 I-0.0014 J0.0594
N23930 G3 X1.9517 Y1.0031 Z0.0479 I0.0014 J-0.0594
N23940 G3 X1.949 Y1.1219 Z0.0414 I-0.0014 J0.0594
N23950 G3 X1.9517 Y1.0031 Z0.0349 I0.0014 J-0.0594
N23960 G3 X1.949 Y1.1219 Z0.0283 I-0.0014 J0.0594
N23970 G3 X1.9517 Y1.0031 Z0.0218 I0.0014 J-0.0594
N23980 G3 X1.949 Y1.1219 Z0.0153 I-0.0014 J0.0594
N23990 G3 X1.9517 Y1.0031 Z0.0088 I0.0014 J-0.0594
N24000 G3 X1.949 Y1.1219 Z0.0023 I-0.0014 J0.0594
N24010 G3 X1.9517 Y1.0031 Z-0.0042 I0.0014 J-0.0594
N24020 G3 X1.949 Y1.1219 Z-0.0107 I-0.0014 J0.0594
N24030 G3 X1.9517 Y1.0031 Z-0.0172 I0.0014 J-0.0594
N24040 G3 X1.949 Y1.1219 Z-0.0238 I-0.0014 J0.0594
N24050 G3 X1.9517 Y1.0031 Z-0.0303 I0.0014 J-0.0594
N24060 G3 X1.949 Y1.1219 Z-0.0368 I-0.0014 J0.0594
N24070 G3 X1.891 Y1.0625 Z-0.04 I0.0014 J-0.0594
N24080 G3 X1.9348 I0.0219 J0. F15.
N24090 G3 X1.7722 I-0.0813 J0.
N24100 G3 X2.0535 I0.1406 J0.
N24110 G3 X1.6535 I-0.2 J0.
N24120 G3 X2.1723 I0.2594 J0.
N24130 G3 X1.5348 I-0.3188 J0.
N24140 G3 X2.291 I0.3781 J0.
N24150 G3 X1.416 I-0.4375 J0.
N24160 G3 X2.291 I0.4375 J0.
N24170 G3 X2.2771 Y1.0749 I-0.0125 J0.
N24180 G1 X2.089 Y1.0535
N24190 G2 X2.085 Y1.0538 I-0.0011 J0.0125
N24200 G1 X1.9109 Y1.0947
N24210 G3 X1.8967 Y1.0879 I-0.0029 J-0.0122
N24220 G3 X2.004 Y1.0371 Z-0.0465 I0.0537 J-0.0254 F13.3
N24230 G3 X1.8967 Y1.0879 Z-0.053 I-0.0537 J0.0254
N24240 G3 X2.004 Y1.0371 Z-0.0595 I0.0537 J-0.0254
N24250 G3 X1.8967 Y1.0879 Z-0.0661 I-0.0537 J0.0254
N24260 G3 X2.004 Y1.0371 Z-0.0726 I0.0537 J-0.0254
N24270 G3 X1.8967 Y1.0879 Z-0.0791 I-0.0537 J0.0254
N24280 G3 X1.891 Y1.0625 Z-0.08 I0.0537 J-0.0254
N24290 G3 X1.9348 I0.0219 J0. F15.
